; generated by SuperSlicer 2.5.59.10 on 2024-06-03 at 11:33:52 UTC


;
;

;
;
; 

; external perimeters extrusion width = 0.60mm
; perimeters extrusion width = 0.60mm
; infill extrusion width = 0.60mm
; solid infill extrusion width = 0.60mm
; top infill extrusion width = 0.60mm
; support material extrusion width = 0.38mm
; first layer extrusion width = 0.60mm

; object:{"name":"Voron_Design_Cube_v7","id":"Voron_Design_Cube_v7 id:0 copy 0","object_center":[212.372772,188.765497,0.000000],"boundingbox_center":[212.372772,188.765497,10.000000],"boundingbox_size":[20.000000,20.000000,20.000000]}
EXCLUDE_OBJECT_DEFINE NAME=Voron_Design_Cube_v7_id_0_copy_0 CENTER=212.372772,188.765497 POLYGON=[[202.37,178.77],[222.37,178.77],[222.37,198.77],[202.37,198.77],[202.37,178.77]]
; plater:{"center":[212.372772,188.765497,0.000000],"boundingbox_center":[212.372772,188.765497,10.000000],"boundingbox_size":[20.000000,20.000000,20.000000]}

M107
;TYPE:Custom
START_PRINT EXTRUDER=250 BED=100
M107
G21 ; set units to millimeters
G90 ; use absolute coordinates
M83 ; use relative distances for extrusion
ACTIVATE_EXTRUDER EXTRUDER=extruder
; Filament gcode
FILAMENT_START MATERIAL=ASA COLOR=#368900 VENDOR=123-3D
SET_PRESSURE_ADVANCE ADVANCE=0.062
M104 S250 T0 ; set temperature
M109 S250 T0 ; set temperature and wait for it to be reached
M190 S100 ; set bed temperature and wait for it to be reached
;LAYER_CHANGE
;Z:0.24
;HEIGHT:0.24
G1 E-1 F3600
G1 Z0.24 F60000
G92 E0
; printing object Voron_Design_Cube_v7 id:0 copy 0
EXCLUDE_OBJECT_START NAME=Voron_Design_Cube_v7_id_0_copy_0
M204 S750
G1 X209.017 Y186.071
G1 E1 F3600
;TYPE:Support material
;WIDTH:0.6
M107
G1 F2400
G1 X209.469 Y185.59 E0.04332
G1 F2398.681
G1 X209.814 Y185.306 E.02936
G1 F2397.456
G1 X210.186 Y185.06 E.02931
G1 X210.582 Y184.853 E0.02931
G1 F2392.142
G1 X210.996 Y184.689 E.02931
G1 X211.426 Y184.568 E0.02931
G1 F2399.523
G1 X211.866 Y184.492 E.02931
G1 F2398.036
G1 X212.311 Y184.463 E.02931
G1 F2399.712
G1 X212.534 Y184.471 E.01466
G1 X212.757 Y184.48 E.01466
G1 X213.199 Y184.543 E0.02931
G1 X213.641 Y184.653 E.02991
G1 X214.254 Y184.896 E0.04329
G1 F2395.277
G1 X214.645 Y185.112 E.02937
G1 X215.012 Y185.367 E0.02931
G1 F2392.592
G1 X215.349 Y185.658 E.02931
G1 F2399.392
G1 X215.655 Y185.983 E.02931
G1 X215.926 Y186.338 E0.02931
G1 F2398.433
G1 X216.163 Y186.727 E.02992
G1 F2399.844
G1 X216.429 Y187.33 E.04327
G1 X216.556 Y187.759 E0.02937
G1 X216.638 Y188.198 E.02932
G1 X216.675 Y188.879 E.04481
G1 F2398.88
G1 X216.638 Y189.333 E.02993
G1 X216.556 Y189.772 E0.02932
G1 F2399.622
G1 X216.43 Y190.2 E.0293
G1 F2398.119
G1 X216.259 Y190.612 E.02931
G1 F2399.23
G1 X216.047 Y191.005 E.02931
G1 X215.795 Y191.374 E0.02931
G1 F2392.896
G1 X215.507 Y191.714 E.02931
G1 X215.184 Y192.023 E0.02931
G1 F2396.63
G1 X214.832 Y192.297 E.02931
G1 F2399.816
G1 X214.452 Y192.533 E.02937
G1 X213.852 Y192.807 E0.0433
G1 F2397.161
G1 X213.417 Y192.94 E.0299
G1 F2399.068
G1 X212.979 Y193.026 E.02931
G1 X212.534 Y193.065 E0.02931
G1 F2397.884
G1 X212.088 Y193.059 E.02931
G1 X211.645 Y193.006 E0.02931
G1 F2398.369
G1 X211.209 Y192.908 E.02936
G1 X210.589 Y192.682 E0.0433
G1 F2397.783
G1 X210.186 Y192.471 E.0299
G1 X209.814 Y192.225 E.02931
G1 X209.469 Y191.941 E0.02931
G1 F2398.026
G1 X209.155 Y191.623 E.02936
G1 F2399.23
G1 X208.756 Y191.098 E.04333
G1 F2398.398
G1 X208.53 Y190.703 E.02989
G1 X208.35 Y190.294 E0.02931
G1 X208.214 Y189.869 E.02931
G1 F2396.252
G1 X208.122 Y189.433 E.02931
G1 F2398.348
G1 X208.076 Y188.989 E.02931
G1 X208.076 Y188.542 E0.02931
G1 X208.122 Y188.098 E.02931
G1 F2396.252
G1 X208.214 Y187.662 E.02931
G1 F2398.342
G1 X208.35 Y187.237 E.02931
G1 X208.53 Y186.828 E0.02931
G1 X208.752 Y186.441 E.02931
G1 X208.982 Y186.12 E.02595
M107
G1 X208.612 Y186.984 F60000
M107
G1 F2400
G1 X208.612 Y189.888 E0.19073
G1 F2398.887
G1 X208.7 Y190.161 E.01885
G1 X208.864 Y190.534 E.02677
G1 X209.16 Y191.028 E0.03778
G1 X209.16 Y186.511 E.29659
G1 F2399.568
G1 X209.44 Y186.149 E.03006
G1 X209.709 Y185.878 E.02508
G1 X209.709 Y191.653 E0.37926
G1 X210.036 Y191.925 E.02794
G1 F2395.597
G1 X210.257 Y192.071 E.01743
G1 F2397.316
G1 X210.257 Y188.766 Z.24 E.2171
G1 F2389.266
G1 X210.257 Y185.46 Z.24 E.2171
G1 X210.376 Y185.381 E0.00934
G1 F2393.011
G1 X210.806 Y185.165 E.0316
G1 F2396.915
G1 X210.806 Y188.766 Z.24 E.23653
G1 F2399.022
G1 X210.806 Y192.368 Z.24 E.23653
G1 X210.932 Y192.422 E0.009
G1 F2398.583
G1 X211.354 Y192.559 E.02915
G1 F2399.435
G1 X211.354 Y188.768 Z.24 E.24901
G1 F2397.738
G1 X211.354 Y184.976 Z.24 E.249
G1 X211.903 Y184.865 E0.03675
G1 F2398.084
G1 X211.903 Y188.763 Z.24 E.25603
G1 F2400
G1 X211.903 Y192.661 Z.24 E.25603
G1 F2397.181
G1 X212.113 Y192.686 E.01391
G1 F2399.433
G1 X212.451 Y192.691 E.02221
G1 X212.451 Y188.766 Z.24 E.25776
G1 F2398.282
G1 X212.451 Y184.841 Z.24 E.25777
G1 F2399.825
G1 X212.724 Y184.852 E.01793
G1 X213 Y184.891 E0.01829
G1 F2398.286
G1 X213 Y188.766 Z.24 E.25451
G1 F2400
G1 X213 Y192.641 Z.24 E.2545
G1 F2394.53
G1 X213.326 Y192.577 E.02187
G1 F2399.969
G1 X213.548 Y192.51 E.01523
G1 X213.548 Y188.763 Z.24 E.24609
G1 F2398.221
G1 X213.548 Y185.016 Z.24 E.24609
G1 X214.097 Y185.235 E0.03879
G1 X214.097 Y188.763 Z.24 E.23173
G1 F2400
G1 X214.097 Y192.291 Z.24 E.23172
G1 F2391.418
G1 X214.271 Y192.206 E.01276
G1 X214.645 Y191.969 E0.02906
G1 F2396.462
G1 X214.645 Y188.767 Z.24 E.21027
G1 F2390.938
G1 X214.645 Y185.566 Z.24 E.21027
G1 X214.783 Y185.662 E0.011
G1 F2394.346
G1 X215.194 Y186.037 E.03655
G1 F2399.104
G1 X215.194 Y188.767 Z.24 E.17931
G1 F2400
G1 X215.194 Y191.497 Z.24 E.17931
G1 F2398.726
G1 X215.498 Y191.147 E.03048
G1 X215.742 Y190.785 E.02871
G1 X215.742 Y186.754 E0.26473
G1 X215.926 Y187.086 E.02495
G1 X216.077 Y187.454 E0.02613
G1 X216.193 Y187.846 E.02686
G1 X216.268 Y188.247 E0.02677
G1 F2395.891
G1 X216.291 Y188.53 E.01867
G1 X216.291 Y190.177 E0.10815
M107
;WIPE_START
G1 F48000
G1 X216.291 Y188.53 E-0.11733
G1 X216.268 Y188.247 E-0.02025
G1 X216.193 Y187.846 E-0.02904
G1 X216.077 Y187.454 E-0.02914
G1 X215.926 Y187.086 E-0.02834
G1 X215.742 Y186.754 E-0.02707
G1 X215.742 Y190.785 E-0.2872
G1 X215.498 Y191.147 E-0.03114
G1 X215.194 Y191.497 E-0.03306
G1 X215.194 Y186.621 E-0.34742
;WIPE_END
G1 E-0.05 F3600
G1 X217.967 Y190.41 F60000
G1 X221.359 Y195.043
G1 X222.343 Y196.229
G1 E1 F3600
M107
G1 F2398.104
G1 X222.666 Y195.906 E.03001
G1 X223.152 Y196.108 E0.03454
G1 X223.517 Y197.942 E.12282
G1 X223.384 Y198.706 E0.05091
G1 F2394.895
G1 X223.253 Y199.002 E.0213
G1 X223.055 Y199.653 E0.04469
G1 F2399.094
G1 X221.518 Y201.191 E.14284
G1 X218.013 Y201.191 E0.23014
G1 X218.013 Y199.681 E.09916
G1 X218.69 Y199.681 E0.04444
G1 F2396.432
G1 X219.033 Y199.539 E.02441
G1 X222.301 Y196.272 E0.30346
M107
G1 X223.131 Y198.939 F60000
M107
G1 F2398.884
G1 X223.131 Y197.914 E.06734
G1 X222.825 Y196.376 E0.10297
G1 F2391.719
G1 X222.754 Y196.346 E.00508
G1 F2398.982
G1 X222.583 Y196.517 E.01589
G1 X222.583 Y199.599 E0.20237
G1 F2399.86
G1 X222.034 Y200.147 E.05094
G1 X222.034 Y197.066 E.20237
G1 F2397.936
G1 X221.486 Y197.614 E.05094
G1 X221.486 Y200.696 E0.20237
G1 F2399.106
G1 X221.363 Y200.818 E.01138
G1 X220.937 Y200.818 E0.02798
G1 X220.937 Y198.163 E.17439
G1 F2398.092
G1 X220.389 Y198.711 E.05094
G1 X220.389 Y200.818 E.13837
G1 X219.84 Y200.818 E0.03602
G1 X219.84 Y199.26 E.10235
G1 X219.292 Y199.808 E.05094
G1 X219.292 Y200.818 E.06633
G1 X218.743 Y200.818 E0.03602
G1 F2397.847
G1 X218.743 Y199.808 E.06636
M107
G1 X218.38 Y198.447 F60000
;TYPE:External perimeter
;WIDTH:0.599999
M107
G1 F2400
G1 X222.054 Y194.772 E0.3413
G1 X222.054 Y182.758 E0.78902
G1 X218.38 Y179.084 E0.3413
G1 X206.366 Y179.084 E0.78902
G1 X202.691 Y182.758 E0.3413
G1 X202.691 Y194.772 E0.78902
G1 X206.366 Y198.447 E0.3413
G1 X218.32 Y198.447 E0.78508
M107
;WIPE_START
M204 S2000
G1 X218.38 Y198.047 F60000
;WIPE_END
M204 S750
G1 X218.153 Y197.899
;TYPE:Internal perimeter
M107
G1 F2400
G1 X221.506 Y194.545 E0.31146
G1 F2399.809
G1 X221.506 Y190.692 Z.24 E.25306
G1 X221.506 Y186.839 Z.24 E.25306
G1 X221.506 Y182.986 Z.24 E.25306
G1 X218.153 Y179.632 E.31146
G1 X206.593 Y179.632 E0.75918
G1 X203.24 Y182.986 E.31146
G1 X203.24 Y186.839 Z.24 E.25306
G1 X203.24 Y190.692 Z.24 E.25306
G1 X203.24 Y194.545 Z.24 E.25306
G1 X206.593 Y197.899 E.31146
G1 X218.093 Y197.899 E0.75524
M107
G1 X217.925 Y197.35 F60000
M107
G1 F2399.953
G1 X220.957 Y194.318 E.28161
G1 X220.957 Y190.616 Z.24 E.24311
G1 X220.957 Y186.915 Z.24 E.24311
G1 X220.957 Y183.213 Z.24 E.24311
G1 X217.925 Y180.181 E0.28161
G1 X214.223 Y180.181 Z.24 E.24311
G1 X210.522 Y180.181 Z.24 E.24311
G1 X206.82 Y180.181 Z.24 E.24311
G1 X203.788 Y183.213 E0.28161
G1 X203.788 Y186.915 Z.24 E.24311
G1 X203.788 Y190.616 Z.24 E.24311
G1 X203.788 Y194.318 Z.24 E.24311
G1 X206.82 Y197.35 E0.28161
G1 X210.502 Y197.35 Z.24 E.2418
G1 X214.183 Y197.35 Z.24 E.2418
G1 X217.865 Y197.35 Z.24 E.2418
M107
G1 X217.698 Y196.802 F60000
M107
G1 F2400
G1 X220.409 Y194.091 E0.25177
G1 F2399.828
G1 X220.409 Y190.541 Z.24 E.23316
G1 X220.409 Y186.99 Z.24 E.23316
G1 X220.409 Y183.44 Z.24 E.23316
G1 X217.698 Y180.729 E0.25177
G1 X214.148 Y180.729 Z.24 E.23316
G1 X210.597 Y180.729 Z.24 E.23316
G1 F2400
G1 X207.047 Y180.729 Z.24 E.23316
G1 F2399.727
G1 X204.337 Y183.44 E.25177
G1 X204.337 Y194.091 E0.69949
G1 X207.047 Y196.802 E.25177
G1 X217.638 Y196.802 E0.69555
M107
G1 E-1 F3600
G1 X217.034 Y192.28 F60000
G1 X216.786 Y192.111
G1 E1 F3600
;TYPE:External perimeter
M107
G1 F2400
G1 X216.416 Y192.55 E0.03773
G1 X216.002 Y192.949 E0.03772
G1 X215.549 Y193.302 E0.03773
G1 X215.063 Y193.607 E0.03771
G1 X214.284 Y193.963 E0.05622
G1 X213.731 Y194.135 E0.03807
G1 X213.167 Y194.246 E0.03773
G1 X212.595 Y194.299 E0.03772
G1 X212.021 Y194.292 E0.03773
G1 X211.45 Y194.226 E0.03773
G1 X210.89 Y194.101 E0.03771
G1 X210.085 Y193.809 E0.05621
G1 X209.57 Y193.542 E0.03808
G1 X209.11 Y193.239 E0.03618
G1 X208.646 Y192.862 E0.03926
G1 X208.242 Y192.454 E0.03772
G1 X207.802 Y191.877 E0.04767
G1 X207.434 Y191.271 E0.04655
G1 X207.201 Y190.746 E0.03773
G1 X207.024 Y190.2 E0.03772
G1 X206.904 Y189.638 E0.03773
G1 X206.843 Y189.067 E0.03772
G1 X206.841 Y188.492 E0.03773
G1 X206.899 Y187.921 E0.03772
G1 X207.016 Y187.359 E0.03773
G1 X207.191 Y186.811 E0.03772
G1 X207.421 Y186.285 E0.03773
G1 X207.705 Y185.786 E0.03772
G1 X208.239 Y185.081 E0.05806
G1 X208.626 Y184.687 E0.03624
G1 X209.068 Y184.322 E0.03769
G1 X209.546 Y184.003 E0.03772
G1 X210.054 Y183.736 E0.03773
G1 X210.588 Y183.523 E0.03772
G1 X211.14 Y183.366 E0.03773
G1 X211.706 Y183.268 E0.03772
G1 X212.279 Y183.228 E0.03773
G1 X212.853 Y183.248 E0.03772
G1 X213.422 Y183.328 E0.03773
G1 X214.274 Y183.565 E0.05806
G1 X214.783 Y183.779 E0.03626
G1 X215.286 Y184.055 E0.03768
G1 X215.758 Y184.382 E0.03773
G1 X216.194 Y184.757 E0.03773
G1 X216.588 Y185.174 E0.03772
G1 X216.938 Y185.63 E0.03772
G1 X217.378 Y186.397 E0.05806
G1 X217.59 Y186.907 E0.03627
G1 X217.754 Y187.456 E0.03767
G1 X217.86 Y188.021 E0.03773
G1 X217.908 Y188.904 E0.05807
G1 X217.864 Y189.482 E0.03811
G1 X217.76 Y190.047 E0.03773
G1 X217.599 Y190.598 E0.03772
G1 X217.381 Y191.13 E0.03773
G1 X217.109 Y191.636 E0.03772
G1 X216.82 Y192.061 E0.03378
M107
;WIPE_START
M204 S2000
G1 X216.935 Y192.482 F60000
;WIPE_END
M204 S750
G1 X217.562 Y191.941
;TYPE:Internal perimeter
M107
G1 F2398.334
G1 X217.239 Y192.42 E.03797
G1 X216.834 Y192.905 E0.04147
G1 X216.382 Y193.345 E.04145
G1 X215.886 Y193.735 E.04146
G1 X215.352 Y194.072 E0.04144
G1 X214.511 Y194.462 E.06089
G1 F2399.318
G1 X213.891 Y194.659 E.04272
G1 X213.272 Y194.785 E0.04146
G1 F2398.694
G1 X212.644 Y194.845 E.04145
G1 F2399.998
G1 X212.013 Y194.841 E.04146
G1 F2397.838
G1 X211.386 Y194.771 E.04146
G1 X210.769 Y194.636 E0.04144
G1 F2398.022
G1 X209.896 Y194.324 E.06088
G1 X209.316 Y194.028 E0.04273
G1 F2397.818
G1 X208.807 Y193.697 E.03991
G1 X208.298 Y193.286 E.043
G1 X207.851 Y192.839 E0.04145
G1 F2396.794
G1 X207.365 Y192.208 E.05234
G1 F2399.313
G1 X206.958 Y191.543 E.05121
G1 X206.699 Y190.967 E0.04146
G1 F2397.77
G1 X206.501 Y190.368 E.04146
G1 X206.367 Y189.751 E0.04146
G1 X206.297 Y189.124 E.04145
G1 X206.293 Y188.492 E0.04146
G1 F2398.027
G1 X206.354 Y187.864 E.04146
G1 F2397.206
G1 X206.48 Y187.246 E.04146
G1 X206.669 Y186.643 E0.04146
G1 X206.919 Y186.064 E.04146
G1 F2399.188
G1 X207.228 Y185.514 E.04146
G1 X207.803 Y184.749 E.06285
G1 X208.236 Y184.302 E0.04084
G1 F2398.665
G1 X208.719 Y183.898 E.04136
G1 F2399.459
G1 X209.243 Y183.546 E.04145
G1 X209.801 Y183.25 E0.04146
G1 X210.386 Y183.013 E.04145
G1 F2396.97
G1 X210.992 Y182.838 E.04146
G1 X211.614 Y182.727 E0.04146
G1 X212.243 Y182.681 E.04146
G1 F2399.108
G1 X212.874 Y182.7 E.04146
G1 X213.5 Y182.785 E0.04146
G1 X214.423 Y183.037 E.06283
G1 X214.998 Y183.275 E.04088
G1 X215.551 Y183.575 E.04133
G1 F2398.173
G1 X216.071 Y183.932 E.04146
G1 F2399.316
G1 X216.552 Y184.341 E.04146
G1 X216.988 Y184.798 E0.04145
G1 F2397.526
G1 X217.374 Y185.297 E.04145
G1 X217.854 Y186.125 E0.06283
G1 X218.097 Y186.698 E.04091
G1 F2399.611
G1 X218.28 Y187.3 E.04132
G1 X218.4 Y187.92 E0.04146
G1 X218.456 Y188.875 E.06283
G1 F2398.896
G1 X218.411 Y189.526 E.04286
G1 X218.3 Y190.148 E0.04146
G1 F2397.191
G1 X218.125 Y190.754 E.04146
G1 F2399.986
G1 X217.888 Y191.339 E.04146
G1 X217.595 Y191.89 E0.04099
M107
G1 E-1 F3600
G1 X217.376 Y191.772 F60000
G1 X216.626 Y192.767
G1 X215.71 Y193.557
G1 X215.196 Y193.877
G1 X214.361 Y194.255
G1 X213.195 Y194.547
G1 X212.592 Y194.601
G1 X211.385 Y194.521
G1 X210.257 Y194.207
G1 X209.405 Y193.794
G1 X208.9 Y193.46
G1 X208.008 Y192.644
G1 X207.455 Y191.913
G1 X206.914 Y190.84
G1 X206.604 Y189.671
G1 X206.541 Y188.463
G1 X206.672 Y187.535
G1 X205.895 Y187.372
G1 E1 F3600
M107
G1 F2396.86
G1 X205.943 Y187.133 E.01602
G1 X206.147 Y186.475 E0.04519
G1 F2395.788
G1 X206.417 Y185.843 E.04519
G1 F2399.935
G1 X206.752 Y185.242 E.04519
G1 X207.367 Y184.416 E.06763
G1 F2337.667
G1 X207.846 Y183.916 E.04544
G1 F2326.35
G1 X208.371 Y183.475 E.04503
G1 F2315.024
G1 X208.94 Y183.089 E.04519
G1 F2308.022
G1 X209.547 Y182.764 E.0452
G1 F2295.898
G1 X210.183 Y182.503 E.04518
G1 F2276.923
G1 X210.844 Y182.31 E.04519
G1 F2266.504
G1 X211.521 Y182.186 E.04519
G1 F2256.289
G1 X212.207 Y182.134 E.04519
G1 F2247.936
G1 X212.895 Y182.152 E.04519
G1 F2237.668
G1 X213.577 Y182.242 E.04519
G1 F2225.338
G1 X214.571 Y182.509 E.06761
G1 F2214.775
G1 X215.213 Y182.77 E.04551
G1 F2205.341
G1 X215.816 Y183.095 E.04499
G1 F2196.72
G1 X216.385 Y183.482 E.04519
G1 F2187.874
G1 X216.911 Y183.926 E.0452
G1 F2176.704
G1 X217.387 Y184.422 E.04519
G1 F2170.56
G1 X217.81 Y184.965 E.04519
G1 F2159.246
G1 X218.331 Y185.853 E.0676
G1 F2146.024
G1 X218.604 Y186.49 E.04555
G1 F2141.594
G1 X218.806 Y187.145 E.04496
G1 F2129.408
G1 X218.939 Y187.82 E.0452
G1 F2119.211
G1 X219.004 Y188.847 E.06759
G1 F2107.502
G1 X218.958 Y189.57 E.0476
G1 F2100.455
G1 X218.839 Y190.248 E.04519
G1 F2091.359
G1 X218.651 Y190.91 E.04519
G1 F2082.86
G1 X218.395 Y191.549 E.0452
G1 F2072.755
G1 X218.074 Y192.157 E.04518
G1 F2067.643
G1 X217.773 Y192.612 E.03581
G1 F2056.665
G1 X217.253 Y193.259 E.05455
G1 F2051.16
G1 X216.761 Y193.741 E.04518
G1 F2040.48
G1 X216.222 Y194.169 E.0452
G1 F2031.051
G1 X215.642 Y194.538 E.04517
G1 F2021.607
G1 X214.738 Y194.961 E.06556
G1 F2011.482
G1 X214.052 Y195.184 E.04738
G1 F2003.084
G1 X213.378 Y195.323 E.0452
G1 F1996.63
G1 X212.693 Y195.392 E.04518
G1 F1986.754
G1 X212.005 Y195.389 E.04519
G1 F1977.864
G1 X211.321 Y195.316 E.0452
G1 F1972.123
G1 X210.648 Y195.172 E.04517
G1 F1961.732
G1 X209.707 Y194.838 E.06555
G1 F1947.95
G1 X209.063 Y194.515 E.04739
G1 F1943.294
G1 X208.505 Y194.154 E.04364
G1 F1936.761
G1 X207.949 Y193.709 E.04673
G1 F1924.937
G1 X207.461 Y193.225 E.04519
G1 F1919.254
G1 X206.927 Y192.54 E.05701
G1 F1909.5
G1 X206.481 Y191.815 E.05587
G1 F1897.909
G1 X206.197 Y191.189 E.04519
G1 F1892.965
G1 X205.979 Y190.536 E.04519
G1 F1884.466
G1 X205.83 Y189.864 E.0452
G1 F1874.868
G1 X205.752 Y189.181 E.04519
G1 F1871.578
G1 X205.744 Y188.492 E.04519
G1 F1861.07
G1 X205.808 Y187.807 E.04519
G1 F1851.745
G1 X205.883 Y187.431 E.02523
