; generated by SuperSlicer 2.5.59.10 on 2024-06-06 at 03:38:42 UTC


;
;

;
;
; 

; external perimeters extrusion width = 0.60mm
; perimeters extrusion width = 0.60mm
; infill extrusion width = 0.60mm
; solid infill extrusion width = 0.60mm
; top infill extrusion width = 0.60mm
; first layer extrusion width = 0.60mm

; object:{"name":"Califlower v29","id":"Califlower v29.stl id:0 copy 0","object_center":[174.655345,181.035745,0.000000],"boundingbox_center":[174.655345,181.035745,2.500000],"boundingbox_size":[112.000000,112.000000,5.000000]}
EXCLUDE_OBJECT_DEFINE NAME=Califlower_v29_stl_id_0_copy_0 CENTER=174.655345,181.035745 POLYGON=[[118.66,173.04],[118.69,172.69],[118.78,172.35],[124.93,157.29],[125.13,156.91],[137.46,139.07],[137.74,138.75],[139.79,136.70],[140.09,136.45],[140.41,136.23],[140.76,136.05],[150.91,131.31],[165.97,125.16],[166.31,125.07],[166.66,125.04],[176.66,125.04],[197.16,126.04],[197.58,126.07],[198.00,126.16],[198.40,126.31],[198.78,126.51],[199.12,126.77],[216.94,144.12],[218.99,146.17],[219.25,146.47],[219.46,146.79],[219.64,147.15],[224.38,157.29],[230.53,172.35],[230.62,172.69],[230.66,173.04],[230.66,183.04],[229.66,203.54],[229.62,203.96],[229.53,204.38],[229.38,204.78],[229.18,205.16],[228.92,205.50],[218.99,215.90],[216.94,217.95],[199.12,235.30],[198.78,235.56],[198.40,235.76],[198.00,235.91],[197.58,236.01],[197.16,236.04],[176.66,237.04],[166.66,237.04],[166.31,237.01],[165.97,236.92],[150.91,230.76],[140.76,226.02],[140.41,225.84],[140.09,225.63],[139.79,225.37],[137.74,223.32],[120.39,205.50],[120.13,205.16],[119.93,204.78],[119.78,204.38],[119.69,203.96],[119.66,203.54],[118.66,183.04],[118.66,173.04]]
; plater:{"center":[174.655345,181.035745,0.000000],"boundingbox_center":[174.655345,181.035745,2.500000],"boundingbox_size":[112.000000,112.000000,5.000000]}

M107
;TYPE:Custom
START_PRINT EXTRUDER=245 BED=100
M107
G21 ; set units to millimeters
G90 ; use absolute coordinates
M83 ; use relative distances for extrusion
ACTIVATE_EXTRUDER EXTRUDER=extruder
; Filament gcode
FILAMENT_START MATERIAL=ASA COLOR=#F4DDFF VENDOR=OVETURE
SET_PRESSURE_ADVANCE ADVANCE=0.045
M104 S245 T0 ; set temperature
M109 S245 T0 ; set temperature and wait for it to be reached
M190 S100 ; set bed temperature and wait for it to be reached
;LAYER_CHANGE
;Z:0.24
;HEIGHT:0.24
G1 E-1 F3600
G1 Z0.24 F60000
G92 E0
G1 X132.941 Y133.947
G1 E1 F3600
;TYPE:Skirt
;WIDTH:0.45
M107
G1 F3000
M204 S3000
G1 X131.876 Y135.211 E0.07557
G1 F2999.731
G1 X129.335 Y138.9 Z.24 E.20485
G1 X126.793 Y142.59 Z.24 E.20485
G1 X124.252 Y146.279 Z.24 E.20485
G1 X121.71 Y149.969 Z.24 E.20485
G1 F3000
G1 X119.169 Y153.658 Z.24 E.20485
G1 F2999.618
G1 X118.637 Y154.721 E.05436
G1 X117.1 Y158.487 Z.24 E.18599
G1 X115.562 Y162.253 Z.24 E.18599
G1 X114.024 Y166.018 Z.24 E.18599
G1 X112.487 Y169.784 Z.24 E.18599
G1 X112.214 Y170.594 E0.03908
G1 F2997.146
G1 X111.918 Y172.096 E.07004
G1 X111.862 Y173.036 E0.04303
G1 F2998.499
G1 X111.862 Y178.036 Z.24 E.22863
G1 F3000
G1 X111.862 Y183.036 Z.24 E.22863
G1 F2999.95
G1 X112.064 Y187.202 Z.24 E.19073
G1 X112.265 Y191.368 Z.24 E.19073
G1 X112.467 Y195.535 Z.24 E.19073
G1 X112.668 Y199.701 Z.24 E.19073
G1 X112.87 Y203.867 Z.24 E.19073
G1 X113.048 Y205.407 E0.07088
G1 X113.412 Y206.755 E.06386
G1 X113.964 Y208.038 E0.06386
G1 X114.693 Y209.229 E.06385
G1 X115.522 Y210.24 E0.05978
G1 X118.993 Y213.804 Z.24 E.2275
G1 X122.464 Y217.368 Z.24 E.2275
G1 X125.936 Y220.932 Z.24 E.2275
G1 X129.407 Y224.496 Z.24 E.2275
G1 F3000
G1 X132.878 Y228.06 Z.24 E.2275
G1 F2999.746
G1 X135.312 Y230.475 E.15679
G1 X136.312 Y231.275 E0.05855
G1 X137.408 Y231.937 E.05855
G1 X148.341 Y237.054 E0.55196
G1 X152.107 Y238.591 Z.24 E.18599
G1 X155.872 Y240.129 Z.24 E.18599
G1 X159.637 Y241.667 Z.24 E.18599
G1 X163.403 Y243.204 Z.24 E.18599
G1 X164.55 Y243.567 E0.055
G1 X165.716 Y243.773 E.05414
G1 F2998.773
G1 X166.655 Y243.829 E.04303
G1 X176.986 Y243.821 E0.4724
G1 F2999.958
G1 X181.086 Y243.621 Z.24 E.1877
G1 X185.186 Y243.421 Z.24 E.1877
G1 X189.286 Y243.221 Z.24 E.1877
G1 X193.386 Y243.021 Z.24 E.1877
G1 X197.486 Y242.821 Z.24 E.1877
G1 X199.026 Y242.643 E.07088
G1 X200.375 Y242.279 E0.06386
G1 F2997.548
G1 X201.657 Y241.727 E.06386
G1 F2999.081
G1 X202.848 Y240.998 E.06385
G1 X203.86 Y240.169 E0.05978
G1 F2998.197
G1 X207.182 Y236.925 Z.24 E.21232
G1 X210.504 Y233.68 Z.24 E.21232
G1 X213.826 Y230.436 Z.24 E.21232
G1 F2999.18
G1 X217.147 Y227.192 Z.24 E.21232
G1 X220.469 Y223.947 Z.24 E.21232
G1 F3000
G1 X223.791 Y220.703 Z.24 E.21232
G1 F2999.912
G1 X227.139 Y217.2 Z.24 E.22158
G1 X230.486 Y213.696 Z.24 E.22158
G1 F3000
G1 X233.834 Y210.193 Z.24 E.22158
G1 F2998.863
G1 X234.617 Y209.229 E.0568
G1 X235.347 Y208.038 E0.06385
G1 F2999.534
G1 X235.899 Y206.755 E.06386
G1 X236.172 Y205.825 E.04432
G1 X236.44 Y203.867 E.09038
G1 X236.642 Y199.701 Z.24 E.19073
G1 X236.844 Y195.535 Z.24 E.19073
G1 X237.045 Y191.368 Z.24 E.19073
G1 X237.247 Y187.202 Z.24 E.19073
G1 X237.449 Y183.036 Z.24 E.19073
G1 X237.449 Y178.036 Z.24 E.22863
G1 F2997.788
G1 X237.449 Y173.036 Z.24 E.22863
G1 X237.392 Y172.096 E0.04303
G1 F2998.734
G1 X237.187 Y170.93 E.05414
G1 X236.824 Y169.784 E.055
G1 X230.673 Y154.721 E0.74395
G1 F2999.692
G1 X229.046 Y151.236 Z.24 E.17588
G1 X227.418 Y147.751 Z.24 E.17588
G1 X225.791 Y144.266 Z.24 E.17588
G1 X224.894 Y142.693 E0.0828
G1 F2998.724
G1 X224.095 Y141.693 E.05855
G1 X221.744 Y139.321 E0.15269
G1 F2999.523
G1 X218.167 Y135.837 Z.24 E.22832
G1 X214.59 Y132.353 Z.24 E.22832
G1 X211.014 Y128.87 Z.24 E.22832
G1 X207.437 Y125.386 Z.24 E.22832
G1 X203.86 Y121.902 Z.24 E.22832
G1 X202.848 Y121.074 E0.05978
G1 F2998.99
G1 X202.033 Y120.55 E.04432
G1 F2999.711
G1 X200.776 Y119.942 E.06386
G1 X199.445 Y119.519 E.06386
G1 X198.067 Y119.29 E0.06386
G1 X193.851 Y119.082 Z.24 E.19302
G1 X189.635 Y118.874 Z.24 E.19302
G1 X185.418 Y118.667 Z.24 E.19302
G1 X181.202 Y118.459 Z.24 E.19302
G1 F3000
G1 X176.986 Y118.251 Z.24 E.19302
G1 F2999.952
G1 X173.345 Y118.257 Z.24 E.16649
G1 X169.704 Y118.262 Z.24 E.16649
G1 F3000
G1 X166.063 Y118.268 Z.24 E.16649
G1 F2998.858
G1 X164.55 Y118.504 E.07004
G1 X163.403 Y118.867 E0.055
G1 F2999.427
G1 X159.637 Y120.405 Z.24 E.18599
G1 X155.872 Y121.942 Z.24 E.18599
G1 X152.107 Y123.48 Z.24 E.18599
G1 F3000
G1 X148.341 Y125.018 Z.24 E.18599
G1 F2999.777
G1 X144.697 Y126.723 Z.24 E.18399
G1 X141.052 Y128.429 Z.24 E.18399
G1 F2998.804
G1 X137.408 Y130.134 Z.24 E.18399
G1 X136.312 Y130.797 E0.05855
G1 X135.312 Y131.596 E.05855
G1 X132.983 Y133.905 E0.14995
M107
M204 S8000
G1 X133.264 Y134.188 F60000
M107
G1 F3000
M204 S3000
G1 F2978.391
G1 X133.223 Y134.229 E.00267
G1 X132.204 Y135.438 E0.07229
G1 F2999.542
G1 X129.667 Y139.12 Z.24 E.20447
G1 X127.13 Y142.802 Z.24 E.20447
G1 X124.593 Y146.485 Z.24 E.20447
G1 X122.056 Y150.167 Z.24 E.20447
G1 X119.519 Y153.849 Z.24 E.20447
G1 X119.006 Y154.872 E0.05232
G1 X117.468 Y158.637 Z.24 E.18599
G1 F2998.837
G1 X115.931 Y162.403 Z.24 E.18599
G1 X114.394 Y166.169 Z.24 E.18599
G1 F2997.933
G1 X112.856 Y169.934 Z.24 E.18599
G1 X112.599 Y170.697 E0.03679
G1 X112.315 Y172.131 E.06686
G1 X112.261 Y173.036 E0.04144
G1 F2999.103
G1 X112.261 Y178.036 Z.24 E.22863
G1 F3000
G1 X112.261 Y183.036 Z.24 E.22863
G1 F2999.82
G1 X112.462 Y187.198 Z.24 E.19055
G1 X112.664 Y191.36 Z.24 E.19055
G1 X112.865 Y195.523 Z.24 E.19055
G1 X113.067 Y199.685 Z.24 E.19055
G1 X113.268 Y203.847 Z.24 E.19055
G1 X113.437 Y205.322 E0.06787
G1 X113.785 Y206.616 E.06126
G1 X114.314 Y207.847 E.06126
G1 F2998.91
G1 X115.012 Y208.99 E.06126
G1 F2999.983
G1 X115.807 Y209.962 E.05742
G1 X119.278 Y213.526 Z.24 E.2275
G1 X122.749 Y217.09 Z.24 E.2275
G1 X126.221 Y220.654 Z.24 E.2275
G1 X129.692 Y224.218 Z.24 E.2275
G1 X133.163 Y227.782 Z.24 E.2275
G1 X135.575 Y230.176 E0.15536
G1 X136.534 Y230.944 E.05617
G1 F2997.731
G1 X137.584 Y231.58 E.05617
G1 X148.492 Y236.685 E0.55068
G1 F2999.815
G1 X152.258 Y238.223 Z.24 E.18599
G1 X156.023 Y239.76 Z.24 E.18599
G1 X159.788 Y241.298 Z.24 E.18599
G1 F3000
G1 X163.554 Y242.835 Z.24 E.18599
G1 F2999.507
G1 X164.653 Y243.182 E.0527
G1 X165.751 Y243.376 E0.05097
G1 F2997.371
G1 X166.655 Y243.43 E.04144
G1 X176.967 Y243.423 E0.47151
G1 F2999.782
G1 X181.067 Y243.223 Z.24 E.1877
G1 X185.167 Y243.023 Z.24 E.1877
G1 X189.267 Y242.823 Z.24 E.1877
G1 X193.367 Y242.623 Z.24 E.1877
G1 X197.467 Y242.423 Z.24 E.1877
G1 X198.942 Y242.254 E0.06787
G1 F2997.848
G1 X200.235 Y241.906 E.06126
G1 X201.466 Y241.377 E0.06126
G1 X202.609 Y240.679 E.06126
G1 X203.582 Y239.884 E0.05742
G1 F2998.377
G1 X206.903 Y236.64 Z.24 E.21228
G1 X210.224 Y233.396 Z.24 E.21228
G1 X213.546 Y230.152 Z.24 E.21228
G1 F2999.262
G1 X216.867 Y226.909 Z.24 E.21228
G1 X220.188 Y223.665 Z.24 E.21228
G1 F3000
G1 X223.509 Y220.421 Z.24 E.21228
G1 F2999.791
G1 X226.855 Y216.92 Z.24 E.22144
G1 X230.2 Y213.419 Z.24 E.22144
G1 X233.546 Y209.918 Z.24 E.22144
G1 X234.298 Y208.99 E0.05461
G1 X234.997 Y207.847 E.06126
G1 F2998.45
G1 X235.525 Y206.616 E.06126
G1 X235.782 Y205.74 E0.04172
G1 F2999.16
G1 X236.042 Y203.847 E.08737
G1 X236.244 Y199.685 Z.24 E.19055
G1 X236.445 Y195.523 Z.24 E.19055
G1 X236.647 Y191.36 Z.24 E.19055
G1 X236.848 Y187.198 Z.24 E.19055
G1 X237.05 Y183.036 Z.24 E.19055
G1 X237.05 Y178.036 Z.24 E.22863
G1 F2998.603
G1 X237.05 Y173.036 Z.24 E.22863
G1 X236.995 Y172.131 E0.04144
G1 F2999.489
G1 X236.802 Y171.033 E.05097
G1 X236.455 Y169.934 E.0527
G1 X230.304 Y154.872 E0.74395
G1 X228.679 Y151.393 Z.24 E.17558
G1 X227.055 Y147.914 Z.24 E.17558
G1 X225.43 Y144.435 Z.24 E.17558
G1 X224.563 Y142.914 E0.08004
G1 X223.795 Y141.955 E.05617
G1 X221.462 Y139.603 E.1515
G1 X217.886 Y136.12 Z.24 E.22827
G1 X214.31 Y132.637 Z.24 E.22827
G1 X210.734 Y129.153 Z.24 E.22827
G1 X207.158 Y125.67 Z.24 E.22827
G1 X203.582 Y122.187 Z.24 E.22827
G1 X202.609 Y121.393 E0.05742
G1 X201.842 Y120.899 E.04172
G1 X200.636 Y120.315 E0.06126
G1 F2997.503
G1 X199.36 Y119.909 E.06126
G1 X198.038 Y119.688 E0.06126
G1 F2998.631
G1 X193.824 Y119.48 Z.24 E.19294
G1 X189.61 Y119.272 Z.24 E.19294
G1 F2999.206
G1 X185.395 Y119.065 Z.24 E.19294
G1 X181.181 Y118.857 Z.24 E.19294
G1 X176.967 Y118.649 Z.24 E.19294
G1 X173.344 Y118.654 Z.24 E.16567
G1 X169.721 Y118.66 Z.24 E.16566
G1 X166.098 Y118.665 Z.24 E.16567
G1 X164.653 Y118.889 E0.06686
G1 X163.554 Y119.236 E.0527
G1 X159.788 Y120.774 Z.24 E.18599
G1 X156.023 Y122.312 Z.24 E.18599
G1 X152.258 Y123.849 Z.24 E.18599
G1 X148.492 Y125.387 Z.24 E.18599
G1 X137.584 Y130.492 E0.55068
G1 F2997.686
G1 X136.534 Y131.128 E.05617
G1 X135.575 Y131.896 E0.05617
G1 F2999.687
G1 X133.307 Y134.146 E.14609
M107
M204 S8000
G1 X133.587 Y134.429 F60000
M107
G1 F3000
M204 S3000
G1 F2998.104
G1 X133.504 Y134.511 E.00534
G1 F2999.044
G1 X132.532 Y135.664 E.069
G1 X129.999 Y139.339 Z.24 E.20409
G1 X127.467 Y143.014 Z.24 E.20409
G1 X124.934 Y146.69 Z.24 E.20409
G1 X122.402 Y150.365 Z.24 E.20409
G1 F2998.593
G1 X119.869 Y154.04 Z.24 E.20409
G1 X119.375 Y155.023 E0.05028
G1 X117.838 Y158.788 Z.24 E.18599
G1 X116.3 Y162.554 Z.24 E.18599
G1 X114.762 Y166.32 Z.24 E.18599
G1 X113.225 Y170.085 Z.24 E.18599
G1 X112.984 Y170.8 E0.03449
G1 F2999.092
G1 X112.712 Y172.166 E.06369
G1 X112.659 Y173.036 E0.03985
G1 X112.661 Y176.467 Z.24 E.15687
G1 X112.664 Y179.897 Z.24 E.15688
G1 X112.666 Y183.328 Z.24 E.15687
G1 X113.666 Y203.828 E0.93851
G1 X113.827 Y205.237 E.06486
G1 X114.159 Y206.476 E.05866
G1 X114.664 Y207.656 E0.05866
G1 F2997.015
G1 X115.331 Y208.751 E.05866
G1 X116.093 Y209.684 E0.05506
G1 F2998.844
G1 X119.564 Y213.248 Z.24 E.2275
G1 F2999.045
G1 X123.035 Y216.812 Z.24 E.2275
G1 X126.507 Y220.376 Z.24 E.22749
G1 X129.978 Y223.94 Z.24 E.2275
G1 X133.449 Y227.504 Z.24 E.2275
G1 X135.838 Y229.876 E0.15393
G1 F2998.707
G1 X136.755 Y230.612 E.05378
G1 X137.761 Y231.222 E0.05378
G1 F2999.106
G1 X141.388 Y232.92 Z.24 E.18313
G1 X145.015 Y234.618 Z.24 E.18313
G1 X148.642 Y236.316 Z.24 E.18313
G1 X163.705 Y242.466 E0.74395
G1 F2998.632
G1 X164.756 Y242.797 E.05041
G1 F2999.499
G1 X165.785 Y242.979 E.04779
G1 X166.655 Y243.032 E0.03985
G1 X170.086 Y243.03 Z.24 E.15687
G1 X173.516 Y243.027 Z.24 E.15688
G1 F3000
G1 X176.947 Y243.025 Z.24 E.15687
G1 F2999.854
G1 X181.047 Y242.825 Z.24 E.1877
G1 X185.147 Y242.625 Z.24 E.1877
G1 X189.247 Y242.425 Z.24 E.1877
G1 F2998.975
G1 X193.347 Y242.225 Z.24 E.1877
G1 X197.447 Y242.025 Z.24 E.1877
G1 X198.857 Y241.864 E0.06486
G1 F2999.149
G1 X200.096 Y241.532 E.05866
G1 X201.275 Y241.027 E.05866
G1 X202.371 Y240.36 E0.05866
G1 X203.304 Y239.599 E.05506
G1 X206.624 Y236.356 Z.24 E.21224
G1 X209.945 Y233.113 Z.24 E.21225
G1 X213.266 Y229.87 Z.24 E.21224
G1 X216.586 Y226.626 Z.24 E.21224
G1 X219.907 Y223.383 Z.24 E.21225
G1 X223.227 Y220.14 Z.24 E.21224
G1 X233.258 Y209.642 E0.66391
G1 X233.979 Y208.751 E.05243
G1 X234.647 Y207.656 E.05866
G1 X235.152 Y206.476 E0.05866
G1 F2995.084
G1 X235.393 Y205.656 E.03912
G1 X235.606 Y204.39 E0.05866
G1 F2997.871
G1 X235.814 Y200.178 Z.24 E.19286
G1 F2998.333
G1 X236.021 Y195.965 Z.24 E.19286
G1 X236.229 Y191.753 Z.24 E.19286
G1 F2999.258
G1 X236.436 Y187.54 Z.24 E.19286
G1 X236.644 Y183.328 Z.24 E.19286
G1 X236.647 Y179.897 Z.24 E.15687
G1 X236.649 Y176.467 Z.24 E.15688
G1 X236.652 Y173.036 Z.24 E.15687
G1 X236.598 Y172.166 E0.03985
G1 F2998.143
G1 X236.417 Y171.137 E.04779
G1 X236.086 Y170.085 E0.05041
G1 F2999.091
G1 X234.548 Y166.32 Z.24 E.18599
G1 X233.01 Y162.554 Z.24 E.18599
G1 X231.473 Y158.788 Z.24 E.18599
G1 F3000
G1 X229.935 Y155.023 Z.24 E.18599
G1 F2999.961
G1 X228.313 Y151.55 Z.24 E.17528
G1 X226.691 Y148.077 Z.24 E.17527
G1 F3000
G1 X225.069 Y144.604 Z.24 E.17528
G1 F2999.251
G1 X224.232 Y143.136 E.07728
G1 X223.227 Y141.932 E0.07169
G1 X221.18 Y139.885 E.13237
G1 X217.605 Y136.403 Z.24 E.22822
G1 X214.03 Y132.92 Z.24 E.22822
G1 X210.454 Y129.438 Z.24 E.22822
G1 X206.879 Y125.955 Z.24 E.22822
G1 F3000
G1 X203.304 Y122.473 Z.24 E.22822
G1 F2998.774
G1 X202.371 Y121.712 E.05506
G1 X201.651 Y121.249 E0.03912
G1 X200.497 Y120.689 E.05866
G1 X199.275 Y120.298 E0.05866
G1 F2999.686
G1 X198.01 Y120.085 E.05866
G1 X176.947 Y119.047 E0.96428
G1 X173.516 Y119.045 Z.24 E.15687
G1 X170.086 Y119.042 Z.24 E.15688
G1 X166.655 Y119.04 Z.24 E.15687
G1 X165.785 Y119.093 E0.03985
G1 X164.756 Y119.274 E.04779
G1 F2998.855
G1 X163.705 Y119.605 E.05041
G1 X148.642 Y125.756 E0.74395
G1 F2999.515
G1 X145.015 Y127.454 Z.24 E.18313
G1 X141.388 Y129.151 Z.24 E.18313
G1 F2998.858
G1 X137.761 Y130.849 Z.24 E.18313
G1 X136.755 Y131.459 E0.05378
G1 F2999.968
G1 X135.838 Y132.196 E.05378
G1 F2993.188
G1 X133.63 Y134.386 E.14222
M107
M204 S8000
G1 X133.911 Y134.669 F60000
M107
G1 F3000
M204 S3000
G1 X133.786 Y134.793 E0.00802
G1 F2993.508
G1 X132.859 Y135.891 E.06572
G1 F2999.992
G1 X130.331 Y139.559 Z.24 E.2037
G1 X127.803 Y143.227 Z.24 E.20371
G1 X125.275 Y146.895 Z.24 E.2037
G1 X122.747 Y150.563 Z.24 E.20371
G1 X120.219 Y154.231 Z.24 E.2037
G1 X119.744 Y155.173 E.04824
G1 X118.15 Y159.105 Z.24 E.19402
G1 X116.557 Y163.038 Z.24 E.19402
G1 X114.963 Y166.971 Z.24 E.19402
G1 F2998.893
G1 X113.369 Y170.903 Z.24 E.19402
G1 X113.109 Y172.201 E0.06051
G1 X113.058 Y173.036 E.03826
G1 F2999.972
G1 X113.06 Y176.46 Z.24 E.15658
G1 X113.062 Y179.884 Z.24 E.15657
G1 X113.064 Y183.308 Z.24 E.15658
G1 X113.264 Y187.408 Z.24 E.1877
G1 X113.464 Y191.508 Z.24 E.1877
G1 F2998.973
G1 X113.664 Y195.608 Z.24 E.1877
G1 X113.864 Y199.708 Z.24 E.1877
G1 F2997.946
G1 X114.064 Y203.808 Z.24 E.1877
G1 X114.216 Y205.153 E0.06185
G1 X114.532 Y206.337 E.05606
G1 X115.013 Y207.465 E0.05606
G1 F2998.025
G1 X115.65 Y208.512 E.05606
G1 X116.378 Y209.406 E0.0527
G1 X119.849 Y212.97 Z.24 E.2275
G1 F2999.008
G1 X123.32 Y216.534 Z.24 E.2275
G1 X126.792 Y220.098 Z.24 E.22749
G1 X130.263 Y223.662 Z.24 E.2275
G1 X133.734 Y227.226 Z.24 E.2275
G1 X136.101 Y229.576 E0.15249
G1 F2998.06
G1 X136.976 Y230.281 E.0514
G1 X137.937 Y230.865 E0.0514
G1 X141.556 Y232.559 Z.24 E.1827
G1 F2999.356
G1 X145.174 Y234.253 Z.24 E.1827
G1 F3000
G1 X148.793 Y235.947 Z.24 E.1827
G1 F2999.958
G1 X152.559 Y237.484 Z.24 E.18599
G1 X156.324 Y239.022 Z.24 E.18599
G1 X160.089 Y240.56 Z.24 E.18599
G1 F3000
