; generated by SuperSlicer 2.5.59.10 on 2024-06-06 at 06:08:17 UTC


;
;

;
;
; 

; external perimeters extrusion width = 0.60mm
; perimeters extrusion width = 0.60mm
; infill extrusion width = 0.60mm
; solid infill extrusion width = 0.60mm
; top infill extrusion width = 0.60mm
; first layer extrusion width = 0.60mm

; object:{"name":"Califlower v29","id":"Califlower v29.stl id:0 copy 0","object_center":[174.655345,181.035745,0.000000],"boundingbox_center":[174.655345,181.035745,2.500000],"boundingbox_size":[112.000000,112.000000,5.000000]}
EXCLUDE_OBJECT_DEFINE NAME=Califlower_v29_stl_id_0_copy_0 CENTER=174.655345,181.035745 POLYGON=[[118.66,173.04],[118.69,172.69],[118.78,172.35],[124.93,157.29],[125.13,156.91],[137.46,139.07],[137.74,138.75],[139.79,136.70],[140.09,136.45],[140.41,136.23],[140.76,136.05],[150.91,131.31],[165.97,125.16],[166.31,125.07],[166.66,125.04],[176.66,125.04],[197.16,126.04],[197.58,126.07],[198.00,126.16],[198.40,126.31],[198.78,126.51],[199.12,126.77],[216.94,144.12],[218.99,146.17],[219.25,146.47],[219.46,146.79],[219.64,147.15],[224.38,157.29],[230.53,172.35],[230.62,172.69],[230.66,173.04],[230.66,183.04],[229.66,203.54],[229.62,203.96],[229.53,204.38],[229.38,204.78],[229.18,205.16],[228.92,205.50],[218.99,215.90],[216.94,217.95],[199.12,235.30],[198.78,235.56],[198.40,235.76],[198.00,235.91],[197.58,236.01],[197.16,236.04],[176.66,237.04],[166.66,237.04],[166.31,237.01],[165.97,236.92],[150.91,230.76],[140.76,226.02],[140.41,225.84],[140.09,225.63],[139.79,225.37],[137.74,223.32],[120.39,205.50],[120.13,205.16],[119.93,204.78],[119.78,204.38],[119.69,203.96],[119.66,203.54],[118.66,183.04],[118.66,173.04]]
; plater:{"center":[174.655345,181.035745,0.000000],"boundingbox_center":[174.655345,181.035745,2.500000],"boundingbox_size":[112.000000,112.000000,5.000000]}

M107
;TYPE:Custom
START_PRINT EXTRUDER=245 BED=100
M107
G21 ; set units to millimeters
G90 ; use absolute coordinates
M83 ; use relative distances for extrusion
ACTIVATE_EXTRUDER EXTRUDER=extruder
; Filament gcode
FILAMENT_START MATERIAL=ASA COLOR=#F4DDFF VENDOR=OVETURE
SET_PRESSURE_ADVANCE ADVANCE=0.045
M104 S245 T0 ; set temperature
M109 S245 T0 ; set temperature and wait for it to be reached
M190 S100 ; set bed temperature and wait for it to be reached
;LAYER_CHANGE
;Z:0.24
;HEIGHT:0.24
G1 E-1 F3600
G1 Z0.24 F60000
G92 E0
G1 X132.778 Y133.76
G1 E1 F3600
;TYPE:Skirt
;WIDTH:0.45
M107
G1 F3000
M204 S3000
G1 X131.712 Y135.026 E0.07566
G1 F2999.427
G1 X129.16 Y138.731 Z.24 E.20573
G1 X126.607 Y142.436 Z.24 E.20573
G1 X124.055 Y146.142 Z.24 E.20573
G1 X121.502 Y149.847 Z.24 E.20573
G1 F3000
G1 X118.95 Y153.552 Z.24 E.20573
G1 F2996.916
G1 X118.418 Y154.616 E.05445
G1 F2999.954
G1 X116.873 Y158.398 Z.24 E.18681
G1 X115.329 Y162.18 Z.24 E.18681
G1 X113.785 Y165.963 Z.24 E.18681
G1 X112.24 Y169.745 Z.24 E.18681
G1 X111.967 Y170.555 E0.03908
G1 F2998.878
G1 X111.671 Y172.059 E.07011
G1 X111.615 Y173 E0.0431
G1 F2999.964
G1 X111.615 Y176.348 Z.24 E.15309
G1 X111.615 Y179.697 Z.24 E.15309
G1 F3000
G1 X111.615 Y183.045 Z.24 E.15309
G1 F2999.631
G1 X111.817 Y187.229 Z.24 E.19156
G1 X112.02 Y191.413 Z.24 E.19156
G1 X112.222 Y195.598 Z.24 E.19156
G1 X112.425 Y199.782 Z.24 E.19156
G1 X112.627 Y203.966 Z.24 E.19156
G1 X112.805 Y205.508 E0.07097
G1 X113.169 Y206.858 E.06394
G1 X113.722 Y208.143 E0.06395
G1 F2998.054
G1 X114.452 Y209.335 E.06394
G1 X115.282 Y210.348 E0.05987
G1 F2999.37
G1 X118.769 Y213.928 Z.24 E.2285
G1 X122.255 Y217.508 Z.24 E.2285
G1 X125.742 Y221.087 Z.24 E.2285
G1 X129.228 Y224.667 Z.24 E.2285
G1 F3000
G1 X132.715 Y228.247 Z.24 E.2285
G1 F2999.261
G1 X135.158 Y230.671 E.15737
G1 X136.16 Y231.472 E0.05863
G1 F2998.315
G1 X137.257 Y232.135 E.05863
G1 X148.236 Y237.274 E0.5543
G1 F2999.96
G1 X152.018 Y238.818 Z.24 E.18681
G1 X155.801 Y240.363 Z.24 E.18681
G1 X159.583 Y241.907 Z.24 E.18681
G1 F3000
G1 X163.365 Y243.451 Z.24 E.18681
G1 F2999.142
G1 X164.513 Y243.814 E.05507
G1 X165.679 Y244.02 E.05414
G1 X166.62 Y244.076 E0.0431
G1 X170.078 Y244.073 Z.24 E.15814
G1 X173.537 Y244.071 Z.24 E.15814
G1 X176.995 Y244.068 Z.24 E.15814
G1 X181.113 Y243.867 Z.24 E.18853
G1 X185.231 Y243.666 Z.24 E.18853
G1 X189.35 Y243.466 Z.24 E.18853
G1 X193.468 Y243.265 Z.24 E.18853
G1 X197.586 Y243.064 Z.24 E.18853
G1 X199.128 Y242.886 E0.07097
G1 X200.478 Y242.522 E.06394
G1 F2998.709
G1 X201.762 Y241.969 E.06395
G1 F2999.986
G1 X202.955 Y241.239 E.06394
G1 X203.968 Y240.409 E0.05987
G1 X207.305 Y237.15 Z.24 E.21326
G1 X210.641 Y233.892 Z.24 E.21326
G1 X213.978 Y230.633 Z.24 E.21326
G1 X217.314 Y227.374 Z.24 E.21326
G1 X220.65 Y224.116 Z.24 E.21326
G1 F3000
G1 X223.987 Y220.857 Z.24 E.21326
G1 F2999.937
G1 X227.349 Y217.338 Z.24 E.22255
G1 X230.712 Y213.82 Z.24 E.22255
G1 X234.074 Y210.301 Z.24 E.22255
G1 X234.858 Y209.335 E0.05689
G1 F2998.408
G1 X235.588 Y208.143 E.06394
G1 X236.141 Y206.858 E0.06395
G1 F2999.392
G1 X236.414 Y205.928 E.04432
G1 X236.684 Y203.966 E0.09055
G1 X236.886 Y199.782 Z.24 E.19156
G1 X237.089 Y195.598 Z.24 E.19156
G1 X237.291 Y191.413 Z.24 E.19156
G1 X237.494 Y187.229 Z.24 E.19156
G1 X237.696 Y183.045 Z.24 E.19156
G1 X237.696 Y179.697 Z.24 E.15309
G1 X237.696 Y176.348 Z.24 E.15309
G1 X237.696 Y173 Z.24 E.15309
G1 X237.64 Y172.059 E0.0431
G1 X237.434 Y170.893 E.05414
G1 X237.071 Y169.745 E.05507
G1 X230.893 Y154.616 E0.74724
G1 X229.258 Y151.116 Z.24 E.17664
G1 X227.624 Y147.616 Z.24 E.17664
G1 F3000
G1 X225.989 Y144.116 Z.24 E.17664
G1 F2999.124
G1 X225.092 Y142.54 E.08295
G1 X224.291 Y141.539 E.05863
G1 X221.931 Y139.158 E0.15328
G1 X218.937 Y136.242 Z.24 E.1911
G1 X215.943 Y133.326 Z.24 E.1911
G1 X212.949 Y130.41 Z.24 E.1911
G1 X209.956 Y127.494 Z.24 E.1911
G1 X206.962 Y124.578 Z.24 E.1911
G1 F3000
G1 X203.968 Y121.662 Z.24 E.1911
G1 F2999.622
G1 X202.955 Y120.833 E.05987
G1 X202.14 Y120.309 E.04432
G1 X200.881 Y119.7 E0.06394
G1 F2998.903
G1 X199.548 Y119.277 E.06395
G1 X198.168 Y119.047 E0.06394
G1 X193.933 Y118.838 Z.24 E.19387
G1 X189.699 Y118.629 Z.24 E.19387
G1 F2999.229
G1 X185.464 Y118.421 Z.24 E.19387
G1 X181.23 Y118.212 Z.24 E.19387
G1 F3000
G1 X176.995 Y118.003 Z.24 E.19387
G1 F2999.944
G1 X173.339 Y118.009 Z.24 E.16716
G1 X169.684 Y118.015 Z.24 E.16716
G1 X166.028 Y118.021 Z.24 E.16716
G1 X164.513 Y118.257 E0.07011
G1 X163.365 Y118.62 E.05507
G1 X148.236 Y124.798 E0.74724
G1 X144.576 Y126.511 Z.24 E.18477
G1 X140.917 Y128.223 Z.24 E.18477
G1 X137.257 Y129.936 Z.24 E.18477
G1 X136.16 Y130.6 E0.05863
G1 X135.158 Y131.4 E.05863
G1 F2992.705
G1 X132.82 Y133.718 E.15053
M107
M204 S8000
G1 X133.101 Y134.001 F60000
M107
G1 F3000
M204 S3000
G1 X133.059 Y134.042 E0.00267
G1 F2991.014
G1 X132.04 Y135.252 E.07237
G1 X119.3 Y153.743 E1.02673
G1 F2998.877
G1 X118.786 Y154.767 E.05241
G1 X112.609 Y169.896 E0.74724
G1 F2999.353
G1 X112.352 Y170.658 E.03678
G1 X112.068 Y172.094 E0.06693
G1 X112.013 Y173 E.04151
G1 X112.013 Y183.045 E0.45928
G1 X112.215 Y187.225 Z.24 E.19138
G1 X112.418 Y191.406 Z.24 E.19138
G1 X112.62 Y195.586 Z.24 E.19138
G1 X112.823 Y199.767 Z.24 E.19138
G1 F3000
G1 X113.025 Y203.947 Z.24 E.19138
G1 F2998.244
G1 X113.194 Y205.423 E.06796
G1 X113.543 Y206.719 E0.06135
G1 F2999.477
G1 X114.072 Y207.952 E.06135
G1 F2997.922
G1 X114.771 Y209.096 E.06134
G1 X115.567 Y210.07 E0.05751
G1 F2999.554
G1 X119.054 Y213.65 Z.24 E.2285
G1 X122.54 Y217.23 Z.24 E.2285
G1 X126.027 Y220.809 Z.24 E.2285
G1 X129.513 Y224.389 Z.24 E.2285
G1 X133 Y227.969 Z.24 E.2285
G1 X135.421 Y230.371 E.15594
G1 X136.381 Y231.141 E0.05625
G1 X137.433 Y231.778 E.05624
G1 X148.387 Y236.905 E0.55302
G1 X152.169 Y238.449 Z.24 E.18681
G1 X155.951 Y239.993 Z.24 E.18681
G1 F2998.749
G1 X159.733 Y241.538 Z.24 E.18681
G1 X163.515 Y243.082 Z.24 E.18681
G1 X164.616 Y243.43 E0.05277
G1 F2999.403
G1 X165.714 Y243.623 E.05097
G1 X166.62 Y243.678 E.04151
G1 X176.976 Y243.67 E0.47353
G1 X181.094 Y243.469 Z.24 E.18853
G1 X185.212 Y243.268 Z.24 E.18853
G1 X189.33 Y243.068 Z.24 E.18853
G1 X193.448 Y242.867 Z.24 E.18853
G1 X197.566 Y242.666 Z.24 E.18853
G1 X199.043 Y242.497 E0.06796
G1 F2998.53
G1 X200.338 Y242.148 E.06135
G1 F2999.968
G1 X201.571 Y241.619 E.06135
G1 X202.716 Y240.92 E.06134
G1 X203.69 Y240.124 E0.05751
G1 X207.026 Y236.866 Z.24 E.21322
G1 X210.362 Y233.608 Z.24 E.21322
G1 X213.698 Y230.35 Z.24 E.21322
G1 X217.033 Y227.092 Z.24 E.21322
G1 X220.369 Y223.834 Z.24 E.21322
G1 X223.705 Y220.576 Z.24 E.21322
G1 X227.065 Y217.059 Z.24 E.22241
G1 X230.426 Y213.543 Z.24 E.22241
G1 X233.786 Y210.026 Z.24 E.22241
G1 X234.539 Y209.096 E0.0547
G1 F2998.845
G1 X235.239 Y207.952 E.06134
G1 F2999.137
G1 X235.768 Y206.719 E.06135
G1 X236.025 Y205.843 E0.04172
G1 F2998.268
G1 X236.286 Y203.947 E.08754
G1 F2999.971
G1 X236.488 Y199.767 Z.24 E.19138
G1 X236.691 Y195.586 Z.24 E.19138
G1 X236.893 Y191.406 Z.24 E.19138
G1 X237.096 Y187.225 Z.24 E.19138
G1 X237.298 Y183.045 Z.24 E.19138
G1 X237.298 Y173 E0.45928
G1 X237.243 Y172.094 E.04151
G1 F2997.988
G1 X237.049 Y170.997 E.05097
G1 X236.702 Y169.896 E0.05277
G1 F2999.281
G1 X235.158 Y166.114 Z.24 E.18681
G1 X233.613 Y162.331 Z.24 E.18681
G1 X232.068 Y158.549 Z.24 E.18681
G1 F3000
G1 X230.524 Y154.767 Z.24 E.18681
G1 F2999.795
G1 X228.892 Y151.273 Z.24 E.17633
G1 X227.261 Y147.779 Z.24 E.17633
G1 X225.629 Y144.285 Z.24 E.17633
G1 X224.76 Y142.761 E0.0802
G1 F2998.89
G1 X223.705 Y141.496 E.07534
G1 F2999.953
G1 X221.649 Y139.44 E.13296
G1 X218.656 Y136.525 Z.24 E.19106
G1 X215.663 Y133.609 Z.24 E.19106
G1 X212.669 Y130.694 Z.24 E.19106
G1 X209.676 Y127.779 Z.24 E.19106
G1 X206.683 Y124.863 Z.24 E.19106
G1 X203.69 Y121.948 Z.24 E.19106
G1 X202.716 Y121.152 E0.05751
G1 F2996.664
G1 X201.949 Y120.659 E.04172
G1 X200.741 Y120.073 E0.06135
G1 F2998.063
G1 X199.463 Y119.666 E.06135
G1 F2999.848
G1 X198.14 Y119.445 E.06134
G1 X176.976 Y118.401 E0.96893
G1 X173.338 Y118.407 Z.24 E.16634
G1 X169.701 Y118.412 Z.24 E.16634
G1 F2998.81
G1 X166.063 Y118.418 Z.24 E.16634
G1 X164.616 Y118.642 E0.06693
G1 F2999.914
G1 X163.515 Y118.989 E.05277
G1 X159.733 Y120.534 Z.24 E.18681
G1 X155.951 Y122.078 Z.24 E.18681
G1 X152.169 Y123.622 Z.24 E.18681
G1 X148.387 Y125.167 Z.24 E.18681
G1 X137.433 Y130.294 E0.55302
G1 X136.381 Y130.931 E.05624
G1 X135.421 Y131.7 E.05625
G1 X133.144 Y133.959 E0.14667
M107
M204 S8000
G1 X133.424 Y134.242 F60000
M107
G1 F3000
M204 S3000
G1 F2996.987
G1 X133.341 Y134.324 E.00534
G1 F2999.858
G1 X132.367 Y135.479 E.06909
G1 X119.65 Y153.934 E1.02482
G1 X119.155 Y154.918 E.05037
G1 X112.978 Y170.047 E0.74724
G1 F2996.93
G1 X112.737 Y170.761 E.03449
G1 X112.465 Y172.129 E0.06376
G1 F2997.988
G1 X112.412 Y173 E.03992
G1 X112.419 Y183.337 E0.47264
G1 F2999.569
G1 X112.62 Y187.455 Z.24 E.18853
G1 X112.821 Y191.573 Z.24 E.18853
G1 X113.021 Y195.691 Z.24 E.18853
G1 F2998.722
G1 X113.222 Y199.809 Z.24 E.18853
G1 X113.423 Y203.927 Z.24 E.18853
G1 X113.584 Y205.339 E0.06495
G1 X113.916 Y206.58 E.05875
G1 X114.422 Y207.761 E0.05875
G1 F2999.575
G1 X115.09 Y208.858 E.05874
G1 X115.853 Y209.792 E.05515
G1 X119.34 Y213.372 Z.24 E.2285
G1 X122.826 Y216.952 Z.24 E.2285
G1 X126.313 Y220.531 Z.24 E.2285
G1 X129.799 Y224.111 Z.24 E.2285
G1 X133.286 Y227.691 Z.24 E.2285
G1 X135.684 Y230.072 E0.15451
G1 F2998.291
G1 X136.602 Y230.809 E.05386
G1 F2999.937
G1 X137.609 Y231.42 E.05386
G1 X148.537 Y236.536 E0.55173
G1 X152.319 Y238.08 Z.24 E.18681
G1 X156.102 Y239.624 Z.24 E.18681
G1 X159.884 Y241.169 Z.24 E.18681
G1 X163.666 Y242.713 Z.24 E.18681
G1 X164.719 Y243.045 E.05048
G1 X165.749 Y243.226 E0.04779
G1 F2997.671
G1 X166.62 Y243.279 E.03992
G1 F2999.975
G1 X170.065 Y243.277 Z.24 E.15755
G1 X173.511 Y243.274 Z.24 E.15755
G1 X176.956 Y243.272 Z.24 E.15755
G1 X197.547 Y242.268 E0.94265
G1 X198.958 Y242.107 E.06495
G1 X200.199 Y241.775 E.05875
G1 X201.38 Y241.269 E0.05875
G1 F2998.62
G1 X202.477 Y240.601 E.05874
G1 X203.412 Y239.838 E0.05515
G1 X206.747 Y236.581 Z.24 E.21318
G1 X210.082 Y233.323 Z.24 E.21318
G1 X213.418 Y230.066 Z.24 E.21318
G1 F2999.146
G1 X216.753 Y226.809 Z.24 E.21318
G1 X220.088 Y223.551 Z.24 E.21318
G1 X223.423 Y220.294 Z.24 E.21318
G1 X233.498 Y209.751 E0.66682
G1 X234.22 Y208.858 E.05252
G1 X234.889 Y207.761 E0.05874
G1 X235.395 Y206.58 E.05875
G1 X235.636 Y205.759 E.03912
G1 X235.849 Y204.492 E0.05874
G1 X236.058 Y200.261 Z.24 E.1937
G1 X236.266 Y196.03 Z.24 E.19371
G1 X236.475 Y191.799 Z.24 E.1937
G1 X236.683 Y187.568 Z.24 E.19371
G1 X236.892 Y183.337 Z.24 E.1937
G1 X236.899 Y173 E0.47264
G1 F2998.699
G1 X236.846 Y172.129 E.03992
G1 F2999.941
G1 X236.664 Y171.1 E.04779
G1 X236.333 Y170.047 E.05048
G1 X230.155 Y154.918 E0.74724
G1 X228.526 Y151.43 Z.24 E.17603
G1 X226.897 Y147.942 Z.24 E.17603
G1 F3000
G1 X225.268 Y144.454 Z.24 E.17603
G1 F2999.694
G1 X224.429 Y142.983 E.07744
G1 X223.423 Y141.778 E0.07177
G1 X221.367 Y139.722 E.13296
G1 X218.374 Y136.807 Z.24 E.19102
G1 X215.382 Y133.892 Z.24 E.19102
G1 X212.389 Y130.978 Z.24 E.19102
G1 X209.397 Y128.063 Z.24 E.19102
G1 X206.405 Y125.148 Z.24 E.19102
G1 X203.412 Y122.233 Z.24 E.19102
G1 X202.477 Y121.471 E0.05515
G1 F2998.568
G1 X201.758 Y121.008 E.03912
G1 F2999.994
G1 X200.602 Y120.447 E.05875
G1 X199.378 Y120.056 E.05875
G1 X198.111 Y119.842 E0.05874
G1 X193.88 Y119.633 Z.24 E.1937
G1 X189.649 Y119.425 Z.24 E.19371
G1 X185.418 Y119.216 Z.24 E.1937
G1 X181.187 Y119.008 Z.24 E.19371
G1 F3000
G1 X176.956 Y118.799 Z.24 E.1937
G1 F2999.943
G1 X173.511 Y118.797 Z.24 E.15755
G1 X170.065 Y118.794 Z.24 E.15755
G1 F3000
G1 X166.62 Y118.792 Z.24 E.15755
G1 F2997.421
G1 X165.749 Y118.845 E.03992
G1 X164.719 Y119.027 E0.04779
G1 F2998.364
G1 X163.666 Y119.358 E.05048
G1 X148.537 Y125.536 E0.74724
G1 F2999.939
G1 X144.894 Y127.241 Z.24 E.18391
G1 X141.252 Y128.946 Z.24 E.18391
G1 F3000
G1 X137.609 Y130.651 Z.24 E.18391
G1 F2999.968
G1 X136.602 Y131.262 E.05386
G1 X135.684 Y132 E0.05386
G1 X133.467 Y134.199 E.14281
M107
M204 S8000
G1 X133.747 Y134.482 F60000
M107
G1 F3000
M204 S3000
G1 F2999.875
G1 X133.623 Y134.606 E.00802
G1 X132.695 Y135.706 E0.0658
G1 X130.156 Y139.39 Z.24 E.20458
G1 X127.617 Y143.073 Z.24 E.20458
G1 X125.078 Y146.757 Z.24 E.20458
G1 X122.539 Y150.44 Z.24 E.20458
G1 F2998.981
G1 X120 Y154.124 Z.24 E.20458
G1 X119.524 Y155.068 E0.04833
G1 F2999.34
G1 X117.924 Y159.017 Z.24 E.19484
G1 X116.323 Y162.966 Z.24 E.19484
G1 X114.723 Y166.916 Z.24 E.19484
G1 F3000
G1 X113.122 Y170.865 Z.24 E.19484
G1 F2999.815
G1 X112.862 Y172.164 E.06058
G1 F2997.848
G1 X112.81 Y173 E.03833
G1 F2999.988
G1 X112.812 Y176.439 Z.24 E.15725
G1 X112.815 Y179.878 Z.24 E.15725
G1 X112.817 Y183.317 Z.24 E.15725
G1 X113.821 Y203.908 E0.94265
G1 X113.973 Y205.254 E.06194
G1 F2998.603
G1 X114.29 Y206.44 E.05615
G1 X114.772 Y207.57 E0.05615
G1 X115.409 Y208.619 E.05614
G1 F2999.773
G1 X116.138 Y209.514 E.05279
G1 X133.571 Y227.413 E1.14251
G1 F2998.662
G1 X135.946 Y229.772 E.15308
G1 X136.824 Y230.478 E0.05148
G1 F2999.017
G1 X137.786 Y231.063 E.05148
G1 X141.42 Y232.764 Z.24 E.18348
G1 X145.054 Y234.466 Z.24 E.18348
G1 X148.688 Y236.167 Z.24 E.18348
G1 X163.817 Y242.344 E0.74724
G1 X164.822 Y242.66 E.04819
G1 X165.783 Y242.829 E.04462
G1 X166.62 Y242.881 E0.03833
G1 F2998.926
G1 X170.059 Y242.879 Z.24 E.15725
G1 F2999.328
G1 X173.498 Y242.876 Z.24 E.15725
G1 X176.937 Y242.874 Z.24 E.15725
G1 X197.528 Y241.87 E0.94265
G1 F2997.242
G1 X198.873 Y241.718 E.06194
G1 X200.06 Y241.402 E0.05615
G1 F2998.306
G1 X201.189 Y240.92 E.05615
G1 F2999.269
G1 X202.238 Y240.282 E.05614
G1 X203.134 Y239.553 E0.05279
G1 F2998.344
G1 X206.469 Y236.296 Z.24 E.21314
G1 X209.803 Y233.039 Z.24 E.21313
G1 X213.138 Y229.783 Z.24 E.21314
G1 F2999.168
G1 X216.472 Y226.526 Z.24 E.21313
G1 X219.807 Y223.269 Z.24 E.21313
G1 X223.141 Y220.012 Z.24 E.21314
G1 X233.21 Y209.475 E0.66641
G1 F2998.176
G1 X233.901 Y208.619 E.05033
G1 F2999.516
G1 X234.539 Y207.57 E.05614
G1 X235.021 Y206.44 E0.05615
G1 F2997.859
G1 X235.246 Y205.674 E.03652
G1 X235.451 Y204.463 E0.05615
G1 F2999.506
G1 X235.66 Y200.234 Z.24 E.19362
G1 X235.868 Y196.005 Z.24 E.19363
G1 X236.077 Y191.775 Z.24 E.19362
G1 X236.285 Y187.546 Z.24 E.19363
G1 F3000
G1 X236.494 Y183.317 Z.24 E.19362
G1 F2999.987
