; generated by SuperSlicer 2.5.59.10 on 2024-06-06 at 00:15:09 UTC


;
;

;
;
; 

; external perimeters extrusion width = 0.60mm
; perimeters extrusion width = 0.60mm
; infill extrusion width = 0.60mm
; solid infill extrusion width = 0.60mm
; top infill extrusion width = 0.60mm
; first layer extrusion width = 0.60mm

; object:{"name":"Califlower v29","id":"Califlower v29.stl id:0 copy 0","object_center":[150.000001,150.000001,0.000000],"boundingbox_center":[150.000001,150.000001,2.500000],"boundingbox_size":[112.000000,112.000000,5.000000]}
EXCLUDE_OBJECT_DEFINE NAME=Califlower_v29_stl_id_0_copy_0 CENTER=150.000001,150.000001 POLYGON=[[94.00,142.00],[94.03,141.65],[94.12,141.32],[100.27,126.25],[100.48,125.88],[112.81,108.04],[113.09,107.72],[115.14,105.67],[115.43,105.41],[115.76,105.19],[116.11,105.02],[126.25,100.27],[141.32,94.12],[141.65,94.03],[142.00,94.00],[152.00,94.00],[172.50,95.00],[172.93,95.03],[173.35,95.12],[173.75,95.27],[174.12,95.48],[174.46,95.73],[192.28,113.09],[194.33,115.14],[194.59,115.43],[194.81,115.76],[194.98,116.11],[199.73,126.25],[205.88,141.32],[205.97,141.65],[206.00,142.00],[206.00,152.00],[205.00,172.50],[204.97,172.93],[204.88,173.35],[204.73,173.75],[204.52,174.12],[204.27,174.46],[194.33,184.86],[192.28,186.91],[174.46,204.27],[174.12,204.52],[173.75,204.73],[173.35,204.88],[172.93,204.97],[172.50,205.00],[152.00,206.00],[142.00,206.00],[141.65,205.97],[141.32,205.88],[126.25,199.73],[116.11,194.98],[115.76,194.81],[115.43,194.59],[115.14,194.33],[113.09,192.28],[95.73,174.46],[95.48,174.12],[95.27,173.75],[95.12,173.35],[95.03,172.93],[95.00,172.50],[94.00,152.00],[94.00,142.00]]
; plater:{"center":[150.000001,150.000001,0.000000],"boundingbox_center":[150.000001,150.000001,2.500000],"boundingbox_size":[112.000000,112.000000,5.000000]}

M107
;TYPE:Custom
START_PRINT EXTRUDER=245 BED=100
M107
G21 ; set units to millimeters
G90 ; use absolute coordinates
M83 ; use relative distances for extrusion
ACTIVATE_EXTRUDER EXTRUDER=extruder
; Filament gcode
FILAMENT_START MATERIAL=ASA COLOR=#F4DDFF VENDOR=OVETURE
SET_PRESSURE_ADVANCE ADVANCE=0.045
M104 S245 T0 ; set temperature
M109 S245 T0 ; set temperature and wait for it to be reached
M190 S100 ; set bed temperature and wait for it to be reached
;LAYER_CHANGE
;Z:0.24
;HEIGHT:0.24
G1 E-1 F3600
G1 Z0.24 F60000
G92 E0
G1 X108.285 Y102.911
G1 E1 F3600
;TYPE:Skirt
;WIDTH:0.45
M107
G1 F3000
M204 S3000
G1 X107.221 Y104.176 E0.07557
G1 F2999.205
G1 X104.68 Y107.865 Z.24 E.20485
G1 F2998.93
G1 X102.138 Y111.554 Z.24 E.20485
G1 X99.597 Y115.244 Z.24 E.20485
G1 X97.055 Y118.933 Z.24 E.20485
G1 F2997.967
G1 X94.514 Y122.622 Z.24 E.20485
G1 X93.982 Y123.686 E0.05436
G1 F2998.163
G1 X92.445 Y127.451 Z.24 E.18599
G1 X90.907 Y131.217 Z.24 E.18599
G1 X89.369 Y134.982 Z.24 E.18599
G1 F2999.502
G1 X87.832 Y138.748 Z.24 E.18599
G1 X87.559 Y139.558 E0.03908
G1 X87.263 Y141.061 E.07004
G1 F2998.658
G1 X87.207 Y142 E.04303
G1 X87.207 Y152 E0.45726
G1 F2999.945
G1 X87.409 Y156.166 Z.24 E.19073
G1 X87.61 Y160.332 Z.24 E.19073
G1 X87.812 Y164.499 Z.24 E.19073
G1 X88.013 Y168.665 Z.24 E.19073
G1 X88.215 Y172.831 Z.24 E.19073
G1 X88.393 Y174.371 E0.07088
G1 X88.757 Y175.719 E.06386
G1 X89.309 Y177.002 E0.06386
G1 X90.038 Y178.193 E.06385
G1 F2998.62
G1 X90.866 Y179.204 E.05978
G1 X108.223 Y197.025 E1.13748
G1 F2999.034
G1 X110.657 Y199.439 E.15679
G1 X111.657 Y200.239 E0.05855
G1 X112.753 Y200.901 E.05855
G1 X123.686 Y206.018 E0.55196
G1 X127.451 Y207.556 Z.24 E.18599
G1 X131.217 Y209.093 Z.24 E.18599
G1 X134.982 Y210.63 Z.24 E.18599
G1 X138.748 Y212.168 Z.24 E.18599
G1 X139.895 Y212.531 E0.055
G1 X141.061 Y212.737 E.05414
G1 F2998.773
G1 X142 Y212.793 E.04303
G1 X152.331 Y212.785 E0.4724
G1 F2999.958
G1 X156.431 Y212.585 Z.24 E.1877
G1 X160.531 Y212.385 Z.24 E.1877
G1 X164.631 Y212.185 Z.24 E.1877
G1 X168.731 Y211.985 Z.24 E.1877
G1 X172.831 Y211.785 Z.24 E.1877
G1 X174.371 Y211.607 E0.07088
G1 X175.719 Y211.243 E.06386
G1 X177.002 Y210.691 E0.06386
G1 X178.193 Y209.962 E.06385
G1 F2998.647
G1 X179.204 Y209.134 E.05978
G1 X199.136 Y189.667 E1.27394
G1 F2999.785
G1 X202.484 Y186.164 Z.24 E.22158
G1 X205.831 Y182.66 Z.24 E.22158
G1 F3000
G1 X209.179 Y179.157 Z.24 E.22158
G1 F2999.47
G1 X209.962 Y178.193 E.0568
G1 X210.691 Y177.002 E.06385
G1 X211.243 Y175.719 E0.06386
G1 X211.516 Y174.789 E.04432
G1 X211.785 Y172.831 E.09038
G1 X211.987 Y168.665 Z.24 E.19073
G1 X212.188 Y164.499 Z.24 E.19073
G1 X212.39 Y160.332 Z.24 E.19073
G1 X212.591 Y156.166 Z.24 E.19073
G1 X212.793 Y152 Z.24 E.19073
G1 X212.793 Y142 E0.45726
G1 F2998.758
G1 X212.737 Y141.061 E.04303
G1 F2999.744
G1 X212.531 Y139.895 E.05414
G1 X212.168 Y138.748 E0.055
G1 X210.63 Y134.982 Z.24 E.18599
G1 X209.093 Y131.217 Z.24 E.18599
G1 X207.556 Y127.451 Z.24 E.18599
G1 X206.018 Y123.686 Z.24 E.18599
G1 X201.135 Y113.23 E0.52765
G1 F2998.898
G1 X200.239 Y111.657 E.0828
G1 X199.439 Y110.657 E0.05855
G1 F2999.553
G1 X197.089 Y108.285 E.15269
G1 X179.204 Y90.866 E1.14158
G1 X178.193 Y90.038 E.05978
G1 F2998.763
G1 X177.378 Y89.514 E.04432
G1 X176.12 Y88.906 E0.06386
G1 X174.789 Y88.484 E.06386
G1 X173.412 Y88.255 E.06386
G1 X152.331 Y87.215 E0.96511
G1 F2999.947
G1 X148.69 Y87.221 Z.24 E.16649
G1 X145.049 Y87.227 Z.24 E.16649
G1 F3000
G1 X141.408 Y87.233 Z.24 E.16649
G1 F2998.858
G1 X139.895 Y87.469 E.07004
G1 X138.748 Y87.832 E0.055
G1 F2999.35
G1 X134.982 Y89.369 Z.24 E.18599
G1 X131.217 Y90.907 Z.24 E.18599
G1 X127.451 Y92.445 Z.24 E.18599
G1 X123.686 Y93.982 Z.24 E.18599
G1 X112.753 Y99.099 E0.55196
G1 X111.657 Y99.761 E.05855
G1 X110.657 Y100.561 E0.05855
G1 F2991.827
G1 X108.328 Y102.869 E.14995
M107
M204 S8000
G1 X108.609 Y103.152 F60000
M107
G1 F3000
M204 S3000
G1 X108.567 Y103.193 E0.00267
G1 F2991.604
G1 X107.549 Y104.402 E.07229
G1 F2999.944
G1 X105.012 Y108.084 Z.24 E.20447
G1 X102.475 Y111.766 Z.24 E.20447
G1 X99.938 Y115.449 Z.24 E.20447
G1 X97.401 Y119.131 Z.24 E.20447
G1 X94.864 Y122.813 Z.24 E.20447
G1 X94.351 Y123.836 E0.05232
G1 X92.813 Y127.602 Z.24 E.18599
G1 X91.275 Y131.367 Z.24 E.18599
G1 X89.738 Y135.133 Z.24 E.18599
G1 F3000
G1 X88.2 Y138.899 Z.24 E.18599
G1 F2997.486
G1 X87.944 Y139.661 E.03679
G1 F2998.959
G1 X87.66 Y141.095 E.06686
G1 X87.605 Y142 E0.04144
G1 X87.605 Y147 Z.24 E.22863
G1 F2999.95
G1 X87.605 Y152 Z.24 E.22863
G1 X88.613 Y172.812 E0.95275
G1 F2998.467
G1 X88.782 Y174.286 E.06787
G1 X89.13 Y175.58 E0.06126
G1 F2999.855
G1 X89.659 Y176.811 E.06126
G1 F2998.889
G1 X90.357 Y177.954 E.06126
G1 F2999.939
G1 X91.152 Y178.926 E.05742
G1 X94.623 Y182.49 Z.24 E.2275
G1 X98.094 Y186.054 Z.24 E.2275
G1 X101.566 Y189.619 Z.24 E.2275
G1 X105.037 Y193.183 Z.24 E.2275
G1 X108.508 Y196.747 Z.24 E.2275
G1 X110.92 Y199.14 E0.15536
G1 F2998.55
G1 X111.878 Y199.908 E.05617
G1 X112.929 Y200.544 E0.05617
G1 F2999.732
G1 X116.565 Y202.246 Z.24 E.18356
G1 X120.2 Y203.947 Z.24 E.18356
G1 X123.836 Y205.649 Z.24 E.18356
G1 X138.899 Y211.8 E0.74395
G1 X139.998 Y212.146 E.0527
G1 F2997.964
G1 X141.095 Y212.34 E.05097
G1 X142 Y212.395 E0.04144
G1 F2998.924
G1 X145.437 Y212.392 Z.24 E.15717
G1 F2999.354
G1 X148.875 Y212.39 Z.24 E.15717
G1 F3000
G1 X152.312 Y212.387 Z.24 E.15717
G1 F2999.867
G1 X156.412 Y212.187 Z.24 E.1877
G1 X160.512 Y211.987 Z.24 E.1877
G1 X164.612 Y211.787 Z.24 E.1877
G1 X168.712 Y211.587 Z.24 E.1877
G1 F3000
G1 X172.812 Y211.387 Z.24 E.1877
G1 F2998.509
G1 X174.286 Y211.218 E.06787
G1 X175.58 Y210.87 E0.06126
G1 F2999.849
G1 X176.811 Y210.341 E.06126
G1 F2998.884
G1 X177.954 Y209.643 E.06126
G1 F2999.953
G1 X178.926 Y208.848 E.05742
G1 F3000
G1 X182.247 Y205.604 Z.24 E.21228
G1 F2999.998
G1 X185.569 Y202.361 Z.24 E.21228
G1 X188.89 Y199.117 Z.24 E.21228
G1 X192.211 Y195.873 Z.24 E.21228
G1 X195.533 Y192.63 Z.24 E.21228
G1 X198.854 Y189.386 Z.24 E.21228
G1 X202.2 Y185.885 Z.24 E.22144
G1 X205.545 Y182.383 Z.24 E.22144
G1 X208.891 Y178.882 Z.24 E.22144
G1 X209.643 Y177.954 E0.05461
G1 F2998.609
G1 X210.341 Y176.811 E.06126
G1 F2999.238
G1 X210.87 Y175.58 E.06126
G1 X211.127 Y174.704 E0.04172
G1 F2997.583
G1 X211.387 Y172.812 E.08737
G1 X212.395 Y152 E0.95275
G1 F2999.613
G1 X212.395 Y147 Z.24 E.22863
G1 F2998.603
G1 X212.395 Y142 Z.24 E.22863
G1 X212.34 Y141.095 E0.04144
G1 F2997.964
G1 X212.146 Y139.998 E.05097
G1 F2999.485
G1 X211.8 Y138.899 E.0527
G1 X205.649 Y123.836 E0.74395
G1 X204.024 Y120.357 Z.24 E.17558
G1 X202.399 Y116.878 Z.24 E.17558
G1 F3000
G1 X200.774 Y113.399 Z.24 E.17558
G1 F2999.87
G1 X199.908 Y111.878 E.08004
G1 F2998.562
G1 X199.14 Y110.92 E.05617
G1 X196.807 Y108.567 E0.1515
G1 F2999.741
G1 X193.231 Y105.084 Z.24 E.22827
G1 X189.655 Y101.601 Z.24 E.22827
G1 X186.078 Y98.118 Z.24 E.22827
G1 X182.502 Y94.635 Z.24 E.22827
G1 X178.926 Y91.152 Z.24 E.22827
G1 X177.954 Y90.357 E0.05742
G1 F2997.637
G1 X177.187 Y89.864 E.04172
G1 F2999.615
G1 X175.981 Y89.28 E.06126
G1 X174.704 Y88.873 E0.06126
G1 F2998.595
G1 X173.383 Y88.652 E.06126
G1 F2999.992
G1 X169.169 Y88.444 Z.24 E.19294
G1 X164.955 Y88.236 Z.24 E.19294
G1 X160.74 Y88.029 Z.24 E.19294
G1 X156.526 Y87.821 Z.24 E.19294
G1 X152.312 Y87.613 Z.24 E.19294
G1 X148.689 Y87.619 Z.24 E.16567
G1 X145.066 Y87.624 Z.24 E.16566
G1 X141.443 Y87.63 Z.24 E.16567
G1 X139.998 Y87.854 E0.06686
G1 F2998.986
G1 X138.899 Y88.2 E.0527
G1 X123.836 Y94.351 E0.74395
G1 F2999.77
G1 X120.2 Y96.053 Z.24 E.18356
G1 X116.565 Y97.754 Z.24 E.18356
G1 X112.929 Y99.456 Z.24 E.18356
G1 X111.878 Y100.092 E0.05617
G1 F2998.276
G1 X110.92 Y100.86 E.05617
G1 X108.651 Y103.11 E0.14609
M107
M204 S8000
G1 X108.932 Y103.393 F60000
M107
G1 F3000
M204 S3000
G1 F2996.23
G1 X108.849 Y103.475 E.00534
G1 X107.876 Y104.629 E0.069
G1 F2999.075
G1 X105.343 Y108.304 Z.24 E.20409
G1 X102.811 Y111.979 Z.24 E.20409
G1 X100.278 Y115.654 Z.24 E.20409
G1 X97.746 Y119.329 Z.24 E.20409
G1 X95.213 Y123.004 Z.24 E.20409
G1 X94.72 Y123.987 E0.05028
G1 X93.182 Y127.753 Z.24 E.18599
G1 X91.645 Y131.518 Z.24 E.18599
G1 X90.107 Y135.283 Z.24 E.18599
G1 F3000
G1 X88.569 Y139.049 Z.24 E.18599
G1 F2999.946
G1 X88.329 Y139.764 E.03449
G1 X88.057 Y141.13 E.06369
G1 X88.004 Y142 E0.03985
G1 X88.006 Y145.431 Z.24 E.15687
G1 X88.009 Y148.861 Z.24 E.15688
G1 X88.011 Y152.292 Z.24 E.15687
G1 X88.211 Y156.392 Z.24 E.1877
G1 X88.411 Y160.492 Z.24 E.1877
G1 X88.611 Y164.592 Z.24 E.1877
G1 X88.811 Y168.692 Z.24 E.1877
G1 F2998.775
G1 X89.011 Y172.792 Z.24 E.1877
G1 X89.171 Y174.202 E0.06486
G1 F2999.269
G1 X89.503 Y175.441 E.05866
G1 X90.008 Y176.62 E.05866
G1 X90.676 Y177.715 E0.05866
G1 X91.437 Y178.648 E.05506
G1 X108.793 Y196.469 E1.13748
G1 F2998.912
G1 X111.182 Y198.84 E.15393
G1 X112.1 Y199.576 E0.05378
G1 F2999.413
G1 X113.105 Y200.187 E.05378
G1 X116.732 Y201.885 Z.24 E.18313
G1 X120.36 Y203.582 Z.24 E.18313
G1 F3000
G1 X123.987 Y205.28 Z.24 E.18313
G1 F2999.829
G1 X127.753 Y206.818 Z.24 E.18599
G1 X131.518 Y208.355 Z.24 E.18599
G1 X135.283 Y209.893 Z.24 E.18599
G1 F2998.931
G1 X139.049 Y211.431 Z.24 E.18599
G1 X140.101 Y211.762 E0.05041
G1 X141.13 Y211.943 E.04779
G1 X142 Y211.996 E0.03985
G1 F2999.535
G1 X145.431 Y211.994 Z.24 E.15687
G1 X148.861 Y211.991 Z.24 E.15688
G1 F3000
G1 X152.292 Y211.989 Z.24 E.15687
G1 F2999.877
G1 X156.392 Y211.789 Z.24 E.1877
G1 X160.492 Y211.589 Z.24 E.1877
G1 X164.592 Y211.389 Z.24 E.1877
G1 X168.692 Y211.189 Z.24 E.1877
G1 F2998.773
G1 X172.792 Y210.989 Z.24 E.1877
G1 X174.202 Y210.829 E0.06486
G1 F2999.268
G1 X175.441 Y210.497 E.05866
G1 X176.62 Y209.992 E.05866
G1 X177.715 Y209.324 E0.05866
G1 X178.648 Y208.563 E.05506
G1 X198.572 Y189.104 E1.27346
G1 X201.916 Y185.605 Z.24 E.2213
G1 X205.259 Y182.106 Z.24 E.22131
G1 X208.603 Y178.607 Z.24 E.2213
G1 X209.324 Y177.715 E0.05243
G1 X209.992 Y176.62 E.05866
G1 X210.497 Y175.441 E.05866
G1 X210.738 Y174.62 E0.03912
G1 X210.95 Y173.355 E.05866
G1 X211.989 Y152.292 E0.96428
G1 X211.991 Y148.861 Z.24 E.15687
G1 X211.994 Y145.431 Z.24 E.15688
G1 X211.996 Y142 Z.24 E.15687
G1 X211.943 Y141.13 E0.03985
G1 F2998.232
G1 X211.762 Y140.101 E.04779
G1 X211.431 Y139.049 E0.05041
G1 F2999.056
G1 X209.893 Y135.283 Z.24 E.18599
G1 X208.355 Y131.518 Z.24 E.18599
G1 X206.818 Y127.753 Z.24 E.18599
G1 X205.28 Y123.987 Z.24 E.18599
G1 X200.413 Y113.568 E0.52583
G1 X199.576 Y112.1 E.07728
G1 X198.572 Y110.896 E.07169
G1 X196.525 Y108.849 E0.13237
G1 X192.95 Y105.367 Z.24 E.22822
G1 X189.374 Y101.884 Z.24 E.22822
G1 X185.799 Y98.402 Z.24 E.22822
G1 X182.223 Y94.919 Z.24 E.22822
G1 F3000
G1 X178.648 Y91.437 Z.24 E.22822
G1 F2999.791
G1 X177.715 Y90.676 E.05506
G1 X176.996 Y90.213 E.03912
G1 X175.842 Y89.653 E.05866
G1 X174.62 Y89.262 E0.05866
G1 X173.355 Y89.05 E.05866
G1 X152.292 Y88.011 E0.96428
G1 X148.861 Y88.009 Z.24 E.15687
G1 X145.431 Y88.006 Z.24 E.15688
G1 X142 Y88.004 Z.24 E.15687
G1 X141.13 Y88.057 E0.03985
G1 F2998.23
G1 X140.101 Y88.238 E.04779
G1 X139.049 Y88.569 E0.05041
G1 F2999.054
G1 X135.283 Y90.107 Z.24 E.18599
G1 X131.518 Y91.645 Z.24 E.18599
G1 X127.753 Y93.182 Z.24 E.18599
G1 X123.987 Y94.72 Z.24 E.18599
G1 X120.36 Y96.418 Z.24 E.18313
G1 X116.732 Y98.115 Z.24 E.18313
G1 X113.105 Y99.813 Z.24 E.18313
G1 X112.1 Y100.424 E.05378
G1 X111.182 Y101.16 E0.05378
G1 F2998.98
G1 X108.975 Y103.351 E.14222
M107
M204 S8000
G1 X109.255 Y103.633 F60000
M107
G1 F3000
M204 S3000
G1 X109.131 Y103.757 E0.00802
G1 F2999.433
G1 X108.204 Y104.855 E.06572
G1 X105.676 Y108.523 Z.24 E.2037
G1 X103.148 Y112.191 Z.24 E.20371
G1 X100.619 Y115.859 Z.24 E.2037
G1 X98.091 Y119.527 Z.24 E.20371
G1 F2998.728
G1 X95.563 Y123.195 Z.24 E.2037
G1 X95.089 Y124.138 E0.04824
G1 X93.495 Y128.07 Z.24 E.19402
G1 X91.901 Y132.003 Z.24 E.19402
G1 X90.308 Y135.935 Z.24 E.19402
G1 X88.714 Y139.867 Z.24 E.19402
G1 X88.454 Y141.165 E0.06051
G1 X88.402 Y142 E.03826
G1 X88.409 Y152.273 E0.46973
G1 F2999.889
G1 X88.609 Y156.373 Z.24 E.1877
G1 X88.809 Y160.473 Z.24 E.1877
G1 X89.009 Y164.573 Z.24 E.1877
G1 X89.209 Y168.673 Z.24 E.1877
G1 F3000
G1 X89.409 Y172.773 Z.24 E.1877
G1 F2999.935
G1 X89.561 Y174.117 E.06185
G1 F2998.342
G1 X89.877 Y175.301 E.05606
G1 X90.358 Y176.429 E0.05606
G1 X90.995 Y177.476 E.05606
G1 X91.723 Y178.37 E0.0527
G1 F2999.077
G1 X95.194 Y181.934 Z.24 E.2275
G1 X98.665 Y185.498 Z.24 E.2275
G1 X102.137 Y189.063 Z.24 E.22749
G1 X105.608 Y192.627 Z.24 E.2275
G1 F3000
G1 X109.079 Y196.191 Z.24 E.2275
G1 F2999.954
G1 X111.445 Y198.541 E.15249
G1 F2998.775
G1 X112.321 Y199.245 E.0514
G1 X113.282 Y199.829 E0.0514
G1 X116.901 Y201.523 Z.24 E.1827
G1 F2999.345
G1 X120.519 Y203.217 Z.24 E.1827
G1 X124.138 Y204.911 Z.24 E.1827
G1 X139.2 Y211.062 E0.74395
G1 X140.204 Y211.377 E.04812
G1 X141.165 Y211.546 E.04462
G1 X142 Y211.598 E.03826
G1 X152.273 Y211.591 E0.46973
G1 X156.373 Y211.391 Z.24 E.1877
G1 X160.473 Y211.191 Z.24 E.1877
G1 X164.573 Y210.991 Z.24 E.1877
G1 X168.673 Y210.791 Z.24 E.1877
G1 F3000
G1 X172.773 Y210.591 Z.24 E.1877
G1 F2999.936
G1 X174.117 Y210.439 E.06185
G1 F2998.337
G1 X175.301 Y210.123 E.05606
G1 X176.429 Y209.642 E0.05606
G1 X177.476 Y209.005 E.05606
G1 X178.37 Y208.277 E0.0527
G1 X181.69 Y205.035 Z.24 E.2122
G1 F2999.154
G1 X185.01 Y201.792 Z.24 E.2122
G1 X188.33 Y198.549 Z.24 E.2122
G1 X191.65 Y195.307 Z.24 E.2122
G1 X194.97 Y192.064 Z.24 E.2122
G1 X198.29 Y188.822 Z.24 E.2122
G1 X208.315 Y178.331 E0.6635
G1 X209.005 Y177.476 E.05025
G1 F2998.781
G1 X209.642 Y176.429 E.05606
G1 X210.123 Y175.301 E0.05606
G1 X210.348 Y174.535 E.03652
G1 X210.553 Y173.326 E0.05606
G1 F2999.377
G1 X210.761 Y169.115 Z.24 E.19277
G1 X210.968 Y164.905 Z.24 E.19277
G1 X211.176 Y160.694 Z.24 E.19278
G1 X211.383 Y156.484 Z.24 E.19277
G1 X211.591 Y152.273 Z.24 E.19277
G1 X211.598 Y142 E0.46973
G1 X211.546 Y141.165 E.03826
G1 X211.377 Y140.204 E0.04462
G1 X211.062 Y139.2 E.04812
G1 X209.524 Y135.434 Z.24 E.18599
G1 X207.986 Y131.669 Z.24 E.18598
G1 X206.449 Y127.904 Z.24 E.18599
G1 X204.911 Y124.138 Z.24 E.18599
G1 X200.052 Y113.737 E0.52492
G1 X199.245 Y112.321 E.07453
G1 X198.29 Y111.178 E0.06811
G1 X196.191 Y109.079 E.13575
G1 X192.627 Y105.608 Z.24 E.22749
G1 X189.063 Y102.137 Z.24 E.2275
G1 X185.498 Y98.665 Z.24 E.22749
G1 X181.934 Y95.194 Z.24 E.2275
G1 F2998.757
G1 X178.37 Y91.723 Z.24 E.22749
