; generated by SuperSlicer 2.5.59.10 on 2024-06-03 at 04:56:15 UTC


;
;

;
;
; 

; external perimeters extrusion width = 0.60mm
; perimeters extrusion width = 0.60mm
; infill extrusion width = 0.60mm
; solid infill extrusion width = 0.60mm
; top infill extrusion width = 0.60mm
; support material extrusion width = 0.38mm
; first layer extrusion width = 0.60mm

; external perimeters extrusion width = 0.60mm
; perimeters extrusion width = 0.60mm
; infill extrusion width = 0.60mm
; solid infill extrusion width = 0.60mm
; top infill extrusion width = 0.60mm
; support material extrusion width = 0.38mm
; first layer extrusion width = 0.60mm

; external perimeters extrusion width = 0.60mm
; perimeters extrusion width = 0.60mm
; infill extrusion width = 0.60mm
; solid infill extrusion width = 0.60mm
; top infill extrusion width = 0.60mm
; support material extrusion width = 0.38mm
; first layer extrusion width = 0.60mm

; external perimeters extrusion width = 0.60mm
; perimeters extrusion width = 0.60mm
; infill extrusion width = 0.60mm
; solid infill extrusion width = 0.60mm
; top infill extrusion width = 0.60mm
; support material extrusion width = 0.38mm
; first layer extrusion width = 0.60mm

; external perimeters extrusion width = 0.60mm
; perimeters extrusion width = 0.60mm
; infill extrusion width = 0.60mm
; solid infill extrusion width = 0.60mm
; top infill extrusion width = 0.60mm
; support material extrusion width = 0.38mm
; first layer extrusion width = 0.60mm

; object:{"name":"filament_flow_test","id":"filament_flow_test id:0 copy 0","object_center":[119.299999,78.599998,0.000000],"boundingbox_center":[119.299999,78.599998,0.720000],"boundingbox_size":[20.000000,20.000000,1.440000]}
EXCLUDE_OBJECT_DEFINE NAME=filament_flow_test_id_0_copy_0 CENTER=119.299999,78.599998 POLYGON=[[109.30,68.60],[119.30,68.60],[129.30,71.10],[129.30,86.10],[119.30,88.60],[109.30,88.60],[109.30,68.60]]
; object:{"name":"filament_flow_test","id":"filament_flow_test id:1 copy 0","object_center":[119.299999,150.000000,0.000000],"boundingbox_center":[119.299999,150.000000,0.720000],"boundingbox_size":[20.000000,20.000000,1.440000]}
EXCLUDE_OBJECT_DEFINE NAME=filament_flow_test_id_1_copy_0 CENTER=119.299999,150.000000 POLYGON=[[109.30,140.00],[119.30,140.00],[129.30,142.50],[129.30,157.50],[119.30,160.00],[109.30,160.00],[109.30,140.00]]
; object:{"name":"filament_flow_test","id":"filament_flow_test id:2 copy 0","object_center":[119.299999,221.400002,0.000000],"boundingbox_center":[119.299999,221.400002,0.720000],"boundingbox_size":[20.000000,20.000000,1.440000]}
EXCLUDE_OBJECT_DEFINE NAME=filament_flow_test_id_2_copy_0 CENTER=119.299999,221.400002 POLYGON=[[109.30,211.40],[119.30,211.40],[129.30,213.90],[129.30,228.90],[119.30,231.40],[109.30,231.40],[109.30,211.40]]
; object:{"name":"filament_flow_test","id":"filament_flow_test id:3 copy 0","object_center":[190.700001,78.599998,0.000000],"boundingbox_center":[190.700001,78.599998,0.720000],"boundingbox_size":[20.000000,20.000000,1.440000]}
EXCLUDE_OBJECT_DEFINE NAME=filament_flow_test_id_3_copy_0 CENTER=190.700001,78.599998 POLYGON=[[180.70,68.60],[190.70,68.60],[200.70,71.10],[200.70,86.10],[190.70,88.60],[180.70,88.60],[180.70,68.60]]
; object:{"name":"filament_flow_test","id":"filament_flow_test id:4 copy 0","object_center":[190.700001,221.400002,0.000000],"boundingbox_center":[190.700001,221.400002,0.720000],"boundingbox_size":[20.000000,20.000000,1.440000]}
EXCLUDE_OBJECT_DEFINE NAME=filament_flow_test_id_4_copy_0 CENTER=190.700001,221.400002 POLYGON=[[180.70,211.40],[190.70,211.40],[200.70,213.90],[200.70,228.90],[190.70,231.40],[180.70,231.40],[180.70,211.40]]
; plater:{"center":[155.000000,150.000000,0.000000],"boundingbox_center":[155.000000,150.000000,0.720000],"boundingbox_size":[91.400002,162.800003,1.440000]}

M107
;TYPE:Custom
START_PRINT EXTRUDER=250 BED=100
M107
G21 ; set units to millimeters
G90 ; use absolute coordinates
M83 ; use relative distances for extrusion
ACTIVATE_EXTRUDER EXTRUDER=extruder
; Filament gcode
FILAMENT_START MATERIAL=ASA COLOR=#368900 VENDOR=123-3D
SET_PRESSURE_ADVANCE ADVANCE=0.062
M104 S250 T0 ; set temperature
M109 S250 T0 ; set temperature and wait for it to be reached
M190 S100 ; set bed temperature and wait for it to be reached
;LAYER_CHANGE
;Z:0.24
;HEIGHT:0.24
G1 E-1 F3600
G1 Z0.24 F60000
G92 E0
M204 S750
G1 X180.281 Y210.666
G1 E1 F3600
;TYPE:Skirt
;WIDTH:0.6
M107
G1 F2396.826
G1 X180.482 Y210.582 E.01314
G1 X190.918 Y210.582 E0.62823
G1 F2394.975
G1 X191.119 Y210.666 E.01314
G1 X191.434 Y210.981 E0.02681
G1 F2395.012
G1 X191.518 Y211.182 E.01314
G1 X191.518 Y213.082 E0.11438
G1 F2399.941
G1 X196.218 Y213.082 Z.24 E.28295
G1 F2400
G1 X200.918 Y213.082 Z.24 E.28295
G1 F2395.046
G1 X201.119 Y213.166 E.01314
G1 X201.434 Y213.481 E0.02681
G1 F2394.994
G1 X201.518 Y213.682 E.01314
G1 X201.518 Y229.118 E0.92924
G1 X201.434 Y229.319 E.01314
G1 X201.119 Y229.634 E0.02681
G1 F2395.046
G1 X200.918 Y229.718 E.01314
G1 F2399.981
G1 X196.218 Y229.718 Z.24 E.28295
G1 X191.518 Y229.718 Z.24 E.28295
G1 X191.518 Y231.618 E0.11438
G1 F2394.975
G1 X191.434 Y231.819 E.01314
G1 X191.119 Y232.134 E0.02681
G1 X190.918 Y232.218 E.01314
G1 X180.482 Y232.218 E0.62823
G1 X180.281 Y232.134 E.01314
G1 X179.966 Y231.819 E0.02681
G1 X179.882 Y231.618 E.01314
G1 X179.882 Y211.182 E1.23025
G1 F2395.318
G1 X179.966 Y210.981 E.01314
G1 F2399.956
G1 X180.238 Y210.708 E.0232
M107
G1 X180.591 Y211.131 F60000
M107
G1 F2400
G1 X190.809 Y211.131 E0.6151
G1 F2389.35
G1 X190.969 Y211.291 E.01368
G1 X190.969 Y213.631 E0.14083
G1 F2399.574
G1 X195.889 Y213.631 Z.24 E.29618
G1 F2400
G1 X200.809 Y213.631 Z.24 E.29618
G1 F2389.661
G1 X200.969 Y213.791 E.01368
G1 X200.969 Y229.009 E0.91611
G1 X200.809 Y229.169 E.01368
G1 F2399.858
G1 X195.889 Y229.169 Z.24 E.29618
G1 X190.969 Y229.169 Z.24 E.29618
G1 X190.969 Y231.509 E0.14083
G1 F2389.267
G1 X190.809 Y231.669 E.01368
G1 X180.591 Y231.669 E0.6151
G1 X180.431 Y231.509 E.01368
G1 X180.431 Y211.291 E1.21712
G1 F2394.23
G1 X180.549 Y211.173 E.01007
M107
;WIPE_START
G1 F48000
G1 X180.431 Y211.291 E-0.01191
G1 X180.431 Y224.458 E-0.93809
;WIPE_END
G1 E-0.05 F3600
G1 X130.118 Y213.682 F60000
G1 E1 F3600
M107
G1 F2400
G1 X130.118 Y229.118 E0.92924
G1 F2395.027
G1 X130.034 Y229.319 E.01314
G1 X129.719 Y229.634 E0.02681
G1 F2394.922
G1 X129.518 Y229.718 E.01314
G1 F2399.981
G1 X124.818 Y229.718 Z.24 E.28295
G1 X120.118 Y229.718 Z.24 E.28295
G1 X120.118 Y231.618 E0.11438
G1 F2395.052
G1 X120.034 Y231.819 E.01314
G1 X119.719 Y232.134 E0.02681
G1 X119.518 Y232.218 E.01314
G1 X109.082 Y232.218 E0.62823
G1 X108.881 Y232.134 E.01314
G1 X108.566 Y231.819 E0.02681
G1 X108.482 Y231.618 E.01314
G1 X108.482 Y211.182 E1.23025
G1 X108.566 Y210.981 E.01314
G1 X108.881 Y210.666 E0.02681
G1 X109.082 Y210.582 E.01314
G1 X119.518 Y210.582 E0.62823
G1 X119.719 Y210.666 E.01314
G1 X120.034 Y210.981 E0.02681
G1 X120.118 Y211.182 E.01314
G1 X120.118 Y213.082 E0.11438
G1 F2399.939
G1 X124.818 Y213.082 Z.24 E.28295
G1 F2400
G1 X129.518 Y213.082 Z.24 E.28295
G1 F2394.924
G1 X129.719 Y213.166 E.01314
G1 F2399.637
G1 X130.034 Y213.481 E.02681
G1 X130.095 Y213.627 E0.00952
M107
G1 X129.569 Y213.791 F60000
M107
G1 F2398.753
G1 X129.569 Y217.596 Z.24 E.22903
G1 F2399.109
G1 X129.569 Y221.4 Z.24 E.22903
G1 X129.569 Y225.204 Z.24 E.22903
G1 F2400
G1 X129.569 Y229.009 Z.24 E.22903
G1 F2389.859
G1 X129.409 Y229.169 E.01368
G1 F2399.853
G1 X124.489 Y229.169 Z.24 E.29618
G1 X119.569 Y229.169 Z.24 E.29618
G1 X119.569 Y231.509 E0.14083
G1 F2389.542
G1 X119.409 Y231.669 E.01368
G1 X109.191 Y231.669 E0.6151
G1 X109.031 Y231.509 E.01368
G1 X109.031 Y211.291 E1.21712
G1 X109.191 Y211.131 E.01368
G1 X119.409 Y211.131 E0.6151
G1 X119.569 Y211.291 E.01368
G1 X119.569 Y213.631 E0.14083
G1 F2399.56
G1 X124.489 Y213.631 Z.24 E.29618
G1 F2400
G1 X129.409 Y213.631 Z.24 E.29618
G1 F2393.945
G1 X129.527 Y213.749 E.01007
M107
;WIPE_START
G1 F48000
G1 X129.409 Y213.631 E-0.01191
G1 X119.569 Y213.631 E-0.70105
G1 X119.569 Y211.291 E-0.16668
G1 X119.409 Y211.131 E-0.01619
G1 X118.648 Y211.131 E-0.05417
;WIPE_END
G1 E-0.05 F3600
G1 X119.518 Y160.818 F60000
G1 E1 F3600
M107
G1 F2400
G1 X109.082 Y160.818 E0.62823
G1 F2395.045
G1 X108.881 Y160.734 E.01314
G1 X108.566 Y160.419 E0.02681
G1 X108.482 Y160.218 E.01314
G1 X108.482 Y139.782 E1.23025
G1 X108.566 Y139.581 E.01314
G1 X108.881 Y139.266 E0.02681
G1 X109.082 Y139.182 E.01314
G1 X119.518 Y139.182 E0.62823
G1 X119.719 Y139.266 E.01314
G1 X120.034 Y139.581 E0.02681
G1 X120.118 Y139.782 E.01314
G1 X120.118 Y141.682 E0.11438
G1 F2399.925
G1 X124.818 Y141.682 Z.24 E.28295
G1 F2400
G1 X129.518 Y141.682 Z.24 E.28295
G1 F2394.953
G1 X129.719 Y141.766 E.01314
G1 X130.034 Y142.081 E0.02681
G1 F2395.054
G1 X130.118 Y142.282 E.01314
G1 X130.118 Y157.718 E0.92924
G1 X130.034 Y157.919 E.01314
G1 X129.719 Y158.234 E0.02681
G1 F2394.953
G1 X129.518 Y158.318 E.01314
G1 F2399.975
G1 X124.818 Y158.318 Z.24 E.28295
G1 X120.118 Y158.318 Z.24 E.28295
G1 X120.118 Y160.218 E0.11438
G1 F2395.072
G1 X120.034 Y160.419 E.01314
G1 F2399.54
G1 X119.719 Y160.734 E.02681
G1 X119.573 Y160.795 E0.00952
M107
G1 X119.409 Y160.269 F60000
M107
G1 F2398.764
G1 X116.003 Y160.269 Z.24 E.20503
G1 F2399.258
G1 X112.597 Y160.269 Z.24 E.20503
G1 F2400
G1 X109.191 Y160.269 Z.24 E.20503
G1 F2389.867
G1 X109.031 Y160.109 E.01368
G1 X109.031 Y139.891 E1.21712
G1 X109.191 Y139.731 E.01368
G1 X119.409 Y139.731 E0.6151
G1 X119.569 Y139.891 E.01368
G1 X119.569 Y142.231 E0.14083
G1 F2399.56
G1 X124.489 Y142.231 Z.24 E.29618
G1 F2400
G1 X129.409 Y142.231 Z.24 E.29618
G1 F2389.86
G1 X129.569 Y142.391 E.01368
G1 X129.569 Y157.609 E0.91611
G1 X129.409 Y157.769 E.01368
G1 F2399.853
G1 X124.489 Y157.769 Z.24 E.29618
G1 X119.569 Y157.769 Z.24 E.29618
G1 X119.569 Y160.109 E0.14083
G1 F2393.55
G1 X119.451 Y160.227 E.01007
M107
;WIPE_START
G1 F48000
G1 X119.569 Y160.109 E-0.01191
G1 X119.569 Y157.769 E-0.16668
G1 X129.409 Y157.769 E-0.70105
G1 X129.569 Y157.609 E-0.01619
G1 X129.569 Y156.848 E-0.05417
;WIPE_END
G1 E-0.05 F3600
G1 X180.281 Y89.334 F60000
G1 E1 F3600
M107
G1 F2400
G1 X179.966 Y89.019 E0.02681
G1 F2394.962
G1 X179.882 Y88.818 E.01314
G1 X179.882 Y68.382 E1.23025
G1 X179.966 Y68.181 E.01314
G1 X180.281 Y67.866 E0.02681
G1 X180.482 Y67.782 E.01314
G1 X190.918 Y67.782 E0.62823
G1 X191.119 Y67.866 E.01314
G1 X191.434 Y68.181 E0.02681
G1 X191.518 Y68.382 E.01314
G1 X191.518 Y70.282 E0.11438
G1 F2399.942
G1 X196.218 Y70.282 Z.24 E.28295
G1 F2400
G1 X200.918 Y70.282 Z.24 E.28295
G1 F2394.729
G1 X201.119 Y70.366 E.01314
G1 X201.434 Y70.681 E0.02681
G1 X201.518 Y70.882 E.01314
G1 X201.518 Y86.318 E0.92924
G1 X201.434 Y86.519 E.01314
G1 X201.119 Y86.834 E0.02681
G1 X200.918 Y86.918 E.01314
G1 F2399.979
G1 X196.218 Y86.918 Z.24 E.28295
G1 X191.518 Y86.918 Z.24 E.28295
G1 X191.518 Y88.818 E0.11438
G1 F2394.608
G1 X191.434 Y89.019 E.01314
G1 X191.119 Y89.334 E0.02681
G1 X190.918 Y89.418 E.01314
G1 F2399.854
G1 X187.439 Y89.418 Z.24 E.20941
G1 X183.961 Y89.418 Z.24 E.20941
G1 X180.482 Y89.418 Z.24 E.20941
G1 X180.336 Y89.357 E0.00952
M107
G1 X180.591 Y88.869 F60000
M107
G1 F2389.444
G1 X180.431 Y88.709 E.01368
G1 X180.431 Y68.491 E1.21712
G1 X180.591 Y68.331 E.01368
G1 X190.809 Y68.331 E0.6151
G1 X190.969 Y68.491 E.01368
G1 X190.969 Y70.831 E0.14083
G1 F2399.581
G1 X195.889 Y70.831 Z.24 E.29617
G1 F2400
G1 X200.809 Y70.831 Z.24 E.29618
G1 F2389.689
G1 X200.969 Y70.991 E.01368
G1 X200.969 Y86.209 E0.91611
G1 X200.809 Y86.369 E.01368
G1 F2399.862
G1 X195.889 Y86.369 Z.24 E.29617
G1 X190.969 Y86.369 Z.24 E.29618
G1 X190.969 Y88.709 E0.14083
G1 F2389.427
G1 X190.809 Y88.869 E.01368
G1 X180.651 Y88.869 E0.61148
M107
;WIPE_START
G1 F48000
G1 X190.809 Y88.869 E-0.7237
G1 X190.969 Y88.709 E-0.01619
G1 X190.969 Y86.369 E-0.16668
G1 X191.579 Y86.369 E-0.04343
;WIPE_END
G1 E-0.05 F3600
G1 X130.118 Y86.318 F60000
G1 E1 F3600
M107
G1 F2394.549
G1 X130.034 Y86.519 E.01314
G1 X129.719 Y86.834 E0.02681
G1 X129.518 Y86.918 E.01314
G1 F2399.979
G1 X124.818 Y86.918 Z.24 E.28295
G1 X120.118 Y86.918 Z.24 E.28295
G1 X120.118 Y88.818 E0.11438
G1 F2394.623
G1 X120.034 Y89.019 E.01314
G1 X119.719 Y89.334 E0.02681
G1 X119.518 Y89.418 E.01314
G1 X109.082 Y89.418 E0.62823
G1 X108.881 Y89.334 E.01314
G1 X108.566 Y89.019 E0.02681
G1 X108.482 Y88.818 E.01314
G1 X108.482 Y68.382 E1.23025
G1 X108.566 Y68.181 E.01314
G1 X108.881 Y67.866 E0.02681
G1 X109.082 Y67.782 E.01314
G1 X119.518 Y67.782 E0.62823
G1 X119.719 Y67.866 E.01314
G1 X120.034 Y68.181 E0.02681
G1 X120.118 Y68.382 E.01314
G1 X120.118 Y70.282 E0.11438
G1 F2399.945
G1 X124.818 Y70.282 Z.24 E.28295
G1 F2400
G1 X129.518 Y70.282 Z.24 E.28295
G1 F2394.572
G1 X129.719 Y70.366 E.01314
G1 X130.034 Y70.681 E0.02681
G1 X130.118 Y70.882 E.01314
G1 X130.118 Y86.258 E0.92563
M107
G1 X129.569 Y86.209 F60000
M107
G1 F2389.87
G1 X129.409 Y86.369 E.01368
G1 F2399.861
G1 X124.489 Y86.369 Z.24 E.29617
G1 X119.569 Y86.369 Z.24 E.29618
G1 X119.569 Y88.709 E0.14083
G1 F2389.558
G1 X119.409 Y88.869 E.01368
G1 X109.191 Y88.869 E0.6151
G1 X109.031 Y88.709 E.01368
G1 X109.031 Y68.491 E1.21712
G1 X109.191 Y68.331 E.01368
G1 X119.409 Y68.331 E0.6151
G1 X119.569 Y68.491 E.01368
G1 X119.569 Y70.831 E0.14083
G1 F2399.578
G1 X124.489 Y70.831 Z.24 E.29617
G1 F2400
G1 X129.409 Y70.831 Z.24 E.29618
G1 F2389.794
G1 X129.569 Y70.991 E.01368
G1 F2376.015
G1 X129.569 Y74.781 Z.24 E.22812
G1 F2328.045
G1 X129.569 Y78.57 Z.24 E.22812
G1 F2280.075
G1 X129.569 Y82.359 Z.24 E.22812
G1 F2208.12
G1 X129.569 Y86.149 Z.24 E.22812
M107
; printing object filament_flow_test id:0 copy 0
EXCLUDE_OBJECT_START NAME=filament_flow_test_id_0_copy_0
G1 X128.995 Y85.795 F60000
;TYPE:External perimeter
;WIDTH:0.599999
M107
G1 F2400
G1 X128.995 Y71.405 E0.797
G1 X119.269 Y71.405 E0.53867
G1 X119.085 Y71.334 E0.01091
G1 X119.003 Y71.196 E0.00893
G1 X118.995 Y71.131 E0.00363
G1 X118.995 Y68.905 E0.12328
G1 X109.605 Y68.905 E0.52007
G1 X109.605 Y88.295 E1.07393
G1 X118.995 Y88.295 E0.52007
G1 X118.995 Y86.069 E0.12328
G1 X119.06 Y85.892 E0.01048
G1 X119.23 Y85.798 E0.01074
G1 X128.935 Y85.795 E0.53752
M107
;WIPE_START
M204 S2000
G1 X128.795 Y85.449 F60000
;WIPE_END
M204 S750
G1 X128.447 Y85.247
;TYPE:Internal perimeter
M107
G1 F2399.062
G1 X128.447 Y80.501 Z.24 E.26283
G1 F2396.249
G1 X128.447 Y75.755 Z.24 E.26284
G1 X128.109 Y76.164 E0.02934
G1 F2392.118
G1 X127.792 Y76.426 E.02281
G1 X127.345 Y76.668 E0.0281
G1 F2397.514
G1 X126.873 Y76.804 E.02721
G1 F2396.805
G1 X126.396 Y76.843 E.02654
G1 X125.877 Y76.8 E0.02883
G1 F2397.761
G1 X125.369 Y76.663 E.02916
G1 F2399.654
G1 X124.982 Y76.46 E.0242
G1 X124.511 Y76.695 E0.02914
G1 F2396.489
G1 X124.014 Y76.815 E.02833
G1 X123.423 Y76.839 E0.03271
G1 F2397.823
G1 X122.628 Y76.83 E.04405
G1 F2393.843
G1 X122.25 Y76.757 E.02136
G1 X121.779 Y76.566 E0.02809
G1 F2390.785
G1 X121.373 Y76.31 E.02664
G1 X120.991 Y75.973 E0.02818
G1 F2393.941
G1 X120.697 Y75.601 E.02629
G1 X120.49 Y75.172 E0.02634
G1 X120.365 Y74.672 E.02858
G1 X120.328 Y74.163 E0.02822
G1 F2392.381
G1 X120.373 Y73.662 E.02791
G1 X120.504 Y73.198 E0.02667
G1 F2399.076
G1 X120.722 Y72.77 E.02659
G1 F2398.165
G1 X121.012 Y72.405 E.02583
G1 X121.542 Y71.953 E0.03857
G1 F2394.749
G1 X118.721 Y71.953 E.15624
G1 F2385.624
G1 X118.551 Y71.895 E.00996
G1 X118.457 Y71.755 E0.00929
G1 F2378.814
G1 X118.447 Y71.679 E.00426
G1 F2394.144
G1 X118.447 Y69.453 E.12328
G1 X110.153 Y69.453 E0.45932
G1 F2399.881
G1 X110.153 Y74.027 Z.24 E.25329
G1 X110.153 Y78.6 Z.24 E.25329
G1 X110.153 Y83.174 Z.24 E.25329
G1 X110.153 Y87.747 Z.24 E.25329
G1 X118.447 Y87.747 E0.45932
G1 F2397.771
G1 X118.447 Y85.521 E.12328
G1 F2386.911
G1 X118.5 Y85.358 E.00952
G1 X118.667 Y85.252 E0.01092
G1 F2394.777
G1 X123.523 Y85.233 E.26894
G1 X123.047 Y84.99 E0.02956
G1 F2398.016
G1 X122.651 Y84.511 E.03443
G1 F2399.245
G1 X122.516 Y83.908 E.03424
G1 X122.519 Y81.051 E0.15824
G1 X122.607 Y80.621 E.02431
G1 F2398.633
G1 X122.863 Y80.182 E.02816
G1 X123.271 Y79.876 E0.02824
G1 X123.743 Y79.748 E.0271
G1 F2399.147
G1 X124.272 Y79.764 E.0293
G1 F2391.048
