; generated by SuperSlicer 2.5.59.10 on 2024-06-03 at 12:44:36 UTC


;
;

;
;
; 

; external perimeters extrusion width = 0.60mm
; perimeters extrusion width = 0.60mm
; infill extrusion width = 0.60mm
; solid infill extrusion width = 0.60mm
; top infill extrusion width = 0.60mm
; first layer extrusion width = 0.60mm

; external perimeters extrusion width = 0.60mm
; perimeters extrusion width = 0.60mm
; infill extrusion width = 0.60mm
; solid infill extrusion width = 0.60mm
; top infill extrusion width = 0.60mm
; first layer extrusion width = 0.60mm

; external perimeters extrusion width = 0.60mm
; perimeters extrusion width = 0.60mm
; infill extrusion width = 0.60mm
; solid infill extrusion width = 0.60mm
; top infill extrusion width = 0.60mm
; first layer extrusion width = 0.60mm

; external perimeters extrusion width = 0.60mm
; perimeters extrusion width = 0.60mm
; infill extrusion width = 0.60mm
; solid infill extrusion width = 0.60mm
; top infill extrusion width = 0.60mm
; first layer extrusion width = 0.60mm

; external perimeters extrusion width = 0.60mm
; perimeters extrusion width = 0.60mm
; infill extrusion width = 0.60mm
; solid infill extrusion width = 0.60mm
; top infill extrusion width = 0.60mm
; first layer extrusion width = 0.60mm

; object:{"name":"filament_flow_test","id":"filament_flow_test id:0 copy 0","object_center":[119.299999,78.599998,0.000000],"boundingbox_center":[119.299999,78.599998,0.720000],"boundingbox_size":[20.000000,20.000000,1.440000]}
EXCLUDE_OBJECT_DEFINE NAME=filament_flow_test_id_0_copy_0 CENTER=119.299999,78.599998 POLYGON=[[109.30,68.60],[119.30,68.60],[129.30,71.10],[129.30,86.10],[119.30,88.60],[109.30,88.60],[109.30,68.60]]
; object:{"name":"filament_flow_test","id":"filament_flow_test id:1 copy 0","object_center":[119.299999,150.000000,0.000000],"boundingbox_center":[119.299999,150.000000,0.720000],"boundingbox_size":[20.000000,20.000000,1.440000]}
EXCLUDE_OBJECT_DEFINE NAME=filament_flow_test_id_1_copy_0 CENTER=119.299999,150.000000 POLYGON=[[109.30,140.00],[119.30,140.00],[129.30,142.50],[129.30,157.50],[119.30,160.00],[109.30,160.00],[109.30,140.00]]
; object:{"name":"filament_flow_test","id":"filament_flow_test id:2 copy 0","object_center":[119.299999,221.400002,0.000000],"boundingbox_center":[119.299999,221.400002,0.720000],"boundingbox_size":[20.000000,20.000000,1.440000]}
EXCLUDE_OBJECT_DEFINE NAME=filament_flow_test_id_2_copy_0 CENTER=119.299999,221.400002 POLYGON=[[109.30,211.40],[119.30,211.40],[129.30,213.90],[129.30,228.90],[119.30,231.40],[109.30,231.40],[109.30,211.40]]
; object:{"name":"filament_flow_test","id":"filament_flow_test id:3 copy 0","object_center":[190.700001,78.599998,0.000000],"boundingbox_center":[190.700001,78.599998,0.720000],"boundingbox_size":[20.000000,20.000000,1.440000]}
EXCLUDE_OBJECT_DEFINE NAME=filament_flow_test_id_3_copy_0 CENTER=190.700001,78.599998 POLYGON=[[180.70,68.60],[190.70,68.60],[200.70,71.10],[200.70,86.10],[190.70,88.60],[180.70,88.60],[180.70,68.60]]
; object:{"name":"filament_flow_test","id":"filament_flow_test id:4 copy 0","object_center":[190.700001,221.400002,0.000000],"boundingbox_center":[190.700001,221.400002,0.720000],"boundingbox_size":[20.000000,20.000000,1.440000]}
EXCLUDE_OBJECT_DEFINE NAME=filament_flow_test_id_4_copy_0 CENTER=190.700001,221.400002 POLYGON=[[180.70,211.40],[190.70,211.40],[200.70,213.90],[200.70,228.90],[190.70,231.40],[180.70,231.40],[180.70,211.40]]
; plater:{"center":[155.000000,150.000000,0.000000],"boundingbox_center":[155.000000,150.000000,0.720000],"boundingbox_size":[91.400002,162.800003,1.440000]}

M107
;TYPE:Custom
START_PRINT EXTRUDER=250 BED=100
M107
G21 ; set units to millimeters
G90 ; use absolute coordinates
M83 ; use relative distances for extrusion
ACTIVATE_EXTRUDER EXTRUDER=extruder
; Filament gcode
FILAMENT_START MATERIAL=ASA COLOR=#CDFCFF VENDOR=OVETURE
SET_PRESSURE_ADVANCE ADVANCE=0
M104 S250 T0 ; set temperature
M109 S250 T0 ; set temperature and wait for it to be reached
M190 S100 ; set bed temperature and wait for it to be reached
;LAYER_CHANGE
;Z:0.24
;HEIGHT:0.24
G1 E-1 F3600
G1 Z0.24 F60000
G92 E0
M204 S750
G1 X180.281 Y210.666
G1 E1 F3600
;TYPE:Skirt
;WIDTH:0.6
M107
G1 F2398.022
G1 X180.482 Y210.582 E.01373
G1 X190.918 Y210.582 E0.65679
G1 F2396.293
G1 X191.119 Y210.666 E.01373
G1 X191.434 Y210.981 E0.02803
G1 X191.518 Y211.182 E.01373
G1 X191.518 Y213.082 E0.11958
G1 F2399.963
G1 X196.218 Y213.082 Z.24 E.29581
G1 F2400
G1 X200.918 Y213.082 Z.24 E.29581
G1 F2396.352
G1 X201.119 Y213.166 E.01373
G1 X201.434 Y213.481 E0.02803
G1 X201.518 Y213.682 E.01373
G1 X201.518 Y229.118 E0.97148
G1 X201.434 Y229.319 E.01373
G1 X201.119 Y229.634 E0.02803
G1 X200.918 Y229.718 E.01373
G1 F2399.987
G1 X196.218 Y229.718 Z.24 E.29581
G1 X191.518 Y229.718 Z.24 E.29581
G1 X191.518 Y231.618 E0.11958
G1 F2396.325
G1 X191.434 Y231.819 E.01373
G1 X191.119 Y232.134 E0.02803
G1 X190.918 Y232.218 E.01373
G1 X180.482 Y232.218 E0.65679
G1 X180.281 Y232.134 E.01373
G1 X179.966 Y231.819 E0.02803
G1 X179.882 Y231.618 E.01373
G1 X179.882 Y211.182 E1.28617
G1 X179.966 Y210.981 E.01373
G1 F2399.688
G1 X180.238 Y210.708 E.02426
M107
G1 X180.591 Y211.131 F60000
M107
G1 F2400
G1 X190.809 Y211.131 E0.64306
G1 F2389.746
G1 X190.969 Y211.291 E.0143
G1 X190.969 Y213.631 E0.14724
G1 F2399.697
G1 X195.889 Y213.631 Z.24 E.30963
G1 F2400
G1 X200.809 Y213.631 Z.24 E.30964
G1 F2389.972
G1 X200.969 Y213.791 E.0143
G1 X200.969 Y229.009 E0.95775
G1 X200.809 Y229.169 E.0143
G1 F2399.896
G1 X195.889 Y229.169 Z.24 E.30964
G1 X190.969 Y229.169 Z.24 E.30964
G1 X190.969 Y231.509 E0.14724
G1 F2389.661
G1 X190.809 Y231.669 E.0143
G1 X180.591 Y231.669 E0.64306
G1 F2390.021
G1 X180.431 Y231.509 E.0143
G1 X180.431 Y211.291 E1.27244
G1 F2395.955
G1 X180.549 Y211.173 E.01052
M107
;WIPE_START
G1 F48000
G1 X180.431 Y211.291 E-0.01191
G1 X180.431 Y224.458 E-0.93809
;WIPE_END
G1 E-0.05 F3600
G1 X130.118 Y213.682 F60000
G1 E1 F3600
M107
G1 F2400
G1 X130.118 Y229.118 E0.97148
G1 F2396.328
G1 X130.034 Y229.319 E.01373
G1 X129.719 Y229.634 E0.02803
G1 X129.518 Y229.718 E.01373
G1 F2399.99
G1 X124.818 Y229.718 Z.24 E.29581
G1 X120.118 Y229.718 Z.24 E.29581
G1 X120.118 Y231.618 E0.11958
G1 F2396.364
G1 X120.034 Y231.819 E.01373
G1 X119.719 Y232.134 E0.02803
G1 X119.518 Y232.218 E.01373
G1 X109.082 Y232.218 E0.65679
G1 X108.881 Y232.134 E.01373
G1 X108.566 Y231.819 E0.02803
G1 X108.482 Y231.618 E.01373
G1 X108.482 Y211.182 E1.28617
G1 X108.566 Y210.981 E.01373
G1 X108.881 Y210.666 E0.02803
G1 X109.082 Y210.582 E.01373
G1 X119.518 Y210.582 E0.65679
G1 X119.719 Y210.666 E.01373
G1 X120.034 Y210.981 E0.02803
G1 X120.118 Y211.182 E.01373
G1 X120.118 Y213.082 E0.11958
G1 F2399.957
G1 X124.818 Y213.082 Z.24 E.29581
G1 F2400
G1 X129.518 Y213.082 Z.24 E.29581
G1 F2396.38
G1 X129.719 Y213.166 E.01373
G1 X130.034 Y213.481 E0.02803
G1 F2399.264
G1 X130.095 Y213.627 E.00996
M107
G1 X129.569 Y213.791 F60000
M107
G1 F2400
G1 X129.569 Y229.009 E0.95775
G1 F2390.169
G1 X129.409 Y229.169 E.0143
G1 F2399.896
G1 X124.489 Y229.169 Z.24 E.30964
G1 X119.569 Y229.169 Z.24 E.30964
G1 X119.569 Y231.509 E0.14724
G1 F2389.938
G1 X119.409 Y231.669 E.0143
G1 X109.191 Y231.669 E0.64306
G1 F2390.183
G1 X109.031 Y231.509 E.0143
G1 X109.031 Y211.291 E1.27244
G1 X109.191 Y211.131 E.0143
G1 X119.409 Y211.131 E0.64306
G1 F2389.938
G1 X119.569 Y211.291 E.0143
G1 X119.569 Y213.631 E0.14724
G1 F2399.687
G1 X124.489 Y213.631 Z.24 E.30964
G1 F2400
G1 X129.409 Y213.631 Z.24 E.30964
G1 F2395.68
G1 X129.527 Y213.749 E.01052
M107
;WIPE_START
G1 F48000
G1 X129.409 Y213.631 E-0.01191
G1 X119.569 Y213.631 E-0.70105
G1 X119.569 Y211.291 E-0.16668
G1 X119.409 Y211.131 E-0.01619
G1 X118.648 Y211.131 E-0.05417
;WIPE_END
G1 E-0.05 F3600
G1 X119.518 Y160.818 F60000
G1 E1 F3600
M107
G1 F2400
G1 X109.082 Y160.818 E0.65679
G1 F2396.519
G1 X108.881 Y160.734 E.01373
G1 X108.566 Y160.419 E0.02803
G1 X108.482 Y160.218 E.01373
G1 X108.482 Y139.782 E1.28617
G1 X108.566 Y139.581 E.01373
G1 X108.881 Y139.266 E0.02803
G1 X109.082 Y139.182 E.01373
G1 X119.518 Y139.182 E0.65679
G1 X119.719 Y139.266 E.01373
G1 X120.034 Y139.581 E0.02803
G1 X120.118 Y139.782 E.01373
G1 X120.118 Y141.682 E0.11958
G1 F2399.943
G1 X124.818 Y141.682 Z.24 E.29581
G1 F2400
G1 X129.518 Y141.682 Z.24 E.29581
G1 F2396.41
G1 X129.719 Y141.766 E.01373
G1 X130.034 Y142.081 E0.02803
G1 X130.118 Y142.282 E.01373
G1 X130.118 Y157.718 E0.97148
G1 X130.034 Y157.919 E.01373
G1 X129.719 Y158.234 E0.02803
G1 X129.518 Y158.318 E.01373
G1 F2399.981
G1 X124.818 Y158.318 Z.24 E.29581
G1 X120.118 Y158.318 Z.24 E.29581
G1 X120.118 Y160.218 E0.11958
G1 F2396.541
G1 X120.034 Y160.419 E.01373
G1 X119.719 Y160.734 E0.02803
G1 F2399.391
G1 X119.573 Y160.795 E.00996
M107
G1 X119.409 Y160.269 F60000
M107
G1 F2400
G1 X109.191 Y160.269 E0.64306
G1 F2390.184
G1 X109.031 Y160.109 E.0143
G1 X109.031 Y139.891 E1.27244
G1 X109.191 Y139.731 E.0143
G1 X119.409 Y139.731 E0.64306
G1 F2389.938
G1 X119.569 Y139.891 E.0143
G1 X119.569 Y142.231 E0.14724
G1 F2399.687
G1 X124.489 Y142.231 Z.24 E.30964
G1 F2400
G1 X129.409 Y142.231 Z.24 E.30964
G1 F2390.17
G1 X129.569 Y142.391 E.0143
G1 X129.569 Y157.609 E0.95775
G1 X129.409 Y157.769 E.0143
G1 F2399.897
G1 X124.489 Y157.769 Z.24 E.30963
G1 X119.569 Y157.769 Z.24 E.30964
G1 X119.569 Y160.109 E0.14724
G1 F2395.45
G1 X119.451 Y160.227 E.01052
M107
;WIPE_START
G1 F48000
G1 X119.569 Y160.109 E-0.01191
G1 X119.569 Y157.769 E-0.16668
G1 X129.409 Y157.769 E-0.70105
G1 X129.569 Y157.609 E-0.01619
G1 X129.569 Y156.848 E-0.05417
;WIPE_END
G1 E-0.05 F3600
G1 X180.281 Y89.334 F60000
G1 E1 F3600
M107
G1 F2400
G1 X179.966 Y89.019 E0.02803
G1 F2396.427
G1 X179.882 Y88.818 E.01373
G1 X179.882 Y68.382 E1.28617
G1 X179.966 Y68.181 E.01373
G1 X180.281 Y67.866 E0.02803
G1 X180.482 Y67.782 E.01373
G1 X190.918 Y67.782 E0.65679
G1 X191.119 Y67.866 E.01373
G1 X191.434 Y68.181 E0.02803
G1 X191.518 Y68.382 E.01373
G1 X191.518 Y70.282 E0.11958
G1 F2399.948
G1 X196.218 Y70.282 Z.24 E.29581
G1 F2400
G1 X200.918 Y70.282 Z.24 E.29581
G1 F2396.542
G1 X201.119 Y70.366 E.01373
G1 X201.434 Y70.681 E0.02803
G1 X201.518 Y70.882 E.01373
G1 X201.518 Y86.318 E0.97148
G1 X201.434 Y86.519 E.01373
G1 X201.119 Y86.834 E0.02803
G1 X200.918 Y86.918 E.01373
G1 F2399.98
G1 X196.218 Y86.918 Z.24 E.29581
G1 X191.518 Y86.918 Z.24 E.29581
G1 X191.518 Y88.818 E0.11958
G1 F2396.425
G1 X191.434 Y89.019 E.01373
G1 X191.119 Y89.334 E0.02803
G1 X190.918 Y89.418 E.01373
G1 X180.482 Y89.418 E0.65679
G1 F2399.736
G1 X180.336 Y89.357 E.00996
M107
G1 X180.591 Y88.869 F60000
M107
G1 F2390.149
G1 X180.431 Y88.709 E.0143
G1 X180.431 Y68.491 E1.27244
G1 F2389.805
G1 X180.591 Y68.331 E.0143
G1 X190.809 Y68.331 E0.64306
G1 X190.969 Y68.491 E.0143
G1 X190.969 Y70.831 E0.14724
G1 F2399.684
G1 X195.889 Y70.831 Z.24 E.30964
G1 F2400
G1 X200.809 Y70.831 Z.24 E.30964
G1 F2389.675
G1 X200.969 Y70.991 E.0143
G1 X200.969 Y86.209 E0.95775
G1 X200.809 Y86.369 E.0143
G1 F2399.896
G1 X195.889 Y86.369 Z.24 E.30964
G1 X190.969 Y86.369 Z.24 E.30964
G1 X190.969 Y88.709 E0.14724
G1 F2389.492
G1 X190.809 Y88.869 E.0143
G1 X180.651 Y88.869 E0.63928
M107
;WIPE_START
G1 F48000
G1 X190.809 Y88.869 E-0.7237
G1 X190.969 Y88.709 E-0.01619
G1 X190.969 Y86.369 E-0.16668
G1 X191.579 Y86.369 E-0.04343
;WIPE_END
G1 E-0.05 F3600
G1 X130.118 Y86.318 F60000
G1 E1 F3600
M107
G1 F2396.368
G1 X130.034 Y86.519 E.01373
G1 X129.719 Y86.834 E0.02803
G1 X129.518 Y86.918 E.01373
G1 F2399.981
G1 X124.818 Y86.918 Z.24 E.29581
G1 X120.118 Y86.918 Z.24 E.29581
G1 X120.118 Y88.818 E0.11958
G1 F2396.439
G1 X120.034 Y89.019 E.01373
G1 X119.719 Y89.334 E0.02803
G1 X119.518 Y89.418 E.01373
G1 X109.082 Y89.418 E0.65679
G1 X108.881 Y89.334 E.01373
G1 X108.566 Y89.019 E0.02803
G1 X108.482 Y88.818 E.01373
G1 X108.482 Y68.382 E1.28617
G1 X108.566 Y68.181 E.01373
G1 X108.881 Y67.866 E0.02803
G1 X109.082 Y67.782 E.01373
G1 X119.518 Y67.782 E0.65679
G1 X119.719 Y67.866 E.01373
G1 X120.034 Y68.181 E0.02803
G1 X120.118 Y68.382 E.01373
G1 X120.118 Y70.282 E0.11958
G1 F2399.951
G1 X124.818 Y70.282 Z.24 E.29581
G1 F2400
G1 X129.518 Y70.282 Z.24 E.29581
G1 F2396.384
G1 X129.719 Y70.366 E.01373
G1 X130.034 Y70.681 E0.02803
G1 X130.118 Y70.882 E.01373
G1 X130.118 Y86.258 E0.96771
M107
G1 X129.569 Y86.209 F60000
M107
G1 F2389.868
G1 X129.409 Y86.369 E.0143
G1 F2399.896
G1 X124.489 Y86.369 Z.24 E.30964
G1 X119.569 Y86.369 Z.24 E.30964
G1 X119.569 Y88.709 E0.14724
G1 F2389.615
G1 X119.409 Y88.869 E.0143
G1 X109.191 Y88.869 E0.64306
G1 X109.031 Y88.709 E.0143
G1 X109.031 Y68.491 E1.27244
G1 X109.191 Y68.331 E.0143
G1 X119.409 Y68.331 E0.64306
G1 X119.569 Y68.491 E.0143
G1 X119.569 Y70.831 E0.14724
G1 F2399.681
G1 X124.489 Y70.831 Z.24 E.30964
G1 F2400
G1 X129.409 Y70.831 Z.24 E.30964
G1 F2389.79
G1 X129.569 Y70.991 E.0143
G1 F2376.014
G1 X129.569 Y74.781 Z.24 E.23849
G1 F2328.042
G1 X129.569 Y78.57 Z.24 E.23849
G1 F2280.071
G1 X129.569 Y82.359 Z.24 E.23849
G1 F2208.113
G1 X129.569 Y86.149 Z.24 E.23849
M107
; printing object filament_flow_test id:0 copy 0
EXCLUDE_OBJECT_START NAME=filament_flow_test_id_0_copy_0
G1 X128.995 Y85.795 F60000
;TYPE:External perimeter
;WIDTH:0.599999
M107
G1 F2400
G1 X128.995 Y71.405 E0.83323
G1 X119.269 Y71.405 E0.56315
G1 X119.085 Y71.334 E0.0114
G1 X119.003 Y71.196 E0.00934
G1 X118.995 Y71.131 E0.00379
G1 X118.995 Y68.905 E0.12888
G1 X109.605 Y68.905 E0.54371
G1 X109.605 Y88.295 E1.12275
G1 X118.995 Y88.295 E0.54371
G1 X118.995 Y86.069 E0.12888
G1 X119.06 Y85.892 E0.01096
G1 X119.23 Y85.798 E0.01123
G1 X128.935 Y85.795 E0.56195
M107
;WIPE_START
M204 S2000
G1 X128.795 Y85.449 F60000
;WIPE_END
M204 S750
G1 X128.447 Y85.247
;TYPE:Internal perimeter
M107
G1 F2399.244
G1 X128.447 Y80.501 Z.24 E.27478
G1 F2396.978
G1 X128.447 Y75.755 Z.24 E.27478
G1 X128.109 Y76.164 E0.03068
G1 F2392.591
G1 X127.792 Y76.426 E.02385
G1 X127.345 Y76.668 E0.02938
G1 F2397.574
G1 X126.873 Y76.804 E.02845
G1 X126.396 Y76.843 E.02774
G1 X125.877 Y76.8 E0.03014
G1 F2398.049
G1 X125.369 Y76.663 E.03048
G1 F2399.987
G1 X124.982 Y76.46 E.0253
G1 X124.511 Y76.695 E0.03047
G1 F2396.659
G1 X124.014 Y76.815 E.02962
G1 X123.423 Y76.839 E0.0342
G1 F2397.641
G1 X122.628 Y76.83 E.04606
G1 F2393.893
G1 X122.25 Y76.757 E.02233
G1 X121.779 Y76.566 E0.02937
G1 F2391.322
G1 X121.373 Y76.31 E.02785
G1 X120.991 Y75.973 E0.02947
G1 F2394.4
G1 X120.697 Y75.601 E.02748
G1 X120.49 Y75.172 E0.02753
G1 F2392.692
G1 X120.365 Y74.672 E.02988
G1 X120.328 Y74.163 E0.0295
G1 X120.373 Y73.662 E.02918
G1 X120.504 Y73.198 E0.02789
G1 F2399.247
G1 X120.722 Y72.77 E.0278
G1 F2398.554
G1 X121.012 Y72.405 E.027
G1 X121.542 Y71.953 E0.04032
G1 F2394.278
G1 X118.721 Y71.953 E.16334
G1 F2385.515
G1 X118.551 Y71.895 E.01041
G1 X118.457 Y71.755 E0.00971
G1 F2379.724
G1 X118.447 Y71.679 E.00445
G1 F2393.845
G1 X118.447 Y69.453 E.12888
G1 X110.153 Y69.453 E0.48019
G1 F2399.82
G1 X110.153 Y74.027 Z.24 E.26481
G1 X110.153 Y78.6 Z.24 E.26481
G1 X110.153 Y83.174 Z.24 E.2648
G1 X110.153 Y87.747 Z.24 E.26481
G1 X118.447 Y87.747 E0.48019
G1 F2396.901
G1 X118.447 Y85.521 E.12888
G1 F2386.476
G1 X118.5 Y85.358 E.00995
G1 X118.667 Y85.252 E0.01141
G1 F2393.696
G1 X123.523 Y85.233 E.28117
G1 X123.047 Y84.99 E0.0309
G1 F2397.996
G1 X122.651 Y84.511 E.03599
G1 F2398.868
G1 X122.516 Y83.908 E.0358
G1 F2399.698
G1 X122.519 Y81.051 E.16544
G1 X122.607 Y80.621 E0.02541
G1 F2397.956
G1 X122.863 Y80.182 E.02944
G1 X123.271 Y79.876 E0.02952
G1 F2398.016
G1 X123.743 Y79.748 E.02833
G1 F2397.683
G1 X124.272 Y79.764 E.03064
G1 F2389.104
G1 X124.78 Y79.969 E.03174
G1 X124.894 Y80.055 E0.00822
G1 F2388.616
G1 X125.225 Y80.479 E.03117
G1 F2398.018
G1 X125.361 Y81.034 E.03307
G1 X125.364 Y83.968 E.16987
G1 X125.253 Y84.453 E0.02879
G1 F2396.834
G1 X124.908 Y84.936 E.03441
G1 F2399.464
G1 X124.31 Y85.242 E.03891
G1 X128.387 Y85.246 E0.23605
M107
G1 X127.898 Y84.698 F60000
M107
G1 F2394.613
G1 X127.898 Y80.846 Z.24 E.22301
G1 F2379.138
G1 X127.898 Y76.995 Z.24 E.22301
G1 F2373.081
G1 X127.503 Y77.193 E.02561
G1 F2369.547
G1 X126.923 Y77.35 E.03476
G1 F2357.205
G1 X126.354 Y77.39 E.03304
G1 F2349.306
