; generated by SuperSlicer 2.5.59.10 on 2024-06-03 at 02:18:25 UTC


;
;

;
;
; 

; external perimeters extrusion width = 0.60mm
; perimeters extrusion width = 0.60mm
; infill extrusion width = 0.60mm
; solid infill extrusion width = 0.60mm
; top infill extrusion width = 0.60mm
; support material extrusion width = 0.38mm
; first layer extrusion width = 0.60mm

; external perimeters extrusion width = 0.60mm
; perimeters extrusion width = 0.60mm
; infill extrusion width = 0.60mm
; solid infill extrusion width = 0.60mm
; top infill extrusion width = 0.60mm
; support material extrusion width = 0.38mm
; first layer extrusion width = 0.60mm

; external perimeters extrusion width = 0.60mm
; perimeters extrusion width = 0.60mm
; infill extrusion width = 0.60mm
; solid infill extrusion width = 0.60mm
; top infill extrusion width = 0.60mm
; support material extrusion width = 0.38mm
; first layer extrusion width = 0.60mm

; external perimeters extrusion width = 0.60mm
; perimeters extrusion width = 0.60mm
; infill extrusion width = 0.60mm
; solid infill extrusion width = 0.60mm
; top infill extrusion width = 0.60mm
; support material extrusion width = 0.38mm
; first layer extrusion width = 0.60mm

; external perimeters extrusion width = 0.60mm
; perimeters extrusion width = 0.60mm
; infill extrusion width = 0.60mm
; solid infill extrusion width = 0.60mm
; top infill extrusion width = 0.60mm
; support material extrusion width = 0.38mm
; first layer extrusion width = 0.60mm

; object:{"name":"filament_flow_test","id":"filament_flow_test id:0 copy 0","object_center":[119.299999,78.599998,0.000000],"boundingbox_center":[119.299999,78.599998,0.720000],"boundingbox_size":[20.000000,20.000000,1.440000]}
EXCLUDE_OBJECT_DEFINE NAME=filament_flow_test_id_0_copy_0 CENTER=119.299999,78.599998 POLYGON=[[109.30,68.60],[119.30,68.60],[129.30,71.10],[129.30,86.10],[119.30,88.60],[109.30,88.60],[109.30,68.60]]
; object:{"name":"filament_flow_test","id":"filament_flow_test id:1 copy 0","object_center":[119.299999,150.000000,0.000000],"boundingbox_center":[119.299999,150.000000,0.720000],"boundingbox_size":[20.000000,20.000000,1.440000]}
EXCLUDE_OBJECT_DEFINE NAME=filament_flow_test_id_1_copy_0 CENTER=119.299999,150.000000 POLYGON=[[109.30,140.00],[119.30,140.00],[129.30,142.50],[129.30,157.50],[119.30,160.00],[109.30,160.00],[109.30,140.00]]
; object:{"name":"filament_flow_test","id":"filament_flow_test id:2 copy 0","object_center":[119.299999,221.400002,0.000000],"boundingbox_center":[119.299999,221.400002,0.720000],"boundingbox_size":[20.000000,20.000000,1.440000]}
EXCLUDE_OBJECT_DEFINE NAME=filament_flow_test_id_2_copy_0 CENTER=119.299999,221.400002 POLYGON=[[109.30,211.40],[119.30,211.40],[129.30,213.90],[129.30,228.90],[119.30,231.40],[109.30,231.40],[109.30,211.40]]
; object:{"name":"filament_flow_test","id":"filament_flow_test id:3 copy 0","object_center":[190.700001,78.599998,0.000000],"boundingbox_center":[190.700001,78.599998,0.720000],"boundingbox_size":[20.000000,20.000000,1.440000]}
EXCLUDE_OBJECT_DEFINE NAME=filament_flow_test_id_3_copy_0 CENTER=190.700001,78.599998 POLYGON=[[180.70,68.60],[190.70,68.60],[200.70,71.10],[200.70,86.10],[190.70,88.60],[180.70,88.60],[180.70,68.60]]
; object:{"name":"filament_flow_test","id":"filament_flow_test id:4 copy 0","object_center":[190.700001,221.400002,0.000000],"boundingbox_center":[190.700001,221.400002,0.720000],"boundingbox_size":[20.000000,20.000000,1.440000]}
EXCLUDE_OBJECT_DEFINE NAME=filament_flow_test_id_4_copy_0 CENTER=190.700001,221.400002 POLYGON=[[180.70,211.40],[190.70,211.40],[200.70,213.90],[200.70,228.90],[190.70,231.40],[180.70,231.40],[180.70,211.40]]
; plater:{"center":[155.000000,150.000000,0.000000],"boundingbox_center":[155.000000,150.000000,0.720000],"boundingbox_size":[91.400002,162.800003,1.440000]}

M107
;TYPE:Custom
START_PRINT EXTRUDER=250 BED=100
M107
G21 ; set units to millimeters
G90 ; use absolute coordinates
M83 ; use relative distances for extrusion
ACTIVATE_EXTRUDER EXTRUDER=extruder
; Filament gcode
FILAMENT_START MATERIAL=ASA COLOR=#368900 VENDOR=123-3D
SET_PRESSURE_ADVANCE ADVANCE=0.062
M104 S250 T0 ; set temperature
M109 S250 T0 ; set temperature and wait for it to be reached
M190 S100 ; set bed temperature and wait for it to be reached
;LAYER_CHANGE
;Z:0.24
;HEIGHT:0.24
G1 E-1 F3600
G1 Z0.24 F60000
G92 E0
M204 S750
G1 X180.281 Y210.666
G1 E1 F3600
;TYPE:Skirt
;WIDTH:0.6
M107
G1 F2398.091
G1 X180.482 Y210.582 E.01194
G1 X190.918 Y210.582 E0.57112
G1 F2396.42
G1 X191.119 Y210.666 E.01194
G1 X191.434 Y210.981 E0.02438
G1 X191.518 Y211.182 E.01194
G1 X191.518 Y213.082 E0.10398
G1 F2399.925
G1 X196.218 Y213.082 Z.24 E.25722
G1 F2400
G1 X200.918 Y213.082 Z.24 E.25723
G1 F2396.481
G1 X201.119 Y213.166 E.01194
G1 X201.434 Y213.481 E0.02438
G1 X201.518 Y213.682 E.01194
G1 X201.518 Y229.118 E0.84477
G1 X201.434 Y229.319 E.01194
G1 X201.119 Y229.634 E0.02438
G1 X200.918 Y229.718 E.01194
G1 F2399.975
G1 X196.218 Y229.718 Z.24 E.25723
G1 X191.518 Y229.718 Z.24 E.25723
G1 X191.518 Y231.618 E0.10398
G1 F2396.432
G1 X191.434 Y231.819 E.01194
G1 X191.119 Y232.134 E0.02438
G1 X190.918 Y232.218 E.01194
G1 X180.482 Y232.218 E0.57112
G1 X180.281 Y232.134 E.01194
G1 X179.966 Y231.819 E0.02438
G1 X179.882 Y231.618 E.01194
G1 X179.882 Y211.182 E1.11841
G1 X179.966 Y210.981 E.01194
G1 X180.238 Y210.708 E0.02109
M107
G1 X180.591 Y211.131 F60000
M107
G1 F2399.993
G1 X183.997 Y211.131 Z.24 E.18639
G1 X187.403 Y211.131 Z.24 E.18639
G1 F2400
G1 X190.809 Y211.131 Z.24 E.18639
G1 F2390.554
G1 X190.969 Y211.291 E.01243
G1 X190.969 Y213.631 E0.12803
G1 F2399.611
G1 X195.889 Y213.631 Z.24 E.26925
G1 F2400
G1 X200.809 Y213.631 Z.24 E.26925
G1 F2390.833
G1 X200.969 Y213.791 E.01243
G1 X200.969 Y229.009 E0.83282
G1 X200.809 Y229.169 E.01243
G1 F2399.87
G1 X195.889 Y229.169 Z.24 E.26925
G1 X190.969 Y229.169 Z.24 E.26925
G1 X190.969 Y231.509 E0.12803
G1 F2390.554
G1 X190.809 Y231.669 E.01243
G1 X180.591 Y231.669 E0.55918
G1 X180.431 Y231.509 E.01243
G1 X180.431 Y211.291 E1.10647
G1 F2395.507
G1 X180.549 Y211.173 E.00915
M107
;WIPE_START
G1 F48000
G1 X180.431 Y211.291 E-0.01191
G1 X180.431 Y224.458 E-0.93809
;WIPE_END
G1 E-0.05 F3600
G1 X130.118 Y213.682 F60000
G1 E1 F3600
M107
G1 F2400
G1 X130.118 Y229.118 E0.84477
G1 F2396.438
G1 X130.034 Y229.319 E.01194
G1 X129.719 Y229.634 E0.02438
G1 X129.518 Y229.718 E.01194
G1 F2399.976
G1 X124.818 Y229.718 Z.24 E.25723
G1 X120.118 Y229.718 Z.24 E.25723
G1 X120.118 Y231.618 E0.10398
G1 F2396.435
G1 X120.034 Y231.819 E.01194
G1 X119.719 Y232.134 E0.02438
G1 X119.518 Y232.218 E.01194
G1 X109.082 Y232.218 E0.57112
G1 X108.881 Y232.134 E.01194
G1 X108.566 Y231.819 E0.02438
G1 X108.482 Y231.618 E.01194
G1 X108.482 Y211.182 E1.11841
G1 X108.566 Y210.981 E.01194
G1 X108.881 Y210.666 E0.02438
G1 X109.082 Y210.582 E.01194
G1 X119.518 Y210.582 E0.57112
G1 X119.719 Y210.666 E.01194
G1 X120.034 Y210.981 E0.02438
G1 X120.118 Y211.182 E.01194
G1 X120.118 Y213.082 E0.10398
G1 F2399.929
G1 X124.818 Y213.082 Z.24 E.25723
G1 F2400
G1 X129.518 Y213.082 Z.24 E.25723
G1 F2396.313
G1 X129.719 Y213.166 E.01194
G1 X130.034 Y213.481 E0.02438
G1 F2399.719
G1 X130.095 Y213.627 E.00866
M107
G1 X129.569 Y213.791 F60000
M107
G1 F2400
G1 X129.569 Y229.009 E0.83282
G1 F2390.952
G1 X129.409 Y229.169 E.01243
G1 F2399.873
G1 X124.489 Y229.169 Z.24 E.26925
G1 X119.569 Y229.169 Z.24 E.26925
G1 X119.569 Y231.509 E0.12803
G1 F2390.676
G1 X119.409 Y231.669 E.01243
G1 X109.191 Y231.669 E0.55918
G1 X109.031 Y231.509 E.01243
G1 X109.031 Y211.291 E1.10647
G1 X109.191 Y211.131 E.01243
G1 X119.409 Y211.131 E0.55918
G1 X119.569 Y211.291 E.01243
G1 X119.569 Y213.631 E0.12803
G1 F2399.621
G1 X124.489 Y213.631 Z.24 E.26925
G1 F2400
G1 X129.409 Y213.631 Z.24 E.26925
G1 F2395.446
G1 X129.527 Y213.749 E.00915
M107
;WIPE_START
G1 F48000
G1 X129.409 Y213.631 E-0.01191
G1 X119.569 Y213.631 E-0.70105
G1 X119.569 Y211.291 E-0.16668
G1 X119.409 Y211.131 E-0.01619
G1 X118.648 Y211.131 E-0.05417
;WIPE_END
G1 E-0.05 F3600
G1 X119.518 Y160.818 F60000
G1 E1 F3600
M107
G1 F2400
G1 X109.082 Y160.818 E0.57112
G1 F2396.45
G1 X108.881 Y160.734 E.01194
G1 X108.566 Y160.419 E0.02438
G1 X108.482 Y160.218 E.01194
G1 X108.482 Y139.782 E1.11841
G1 X108.566 Y139.581 E.01194
G1 X108.881 Y139.266 E0.02438
G1 X109.082 Y139.182 E.01194
G1 X119.518 Y139.182 E0.57112
G1 X119.719 Y139.266 E.01194
G1 X120.034 Y139.581 E0.02438
G1 X120.118 Y139.782 E.01194
G1 X120.118 Y141.682 E0.10398
G1 F2399.898
G1 X124.818 Y141.682 Z.24 E.25723
G1 F2400
G1 X129.518 Y141.682 Z.24 E.25723
G1 F2396.342
G1 X129.719 Y141.766 E.01194
G1 X130.034 Y142.081 E0.02438
G1 X130.118 Y142.282 E.01194
G1 X130.118 Y157.718 E0.84477
G1 X130.034 Y157.919 E.01194
G1 X129.719 Y158.234 E0.02438
G1 X129.518 Y158.318 E.01194
G1 F2399.966
G1 X124.818 Y158.318 Z.24 E.25723
G1 X120.118 Y158.318 Z.24 E.25723
G1 X120.118 Y160.218 E0.10398
G1 F2396.444
G1 X120.034 Y160.419 E.01194
G1 F2399.902
G1 X119.719 Y160.734 E.02438
G1 X119.573 Y160.795 E0.00866
M107
G1 X119.409 Y160.269 F60000
M107
G1 F2399.977
G1 X116.003 Y160.269 Z.24 E.18639
G1 X112.597 Y160.269 Z.24 E.18639
G1 F2400
G1 X109.191 Y160.269 Z.24 E.18639
G1 F2390.958
G1 X109.031 Y160.109 E.01243
G1 X109.031 Y139.891 E1.10647
G1 X109.191 Y139.731 E.01243
G1 X119.409 Y139.731 E0.55918
G1 X119.569 Y139.891 E.01243
G1 X119.569 Y142.231 E0.12803
G1 F2399.621
G1 X124.489 Y142.231 Z.24 E.26925
G1 F2400
G1 X129.409 Y142.231 Z.24 E.26925
G1 F2390.952
G1 X129.569 Y142.391 E.01243
G1 X129.569 Y157.609 E0.83282
G1 X129.409 Y157.769 E.01243
G1 F2399.874
G1 X124.489 Y157.769 Z.24 E.26925
G1 X119.569 Y157.769 Z.24 E.26925
G1 X119.569 Y160.109 E0.12803
G1 F2395.445
G1 X119.451 Y160.227 E.00915
M107
;WIPE_START
G1 F48000
G1 X119.569 Y160.109 E-0.01191
G1 X119.569 Y157.769 E-0.16668
G1 X129.409 Y157.769 E-0.70105
G1 X129.569 Y157.609 E-0.01619
G1 X129.569 Y156.848 E-0.05417
;WIPE_END
G1 E-0.05 F3600
G1 X180.281 Y89.334 F60000
G1 E1 F3600
M107
G1 F2400
G1 X179.966 Y89.019 E0.02438
G1 F2396.363
G1 X179.882 Y88.818 E.01194
G1 X179.882 Y68.382 E1.11841
G1 X179.966 Y68.181 E.01194
G1 X180.281 Y67.866 E0.02438
G1 X180.482 Y67.782 E.01194
G1 X190.918 Y67.782 E0.57112
G1 X191.119 Y67.866 E.01194
G1 X191.434 Y68.181 E0.02438
G1 X191.518 Y68.382 E.01194
G1 X191.518 Y70.282 E0.10398
G1 F2399.91
G1 X196.218 Y70.282 Z.24 E.25723
G1 F2400
G1 X200.918 Y70.282 Z.24 E.25723
G1 F2396.47
G1 X201.119 Y70.366 E.01194
G1 X201.434 Y70.681 E0.02438
G1 X201.518 Y70.882 E.01194
G1 X201.518 Y86.318 E0.84477
G1 X201.434 Y86.519 E.01194
G1 X201.119 Y86.834 E0.02438
G1 X200.918 Y86.918 E.01194
G1 F2399.979
G1 X196.218 Y86.918 Z.24 E.25723
G1 X191.518 Y86.918 Z.24 E.25723
G1 X191.518 Y88.818 E0.10398
G1 F2396.349
G1 X191.434 Y89.019 E.01194
G1 X191.119 Y89.334 E0.02438
G1 X190.918 Y89.418 E.01194
G1 X180.482 Y89.418 E0.57112
G1 F2399.962
G1 X180.336 Y89.357 E.00866
M107
G1 X180.591 Y88.869 F60000
M107
G1 F2391.384
G1 X180.431 Y88.709 E.01243
G1 X180.431 Y68.491 E1.10647
G1 X180.591 Y68.331 E.01243
G1 X190.809 Y68.331 E0.55918
G1 F2390.853
G1 X190.969 Y68.491 E.01243
G1 X190.969 Y70.831 E0.12803
G1 F2399.585
G1 X195.889 Y70.831 Z.24 E.26925
G1 F2400
G1 X200.809 Y70.831 Z.24 E.26925
G1 F2391.149
G1 X200.969 Y70.991 E.01243
G1 X200.969 Y86.209 E0.83282
G1 X200.809 Y86.369 E.01243
G1 F2399.864
G1 X195.889 Y86.369 Z.24 E.26925
G1 X190.969 Y86.369 Z.24 E.26925
G1 X190.969 Y88.709 E0.12803
G1 F2390.92
G1 X190.809 Y88.869 E.01243
G1 X180.651 Y88.869 E0.5559
M107
;WIPE_START
G1 F48000
G1 X190.809 Y88.869 E-0.7237
G1 X190.969 Y88.709 E-0.01619
G1 X190.969 Y86.369 E-0.16668
G1 X191.579 Y86.369 E-0.04343
;WIPE_END
G1 E-0.05 F3600
G1 X130.118 Y86.318 F60000
G1 E1 F3600
M107
G1 F2396.318
G1 X130.034 Y86.519 E.01194
G1 X129.719 Y86.834 E0.02438
G1 X129.518 Y86.918 E.01194
G1 F2399.979
G1 X124.818 Y86.918 Z.24 E.25723
G1 X120.118 Y86.918 Z.24 E.25723
G1 X120.118 Y88.818 E0.10398
G1 F2396.364
G1 X120.034 Y89.019 E.01194
G1 X119.719 Y89.334 E0.02438
G1 X119.518 Y89.418 E.01194
G1 X109.082 Y89.418 E0.57112
G1 X108.881 Y89.334 E.01194
G1 X108.566 Y89.019 E0.02438
G1 X108.482 Y88.818 E.01194
G1 X108.482 Y68.382 E1.11841
G1 X108.566 Y68.181 E.01194
G1 X108.881 Y67.866 E0.02438
G1 X109.082 Y67.782 E.01194
G1 X119.518 Y67.782 E0.57112
G1 X119.719 Y67.866 E.01194
G1 X120.034 Y68.181 E0.02438
G1 X120.118 Y68.382 E.01194
G1 X120.118 Y70.282 E0.10398
G1 F2399.946
G1 X124.818 Y70.282 Z.24 E.25723
G1 F2400
G1 X129.518 Y70.282 Z.24 E.25723
G1 F2396.313
G1 X129.719 Y70.366 E.01194
G1 X130.034 Y70.681 E0.02438
G1 X130.118 Y70.882 E.01194
G1 X130.118 Y86.258 E0.84148
M107
G1 X129.569 Y86.209 F60000
M107
G1 F2391.34
G1 X129.409 Y86.369 E.01243
G1 F2399.863
G1 X124.489 Y86.369 Z.24 E.26925
G1 X119.569 Y86.369 Z.24 E.26925
G1 X119.569 Y88.709 E0.12803
G1 F2391.029
G1 X119.409 Y88.869 E.01243
G1 X109.191 Y88.869 E0.55918
G1 X109.031 Y88.709 E.01243
G1 X109.031 Y68.491 E1.10647
G1 X109.191 Y68.331 E.01243
G1 F2390.116
G1 X112.597 Y68.331 Z.24 E.18639
G1 F2370.349
G1 X116.003 Y68.331 Z.24 E.18639
G1 F2340.697
G1 X119.409 Y68.331 Z.24 E.18639
G1 F2330.275
G1 X119.569 Y68.491 E.01243
G1 F2318.135
G1 X119.569 Y70.831 E.12803
G1 F2259.376
G1 X124.489 Y70.831 Z.24 E.26925
G1 F2142.664
G1 X129.409 Y70.831 Z.24 E.26925
G1 F2133.149
G1 X129.569 Y70.991 E.01243
G1 F2111.821
G1 X129.569 Y74.781 Z.24 E.20739
G1 F2057.042
G1 X129.569 Y78.57 Z.24 E.20739
G1 F2002.263
G1 X129.569 Y82.359 Z.24 E.20738
G1 F1920.094
G1 X129.569 Y86.149 Z.24 E.20739
M107
; printing object filament_flow_test id:0 copy 0
EXCLUDE_OBJECT_START NAME=filament_flow_test_id_0_copy_0
G1 X128.995 Y85.795 F60000
;TYPE:External perimeter
;WIDTH:0.599999
M107
G1 F2400
G1 X128.995 Y71.405 E0.63004
G1 X119.269 Y71.405 E0.42582
G1 X119.085 Y71.334 E0.00862
G1 X119.003 Y71.196 E0.00706
G1 X118.995 Y71.131 E0.00287
G1 X118.995 Y68.905 E0.09745
G1 X109.605 Y68.905 E0.41112
G1 X109.605 Y88.295 E0.84896
G1 X118.995 Y88.295 E0.41112
G1 X118.995 Y86.069 E0.09745
G1 X119.06 Y85.892 E0.00828
G1 X119.23 Y85.798 E0.00849
G1 X128.935 Y85.795 E0.42492
M107
;WIPE_START
M204 S2000
G1 X128.795 Y85.449 F60000
;WIPE_END
G1 E-1 F3600
M204 S750
G1 X128.472 Y85.272 F60000
G1 X123.523 Y85.233
G1 E1 F3600
;TYPE:Internal perimeter
M107
G1 F2400
G1 X123.047 Y84.99 E0.02337
G1 F2397.938
G1 X122.651 Y84.511 E.02722
G1 F2399.26
G1 X122.521 Y83.957 E.02493
G1 F2398.146
G1 X122.519 Y81.051 E.12725
G1 X122.606 Y80.622 E0.01914
G1 F2394.856
G1 X122.204 Y80.865 E.02059
G1 X121.806 Y80.994 E0.01831
G1 F2398.874
G1 X120.98 Y81.022 E.03618
G1 X120.82 Y80.977 E0.00727
G1 F2397.475
G1 X120.722 Y80.862 E.00662
G1 X120.37 Y80.097 E0.03686
G1 X120.313 Y79.662 E.01923
G1 X120.313 Y77.022 E0.11559
G1 F2398.214
G1 X120.397 Y76.515 E.02251
G1 X120.851 Y75.804 E0.03691
G1 F2397.425
G1 X120.643 Y75.582 E.01332
G1 X120.395 Y75.179 E0.02069
G1 F2398.547
G1 X120.235 Y74.693 E.0224
G1 F2399.551
G1 X120.193 Y74.192 E.02202
G1 F2397.956
G1 X120.282 Y73.554 E.02822
G1 X120.475 Y73.084 E0.02223
G1 F2398.68
G1 X120.784 Y72.671 E.02259
G1 F2397.257
G1 X121.205 Y72.328 E.0238
G1 X121.666 Y72.075 E0.02301
G1 F2399.07
G1 X121.96 Y71.953 E.01394
G1 F2396.033
G1 X118.721 Y71.953 E.14184
G1 F2387.573
G1 X118.544 Y71.889 E.00825
G1 X118.457 Y71.755 E0.00696
G1 F2380.66
G1 X118.447 Y71.679 E.00337
G1 F2395.22
G1 X118.447 Y69.453 E.09745
G1 X110.153 Y69.453 E0.36309
G1 F2399.813
G1 X110.153 Y74.027 Z.24 E.20023
G1 X110.153 Y78.6 Z.24 E.20023
G1 X110.153 Y83.174 Z.24 E.20023
G1 X110.153 Y87.747 Z.24 E.20023
G1 X114.3 Y87.747 Z.24 E.18155
G1 X118.447 Y87.747 Z.24 E.18155
G1 F2398.91
G1 X118.447 Y85.521 E.09745
G1 X118.523 Y85.33 E0.00899
G1 F2396.274
G1 X118.682 Y85.249 E.00782
G1 X123.463 Y85.233 E0.20929
M107
G1 E-1 F3600
G1 X118.472 Y85.272 F60000
G1 X118.472 Y87.198
G1 X117.898 Y87.198
G1 E1 F3600
M107
G1 F2397.823
G1 X117.898 Y85.521 E.07344
G1 X117.993 Y85.136 E0.01734
G1 F2399.976
G1 X118.208 Y84.877 E.01472
G1 F2395.149
G1 X118.51 Y84.725 E.01482
G1 X119.544 Y84.698 E0.04526
G1 F2399.354
G1 X122.151 Y84.698 E.11414
G1 F2394.194
G1 X122.061 Y84.493 E.00982
G1 X121.968 Y83.907 E0.02594
