; generated by SuperSlicer 2.5.59.10 on 2024-06-03 at 14:33:55 UTC


;
;

;
;
; 

; external perimeters extrusion width = 0.60mm
; perimeters extrusion width = 0.60mm
; infill extrusion width = 0.60mm
; solid infill extrusion width = 0.60mm
; top infill extrusion width = 0.60mm
; first layer extrusion width = 0.60mm

; external perimeters extrusion width = 0.60mm
; perimeters extrusion width = 0.60mm
; infill extrusion width = 0.60mm
; solid infill extrusion width = 0.60mm
; top infill extrusion width = 0.60mm
; first layer extrusion width = 0.60mm

; external perimeters extrusion width = 0.60mm
; perimeters extrusion width = 0.60mm
; infill extrusion width = 0.60mm
; solid infill extrusion width = 0.60mm
; top infill extrusion width = 0.60mm
; first layer extrusion width = 0.60mm

; external perimeters extrusion width = 0.60mm
; perimeters extrusion width = 0.60mm
; infill extrusion width = 0.60mm
; solid infill extrusion width = 0.60mm
; top infill extrusion width = 0.60mm
; first layer extrusion width = 0.60mm

; external perimeters extrusion width = 0.60mm
; perimeters extrusion width = 0.60mm
; infill extrusion width = 0.60mm
; solid infill extrusion width = 0.60mm
; top infill extrusion width = 0.60mm
; first layer extrusion width = 0.60mm

; external perimeters extrusion width = 0.60mm
; perimeters extrusion width = 0.60mm
; infill extrusion width = 0.60mm
; solid infill extrusion width = 0.60mm
; top infill extrusion width = 0.60mm
; first layer extrusion width = 0.60mm

; external perimeters extrusion width = 0.60mm
; perimeters extrusion width = 0.60mm
; infill extrusion width = 0.60mm
; solid infill extrusion width = 0.60mm
; top infill extrusion width = 0.60mm
; first layer extrusion width = 0.60mm

; external perimeters extrusion width = 0.60mm
; perimeters extrusion width = 0.60mm
; infill extrusion width = 0.60mm
; solid infill extrusion width = 0.60mm
; top infill extrusion width = 0.60mm
; first layer extrusion width = 0.60mm

; external perimeters extrusion width = 0.60mm
; perimeters extrusion width = 0.60mm
; infill extrusion width = 0.60mm
; solid infill extrusion width = 0.60mm
; top infill extrusion width = 0.60mm
; first layer extrusion width = 0.60mm

; external perimeters extrusion width = 0.60mm
; perimeters extrusion width = 0.60mm
; infill extrusion width = 0.60mm
; solid infill extrusion width = 0.60mm
; top infill extrusion width = 0.60mm
; first layer extrusion width = 0.60mm

; external perimeters extrusion width = 0.60mm
; perimeters extrusion width = 0.60mm
; infill extrusion width = 0.60mm
; solid infill extrusion width = 0.60mm
; top infill extrusion width = 0.60mm
; first layer extrusion width = 0.60mm

; external perimeters extrusion width = 0.60mm
; perimeters extrusion width = 0.60mm
; infill extrusion width = 0.60mm
; solid infill extrusion width = 0.60mm
; top infill extrusion width = 0.60mm
; first layer extrusion width = 0.60mm

; external perimeters extrusion width = 0.60mm
; perimeters extrusion width = 0.60mm
; infill extrusion width = 0.60mm
; solid infill extrusion width = 0.60mm
; top infill extrusion width = 0.60mm
; first layer extrusion width = 0.60mm

; external perimeters extrusion width = 0.60mm
; perimeters extrusion width = 0.60mm
; infill extrusion width = 0.60mm
; solid infill extrusion width = 0.60mm
; top infill extrusion width = 0.60mm
; first layer extrusion width = 0.60mm

; external perimeters extrusion width = 0.60mm
; perimeters extrusion width = 0.60mm
; infill extrusion width = 0.60mm
; solid infill extrusion width = 0.60mm
; top infill extrusion width = 0.60mm
; first layer extrusion width = 0.60mm

; external perimeters extrusion width = 0.60mm
; perimeters extrusion width = 0.60mm
; infill extrusion width = 0.60mm
; solid infill extrusion width = 0.60mm
; top infill extrusion width = 0.60mm
; first layer extrusion width = 0.60mm

; external perimeters extrusion width = 0.60mm
; perimeters extrusion width = 0.60mm
; infill extrusion width = 0.60mm
; solid infill extrusion width = 0.60mm
; top infill extrusion width = 0.60mm
; first layer extrusion width = 0.60mm

; external perimeters extrusion width = 0.60mm
; perimeters extrusion width = 0.60mm
; infill extrusion width = 0.60mm
; solid infill extrusion width = 0.60mm
; top infill extrusion width = 0.60mm
; first layer extrusion width = 0.60mm

; external perimeters extrusion width = 0.60mm
; perimeters extrusion width = 0.60mm
; infill extrusion width = 0.60mm
; solid infill extrusion width = 0.60mm
; top infill extrusion width = 0.60mm
; first layer extrusion width = 0.60mm

; external perimeters extrusion width = 0.60mm
; perimeters extrusion width = 0.60mm
; infill extrusion width = 0.60mm
; solid infill extrusion width = 0.60mm
; top infill extrusion width = 0.60mm
; first layer extrusion width = 0.60mm

; external perimeters extrusion width = 0.60mm
; perimeters extrusion width = 0.60mm
; infill extrusion width = 0.60mm
; solid infill extrusion width = 0.60mm
; top infill extrusion width = 0.60mm
; first layer extrusion width = 0.60mm

; external perimeters extrusion width = 0.60mm
; perimeters extrusion width = 0.60mm
; infill extrusion width = 0.60mm
; solid infill extrusion width = 0.60mm
; top infill extrusion width = 0.60mm
; first layer extrusion width = 0.60mm

; external perimeters extrusion width = 0.60mm
; perimeters extrusion width = 0.60mm
; infill extrusion width = 0.60mm
; solid infill extrusion width = 0.60mm
; top infill extrusion width = 0.60mm
; first layer extrusion width = 0.60mm

; external perimeters extrusion width = 0.60mm
; perimeters extrusion width = 0.60mm
; infill extrusion width = 0.60mm
; solid infill extrusion width = 0.60mm
; top infill extrusion width = 0.60mm
; first layer extrusion width = 0.60mm

; external perimeters extrusion width = 0.60mm
; perimeters extrusion width = 0.60mm
; infill extrusion width = 0.60mm
; solid infill extrusion width = 0.60mm
; top infill extrusion width = 0.60mm
; first layer extrusion width = 0.60mm

; external perimeters extrusion width = 0.60mm
; perimeters extrusion width = 0.60mm
; infill extrusion width = 0.60mm
; solid infill extrusion width = 0.60mm
; top infill extrusion width = 0.60mm
; first layer extrusion width = 0.60mm

; external perimeters extrusion width = 0.60mm
; perimeters extrusion width = 0.60mm
; infill extrusion width = 0.60mm
; solid infill extrusion width = 0.60mm
; top infill extrusion width = 0.60mm
; first layer extrusion width = 0.60mm

; external perimeters extrusion width = 0.60mm
; perimeters extrusion width = 0.60mm
; infill extrusion width = 0.60mm
; solid infill extrusion width = 0.60mm
; top infill extrusion width = 0.60mm
; first layer extrusion width = 0.60mm

; external perimeters extrusion width = 0.60mm
; perimeters extrusion width = 0.60mm
; infill extrusion width = 0.60mm
; solid infill extrusion width = 0.60mm
; top infill extrusion width = 0.60mm
; first layer extrusion width = 0.60mm

; external perimeters extrusion width = 0.60mm
; perimeters extrusion width = 0.60mm
; infill extrusion width = 0.60mm
; solid infill extrusion width = 0.60mm
; top infill extrusion width = 0.60mm
; first layer extrusion width = 0.60mm

; external perimeters extrusion width = 0.60mm
; perimeters extrusion width = 0.60mm
; infill extrusion width = 0.60mm
; solid infill extrusion width = 0.60mm
; top infill extrusion width = 0.60mm
; first layer extrusion width = 0.60mm

; external perimeters extrusion width = 0.60mm
; perimeters extrusion width = 0.60mm
; infill extrusion width = 0.60mm
; solid infill extrusion width = 0.60mm
; top infill extrusion width = 0.60mm
; first layer extrusion width = 0.60mm

; object:{"name":"retraction_calibration","id":"retraction_calibration id:0 copy 0","object_center":[150.006532,110.598051,0.000000],"boundingbox_center":[150.006532,110.598051,7.700000],"boundingbox_size":[26.805401,26.806400,15.400000]}
EXCLUDE_OBJECT_DEFINE NAME=retraction_calibration_id_0_copy_0 CENTER=150.006532,110.598051 POLYGON=[[136.60,99.97],[136.62,99.69],[136.63,99.68],[136.67,99.39],[136.75,99.12],[136.75,99.11],[136.85,98.86],[136.97,98.61],[136.99,98.58],[137.12,98.37],[137.29,98.16],[137.29,98.16],[137.48,97.96],[137.66,97.80],[137.71,97.76],[137.97,97.59],[138.09,97.52],[138.24,97.45],[138.53,97.34],[138.57,97.33],[138.84,97.26],[139.09,97.22],[139.15,97.21],[139.48,97.19],[160.69,97.20],[160.92,97.22],[160.98,97.22],[161.26,97.28],[161.50,97.34],[161.53,97.36],[161.79,97.46],[162.02,97.58],[162.04,97.59],[162.27,97.74],[162.32,97.78],[162.44,97.87],[162.59,98.01],[162.79,98.24],[162.97,98.49],[162.98,98.51],[163.12,98.76],[163.24,99.05],[163.25,99.08],[163.33,99.35],[163.39,99.66],[163.39,99.72],[163.41,99.98],[163.41,121.28],[163.39,121.51],[163.38,121.57],[163.33,121.85],[163.26,122.09],[163.25,122.13],[163.14,122.39],[163.02,122.62],[163.01,122.63],[162.86,122.86],[162.83,122.91],[162.73,123.03],[162.59,123.18],[162.36,123.39],[162.11,123.56],[162.10,123.57],[161.84,123.71],[161.56,123.83],[161.52,123.84],[161.26,123.92],[160.94,123.98],[160.89,123.98],[160.62,124.00],[139.70,123.99],[139.14,123.99],[139.09,123.98],[138.56,123.87],[138.52,123.85],[138.03,123.64],[137.99,123.62],[137.60,123.35],[137.57,123.32],[137.24,122.98],[137.21,122.95],[136.95,122.55],[136.93,122.51],[136.75,122.07],[136.73,122.03],[136.63,121.56],[136.62,121.51],[136.61,121.02],[136.60,99.97]]
; object:{"name":"retraction_calibration","id":"retraction_calibration id:1 copy 0","object_center":[149.993454,189.401797,0.000000],"boundingbox_center":[149.993454,189.401797,7.700000],"boundingbox_size":[26.805401,26.806400,15.400000]}
EXCLUDE_OBJECT_DEFINE NAME=retraction_calibration_id_1_copy_0 CENTER=149.993454,189.401797 POLYGON=[[136.59,178.77],[136.61,178.49],[136.61,178.48],[136.66,178.20],[136.74,177.92],[136.74,177.91],[136.84,177.66],[136.96,177.41],[136.98,177.38],[137.11,177.18],[137.27,176.96],[137.28,176.96],[137.47,176.76],[137.65,176.61],[137.70,176.57],[137.96,176.40],[138.08,176.33],[138.23,176.25],[138.52,176.14],[138.56,176.13],[138.83,176.06],[139.08,176.02],[139.14,176.01],[139.46,176.00],[160.68,176.00],[160.91,176.02],[160.97,176.03],[161.25,176.08],[161.48,176.15],[161.52,176.16],[161.78,176.27],[162.01,176.38],[162.03,176.39],[162.26,176.55],[162.31,176.58],[162.42,176.68],[162.58,176.82],[162.78,177.05],[162.96,177.30],[162.97,177.31],[163.11,177.56],[163.23,177.85],[163.24,177.89],[163.32,178.15],[163.37,178.46],[163.38,178.52],[163.40,178.79],[163.39,200.09],[163.38,200.31],[163.37,200.38],[163.31,200.66],[163.25,200.89],[163.23,200.93],[163.13,201.19],[163.01,201.42],[163.00,201.44],[162.85,201.67],[162.81,201.72],[162.72,201.83],[162.58,201.99],[162.35,202.19],[162.10,202.37],[162.08,202.38],[161.83,202.52],[161.54,202.64],[161.51,202.65],[161.24,202.72],[160.93,202.78],[160.87,202.79],[160.61,202.80],[139.69,202.80],[139.13,202.79],[139.08,202.78],[138.55,202.67],[138.50,202.66],[138.01,202.44],[137.98,202.42],[137.59,202.15],[137.56,202.12],[137.23,201.78],[137.20,201.75],[136.94,201.36],[136.92,201.32],[136.73,200.88],[136.72,200.83],[136.62,200.36],[136.61,200.32],[136.59,199.83],[136.59,178.77]]
; plater:{"center":[149.999993,149.999924,0.000000],"boundingbox_center":[149.999993,149.999924,7.700000],"boundingbox_size":[26.818479,105.610146,15.400000]}

M107
;TYPE:Custom
START_PRINT EXTRUDER=245 BED=100
M107
G21 ; set units to millimeters
G90 ; use absolute coordinates
M83 ; use relative distances for extrusion
ACTIVATE_EXTRUDER EXTRUDER=extruder
; Filament gcode
FILAMENT_START MATERIAL=ASA COLOR=#CDFCFF VENDOR=OVETURE
SET_PRESSURE_ADVANCE ADVANCE=0.045
M104 S245 T0 ; set temperature
M109 S245 T0 ; set temperature and wait for it to be reached
M190 S100 ; set bed temperature and wait for it to be reached
;LAYER_CHANGE
;Z:0.2
;HEIGHT:0.2
G1 E-1 F3600
G1 Z0.2 F60000
G92 E0
M104 S250 T0 ; set temperature
; printing object retraction_calibration id:0 copy 0
EXCLUDE_OBJECT_START NAME=retraction_calibration_id_0_copy_0
M204 S1000
G1 X142.09 Y101.046
G1 E1 F3600
;TYPE:Internal perimeter
;WIDTH:0.599999
M107
G1 F2198.821
G1 X142.144 Y100.848 E.01091
G1 F2186.403
G1 X142.096 Y100.147 E.03744
G1 F2178.527
G1 X141.949 Y99.715 E.0243
G1 F2173.467
G1 X141.714 Y99.32 E.02445
G1 F2163.302
G1 X141.403 Y98.986 E.02431
G1 F2153.69
G1 X141.029 Y98.726 E.02429
G1 F2151.153
G1 X140.607 Y98.552 E.02429
G1 F2142.865
G1 X140.158 Y98.471 E.02429
G1 F2131.264
G1 X139.703 Y98.487 E.02429
G1 F2127.655
G1 X139.261 Y98.6 E.0243
G1 F2121.187
G1 X138.853 Y98.804 E.02429
G1 F2112.751
G1 X138.498 Y99.09 E.02429
G1 F2105.744
G1 X138.212 Y99.445 E.02429
G1 F2100.047
G1 X138.008 Y99.853 E.02429
G1 F2092.438
G1 X137.895 Y100.295 E.0243
G1 F2086.628
G1 X137.879 Y100.751 E.02429
G1 F2075.041
G1 X137.96 Y101.199 E.02429
G1 F2073.603
G1 X138.134 Y101.621 E.02429
G1 F2062.283
G1 X138.394 Y101.995 E.02429
G1 F2057.687
G1 X138.728 Y102.306 E.02431
G1 F2053.589
G1 X139.123 Y102.541 E.02445
G1 F2044.537
G1 X139.555 Y102.688 E.0243
G1 F2034.778
G1 X140.117 Y102.748 E.03013
G1 F2028.277
G1 X140.784 Y102.59 E.03649
G1 F2017.007
G1 X141.172 Y102.386 E.02337
G1 F2011.53
G1 X141.515 Y102.107 E.02356
G1 F2005.057
G1 X141.794 Y101.764 E.02356
G1 F1997.591
G1 X141.998 Y101.376 E.02337
G1 F1999.987
G1 X142.074 Y101.103 E.01505
M107
G1 X142.823 Y100.901 F60000
;TYPE:External perimeter
;WIDTH:0.503326
M107
G1 F2400
G1 X142.948 Y100.847 E0.00602
G1 X142.834 Y100.772 E0.00602
M107
;WIDTH:0.599999
M107
G1 X142.719 Y100.697 E0.00728
G1 X142.643 Y100.026 E0.03598
G1 X142.457 Y99.48 E0.03069
G1 X142.163 Y98.984 E0.03073
G1 X141.77 Y98.563 E0.03068
G1 X141.297 Y98.235 E0.03067
G1 X140.765 Y98.014 E0.03067
G1 X140.198 Y97.912 E0.03067
G1 X139.623 Y97.932 E0.03067
G1 X139.065 Y98.075 E0.03068
G1 X138.55 Y98.333 E0.03067
G1 X138.102 Y98.694 E0.03067
G1 X137.741 Y99.142 E0.03067
G1 X137.483 Y99.657 E0.03067
G1 X137.34 Y100.215 E0.03068
G1 X137.32 Y100.79 E0.03067
M107
M107
G1 X137.422 Y101.357 E0.03067
G1 X137.643 Y101.889 E0.03067
G1 X137.971 Y102.362 E0.03067
G1 X138.392 Y102.755 E0.03068
G1 X138.888 Y103.049 E0.03073
G1 X139.434 Y103.235 E0.03069
G1 X140.105 Y103.311 E0.03598
G1 X140.18 Y103.426 E0.00728
M107
;WIDTH:0.503328
M107
G1 X140.255 Y103.54 E0.00602
G1 X140.309 Y103.415 E0.00602
M107
;WIDTH:0.599999
M107
G1 X140.364 Y103.289 E0.00728
G1 X140.99 Y103.111 E0.03469
G1 X141.48 Y102.853 E0.02952
G1 X141.911 Y102.503 E0.02957
G1 X142.261 Y102.072 E0.02957
G1 X142.519 Y101.582 E0.02952
G1 X142.697 Y100.956 E0.03469
G1 X142.768 Y100.925 E0.00408
M107
;WIPE_START
M204 S4000
G1 X142.868 Y100.504 F60000
;WIPE_END
M204 S1000
G1 X142.948 Y100.847
;WIDTH:0.501663
M107
G1 F2400
G1 X145.028 Y100.848 E0.09123
M107
G1 E-1 F3600
G1 X145.033 Y100.647 F60000
G1 X147.005 Y101.424
G1 X147.506 Y101.439
G1 X152.507 Y101.439
G1 X153.008 Y101.424
G1 X154.857 Y100.65
G1 X154.94 Y100.648
G1 X154.945 Y100.85
G1 E1 F3600
;WIDTH:0.501732
M107
G1 F2400
G1 X157.065 Y100.847 E0.09299
M107
G1 X157.857 Y100.707 F60000
;TYPE:Internal perimeter
;WIDTH:0.599999
M107
G1 F1981.309
G1 X157.955 Y101.161 E.02472
G1 F1983.64
G1 X158.121 Y101.577 E.02389
G1 F1995.758
G1 X158.361 Y101.939 E.0231
G1 F1997.409
G1 X158.677 Y102.253 E.02375
G1 F2006.798
G1 X159.031 Y102.486 E.02256
G1 F2011.61
G1 X159.451 Y102.652 E.02406
G1 F2016.633
G1 X159.824 Y102.762 E.02073
G1 F2026.984
G1 X160.421 Y102.696 E.03197
G1 F2030.858
G1 X160.82 Y102.572 E.02228
G1 F2036.969
G1 X161.191 Y102.373 E.02245
G1 F2047.358
G1 X161.515 Y102.107 E.02231
G1 F2049.505
G1 X161.78 Y101.784 E.02228
G1 F2060.514
G1 X161.978 Y101.415 E.02228
G1 F2062.595
G1 X162.099 Y101.015 E.02228
G1 F2073.569
G1 X162.14 Y100.601 E.02213
G1 F2069.849
G1 X162.093 Y100.155 E.02391
G1 F2065.402
G1 X161.955 Y99.731 E.02376
G1 F2063.078
G1 X161.732 Y99.344 E.02375
G1 F2050.456
G1 X161.434 Y99.013 E.02375
G1 F2046.07
G1 X161.073 Y98.751 E.02376
G1 F2037.382
G1 X160.666 Y98.57 E.02375
G1 F2036.05
G1 X160.229 Y98.477 E.02376
G1 F2025.844
G1 X159.783 Y98.477 E.02376
G1 F2018.406
G1 X159.347 Y98.57 E.02376
G1 F2010.958
