; generated by SuperSlicer 2.5.59.10 on 2024-06-05 at 11:40:45 UTC


;
;

;
;
; 

; external perimeters extrusion width = 0.60mm
; perimeters extrusion width = 0.60mm
; infill extrusion width = 0.60mm
; solid infill extrusion width = 0.60mm
; top infill extrusion width = 0.60mm
; support material extrusion width = 0.38mm
; first layer extrusion width = 0.60mm

; external perimeters extrusion width = 0.60mm
; perimeters extrusion width = 0.60mm
; infill extrusion width = 0.60mm
; solid infill extrusion width = 0.60mm
; top infill extrusion width = 0.60mm
; support material extrusion width = 0.38mm
; first layer extrusion width = 0.60mm

; object:{"name":"RTT9 ambi mag release lever 4","id":"RTT9 ambi mag release lever 4.17.23.step.STL id:0 copy 0","object_center":[157.650158,148.767215,0.000000],"boundingbox_center":[157.650158,148.767215,5.192816],"boundingbox_size":[24.697996,50.013589,10.385631]}
EXCLUDE_OBJECT_DEFINE NAME=RTT9_ambi_mag_release_lever_4_17_23_step_STL_id_0_copy_0 CENTER=157.650158,148.767215 POLYGON=[[145.30,125.16],[145.30,125.16],[147.58,123.83],[147.63,123.80],[147.69,123.78],[147.74,123.77],[147.76,123.77],[147.80,123.76],[147.86,123.76],[147.86,123.76],[147.88,123.76],[147.91,123.77],[147.97,123.78],[147.98,123.78],[148.01,123.79],[148.03,123.80],[148.08,123.82],[148.10,123.83],[148.13,123.85],[148.17,123.89],[148.19,123.91],[148.21,123.93],[148.22,123.95],[148.24,123.97],[148.27,124.01],[150.51,127.87],[163.76,151.60],[168.15,163.04],[169.95,167.74],[169.99,167.86],[170.00,167.97],[170.00,167.99],[169.99,168.12],[169.96,168.25],[169.95,168.27],[169.91,168.38],[169.88,168.42],[169.83,168.49],[169.79,168.55],[166.73,172.47],[166.46,172.62],[166.39,172.67],[166.08,172.83],[165.76,172.99],[165.44,173.14],[165.12,173.27],[164.80,173.39],[164.49,173.49],[164.18,173.58],[163.88,173.65],[163.59,173.70],[163.31,173.74],[163.17,173.76],[163.04,173.77],[162.81,173.77],[162.69,173.77],[162.57,173.77],[162.46,173.76],[162.34,173.75],[162.23,173.74],[162.13,173.72],[162.03,173.70],[161.93,173.68],[161.84,173.65],[161.75,173.63],[161.66,173.59],[161.58,173.56],[161.50,173.52],[161.42,173.49],[161.35,173.44],[161.29,173.40],[161.22,173.35],[161.16,173.30],[161.10,173.25],[161.05,173.20],[161.00,173.14],[160.96,173.09],[160.91,173.03],[160.88,172.97],[158.36,168.65],[156.61,165.64],[156.52,165.47],[156.47,165.38],[156.42,165.25],[156.37,165.12],[156.34,165.03],[152.76,152.75],[145.30,125.16]]
; object:{"name":"RTT9 ambi mag catch 4","id":"RTT9 ambi mag catch 4.17.23.step.STL id:1 copy 0","object_center":[140.979169,153.256790,0.000000],"boundingbox_center":[140.979169,153.256790,5.687814],"boundingbox_size":[21.957654,45.966315,11.375628]}
EXCLUDE_OBJECT_DEFINE NAME=RTT9_ambi_mag_catch_4_17_23_step_STL_id_1_copy_0 CENTER=140.979169,153.256790 POLYGON=[[130.00,168.61],[130.00,168.60],[131.63,132.85],[131.64,132.82],[131.64,132.81],[131.64,132.80],[131.65,132.77],[131.65,132.76],[131.65,132.75],[131.66,132.73],[131.66,132.73],[131.67,132.70],[131.67,132.70],[131.69,132.66],[131.72,132.63],[131.73,132.61],[131.76,132.58],[131.77,132.57],[131.80,132.55],[131.80,132.55],[131.83,132.53],[131.84,132.52],[131.87,132.51],[131.87,132.51],[131.89,132.50],[131.89,132.50],[131.90,132.50],[131.91,132.49],[131.94,132.48],[141.11,130.28],[141.14,130.28],[141.14,130.28],[141.16,130.28],[141.16,130.28],[141.17,130.27],[141.18,130.27],[141.21,130.27],[141.22,130.27],[141.25,130.28],[141.26,130.28],[141.29,130.28],[141.30,130.29],[141.31,130.29],[141.31,130.29],[141.31,130.29],[141.34,130.30],[141.36,130.31],[141.37,130.31],[141.41,130.33],[141.42,130.34],[141.44,130.35],[141.46,130.37],[141.46,130.37],[141.49,130.40],[141.50,130.41],[141.52,130.44],[141.52,130.44],[141.54,130.47],[141.55,130.48],[141.56,130.51],[141.56,130.51],[141.57,130.51],[141.57,130.53],[141.57,130.53],[141.58,130.54],[141.59,130.58],[141.63,130.77],[151.95,173.75],[151.96,173.79],[151.96,173.81],[151.96,173.82],[151.95,173.84],[151.95,173.86],[151.95,173.86],[151.94,173.89],[151.94,173.89],[151.93,173.90],[151.92,173.92],[151.91,173.93],[151.90,173.95],[151.89,173.95],[151.87,173.97],[151.85,173.98],[151.85,173.98],[151.84,173.98],[151.82,173.99],[151.81,173.99],[142.48,176.23],[142.47,176.23],[142.45,176.24],[142.44,176.24],[142.43,176.24],[142.42,176.24],[131.85,175.69],[131.83,175.69],[131.82,175.69],[131.82,175.69],[131.80,175.69],[131.78,175.68],[131.77,175.68],[131.75,175.66],[131.75,175.66],[131.75,175.66],[131.73,175.65],[131.72,175.64],[131.71,175.63],[131.71,175.63],[131.69,175.61],[131.69,175.61],[131.68,175.59],[131.68,175.59],[131.67,175.58],[131.67,175.57],[131.66,175.55],[131.66,175.54],[130.40,170.30],[130.01,168.66],[130.00,168.62],[130.00,168.61]]
; plater:{"center":[149.999749,150.000184,0.000000],"boundingbox_center":[149.999749,150.000184,5.687814],"boundingbox_size":[39.998815,52.479527,11.375628]}

M107
;TYPE:Custom
START_PRINT EXTRUDER=245 BED=100
M107
G21 ; set units to millimeters
G90 ; use absolute coordinates
M83 ; use relative distances for extrusion
ACTIVATE_EXTRUDER EXTRUDER=extruder
; Filament gcode
FILAMENT_START MATERIAL=ASA COLOR=#CDFCFF VENDOR=OVETURE
SET_PRESSURE_ADVANCE ADVANCE=0.045
M104 S245 T0 ; set temperature
M109 S245 T0 ; set temperature and wait for it to be reached
M190 S100 ; set bed temperature and wait for it to be reached
;LAYER_CHANGE
;Z:0.24
;HEIGHT:0.24
G1 E-1 F3600
G1 Z0.24 F60000
G92 E0
G1 X121.915 Y121.969
G1 E1 F3600
;TYPE:Skirt
;WIDTH:0.6
M107
G1 F3000
M204 S1500
G1 F2999.915
G1 X124.069 Y120.33 E.17036
G1 X127.362 Y118.794 E0.22869
G1 X130.485 Y118.037 Z.24 E.20225
G1 X133.608 Y117.281 Z.24 E.20225
G1 X134.879 Y115.713 E0.12703
G1 X136.705 Y114.067 E.15476
G1 X139.679 Y112.337 Z.24 E.21656
G1 X142.653 Y110.606 Z.24 E.21655
G1 X145.878 Y109.655 E.2116
G1 X147.604 Y109.483 E.10916
G1 X149.351 Y109.496 E0.10994
G1 X152.528 Y110.123 E.20382
G1 X155.442 Y111.35 E.19901
G1 X158.035 Y113.215 E0.20101
G1 X160.174 Y115.65 E.20399
G1 X161.045 Y117.154 E.1094
G1 F2998.279
G1 X161.249 Y117.454 E.02285
G1 X161.863 Y118.504 E0.07657
G1 F2999.726
G1 X161.988 Y118.753 E.01754
G1 X162.315 Y119.258 E.03787
G1 F2998.543
G1 X162.648 Y119.898 E.04541
G1 X162.951 Y120.355 E0.03448
G1 X163.648 Y121.638 E.09189
G1 F2997.613
G1 X164.491 Y123.827 E.14768
G1 X164.701 Y124.7 E0.05646
G1 X167.058 Y128.752 Z.24 E.29504
G1 F2998.009
G1 X169.416 Y132.804 Z.24 E.29504
G1 X171.773 Y136.855 Z.24 E.29504
G1 F2999.147
G1 X174.131 Y140.907 Z.24 E.29504
G1 F3000
G1 X176.488 Y144.959 Z.24 E.29504
G1 F2999.931
G1 X178.15 Y149.271 Z.24 E.29086
G1 X179.811 Y153.583 Z.24 E.29086
G1 X181.473 Y157.896 Z.24 E.29086
G1 X183.134 Y162.208 Z.24 E.29086
G1 X183.574 Y164.42 E0.14193
G1 X183.683 Y166.676 E.14216
G1 X183.067 Y170.309 E0.23191
G1 X182.311 Y172.343 E.13657
G1 X180.629 Y175.27 E.21248
G1 X179.052 Y177.076 E.15093
G1 X177.743 Y178.23 E0.10981
G1 X176.329 Y179.215 E.10846
G1 X173.757 Y180.708 Z.24 E.18722
G1 X171.184 Y182.202 Z.24 E.18722
G1 X169.473 Y183.026 E.11952
G1 X167.719 Y183.687 E0.11795
G1 X165.746 Y184.227 E.12876
G1 X163.727 Y184.571 E0.12888
G1 F2989.65
G1 X161.714 Y184.707 E.12704
G1 X161.567 Y184.704 E0.0092
G1 F2991.119
G1 X159.879 Y186.054 E.13605
G1 F2999.152
G1 X158.148 Y187.036 E.12529
G1 X156.329 Y187.781 E0.1237
G1 X152.143 Y188.753 Z.24 E.27044
G1 X147.958 Y189.725 Z.24 E.27044
G1 F3000
G1 X143.772 Y190.697 Z.24 E.27044
G1 F2999.375
G1 X141.055 Y190.689 E.17103
G1 X138.484 Y190.22 E0.16447
G1 X136.62 Y189.459 E.12672
G1 X134.058 Y190.038 E.16532
G1 X131.229 Y190.197 E0.17832
G1 X127.884 Y189.672 E.2131
G1 X125.328 Y188.692 E.17231
G1 X123.481 Y187.602 E.13498
G1 X121.944 Y186.394 E.12303
G1 X119.804 Y183.961 E0.20391
G1 X118.632 Y181.973 E.14523
G1 X117.768 Y179.796 E.14744
G1 X115.659 Y170.932 E0.57344
G1 X115.487 Y167.929 E.18932
G1 X115.838 Y165.344 E.1642
G1 X116.628 Y162.872 E.16336
G1 X117.77 Y160.688 E0.15508
G1 X119.398 Y158.573 E.16797
G1 X122.206 Y155.902 E.24393
G1 X117.386 Y135.799 E1.30112
G1 X117.122 Y132.313 E.22005
G1 X117.665 Y128.847 E.22081
G1 X118.675 Y126.248 E0.17549
G1 F2998.86
G1 X120.134 Y123.905 E.17376
G1 X121.874 Y122.013 E0.16174
M107
M204 S8000
G1 X122.277 Y122.385 F60000
M107
G1 F3000
M204 S1500
G1 F2967.886
G1 X122.301 Y122.359 E.00225
G1 X124.377 Y120.784 E0.16397
G1 F2999.457
G1 X127.517 Y119.32 E.21806
G1 X133.949 Y117.763 E0.41649
G1 F2989.443
G1 X134.029 Y117.633 E.00964
G1 X135.262 Y116.106 E0.1235
G1 F2998.583
G1 X137.051 Y114.494 E.15161
G1 X142.841 Y111.123 E0.42162
G1 X145.958 Y110.199 E.20466
G1 X147.644 Y110.03 E0.1066
G1 X149.32 Y110.045 E.10552
G1 F2999.41
G1 X152.393 Y110.655 E.19721
G1 X155.2 Y111.843 E0.19179
G1 F2998.775
G1 X157.688 Y113.641 E.19325
G1 X159.712 Y115.948 E0.19315
G1 F2997.208
G1 X160.58 Y117.446 E.10897
G1 X160.78 Y117.74 E0.02234
G1 F2991.162
G1 X161.385 Y118.773 E.0754
G1 X161.511 Y119.026 E0.01774
G1 F2987.888
G1 X161.847 Y119.545 E.03899
G1 X162.175 Y120.178 E0.04481
G1 F2996.948
G1 X162.476 Y120.628 E.03408
G1 X163.143 Y121.852 E0.08771
G1 F2999.174
G1 X163.973 Y124.007 E.14537
G1 X164.186 Y124.905 E.05809
G1 X166.546 Y128.959 Z.24 E.29524
G1 X168.905 Y133.013 Z.24 E.29524
G1 X171.265 Y137.068 Z.24 E.29524
G1 X173.624 Y141.122 Z.24 E.29524
G1 X175.984 Y145.176 Z.24 E.29524
G1 X177.638 Y149.467 Z.24 E.28942
G1 X179.292 Y153.758 Z.24 E.28942
G1 X180.947 Y158.048 Z.24 E.28942
G1 X182.601 Y162.339 Z.24 E.28942
G1 X183.028 Y164.467 E.13659
G1 X183.134 Y166.673 E0.13898
G1 X182.531 Y170.191 E.22468
G1 X181.824 Y172.09 E0.12751
G1 X180.198 Y174.93 E.20598
G1 X178.675 Y176.677 E.14586
G1 X177.416 Y177.789 E0.10571
G1 F2998.281
G1 X176.025 Y178.758 E.10675
G1 F2999.844
G1 X173.471 Y180.24 Z.24 E.18582
G1 X170.918 Y181.722 Z.24 E.18582
G1 X169.268 Y182.517 E0.11525
G1 X167.562 Y183.161 E.11477
G1 X165.64 Y183.688 E0.12542
G1 X163.677 Y184.025 E.12538
G1 F2996.383
G1 X161.69 Y184.159 E.12534
G1 X161.381 Y184.15 E0.01941
G1 X159.589 Y185.588 E.14462
G1 F2998.695
G1 X157.924 Y186.535 E.12059
G1 X156.141 Y187.265 E0.12121
G1 F2999.03
G1 X152.008 Y188.226 Z.24 E.26708
G1 X147.874 Y189.188 Z.24 E.26708
G1 F3000
G1 X143.741 Y190.149 Z.24 E.26708
G1 F2999.712
G1 X141.129 Y190.145 E.16442
G1 X138.611 Y189.686 E.16111
G1 X136.668 Y188.886 E0.13223
G1 X134.004 Y189.491 E.17194
G1 X131.228 Y189.647 E.17503
G1 X127.999 Y189.135 E.20577
G1 X125.547 Y188.188 E0.16543
G1 X123.805 Y187.159 E.12735
G1 X122.339 Y186.012 E.11715
G1 X120.263 Y183.66 E0.19741
G1 X119.115 Y181.713 E.14224
G1 F2998.961
G1 X118.285 Y179.613 E.14216
G1 F2999.94
G1 X117.242 Y175.221 Z.24 E.28411
G1 X116.199 Y170.829 Z.24 E.28411
G1 X116.034 Y167.976 E.17985
G1 X116.368 Y165.487 E0.15804
G1 X117.125 Y163.104 E.1574
G1 X118.219 Y161.004 E.14905
G1 X119.82 Y158.925 E0.16512
G1 X122.582 Y156.301 E.23979
G1 F2998.79
G1 X122.824 Y156.128 E.01873
G1 X117.924 Y135.692 E1.32266
G1 F2999.99
G1 X117.669 Y132.365 E.21001
G1 X118.187 Y129.017 E.21326
G1 X119.154 Y126.516 E0.16877
G1 X120.586 Y124.217 E.17051
G1 F2989.746
G1 X122.236 Y122.429 E.1531
M107
M204 S8000
G1 X122.638 Y122.802 F60000
M107
G1 F3000
M204 S1500
G1 X122.687 Y122.749 E0.00451
G1 F2989.772
G1 X124.685 Y121.239 E.15759
G1 F2999.5
G1 X127.673 Y119.847 E.20748
G1 F2998.917
G1 X130.988 Y119.044 Z.24 E.21467
G1 F2995.669
G1 X134.303 Y118.242 Z.24 E.21467
G1 X134.469 Y117.961 E0.02051
G1 F2996.436
G1 X135.645 Y116.499 E.11813
G1 X137.398 Y114.92 E0.14845
G1 F2999.425
G1 X140.214 Y113.279 Z.24 E.20509
G1 F3000
G1 X143.029 Y111.639 Z.24 E.20509
G1 F2998.986
G1 X146.039 Y110.742 E.19772
G1 X147.654 Y110.579 E0.10214
G1 X149.289 Y110.593 E.10294
G1 X152.258 Y111.188 E0.19056
G1 F2999.967
G1 X154.957 Y112.335 E.18456
G1 X157.341 Y114.067 E.18549
G1 X159.251 Y116.246 E.18236
G1 X160.116 Y117.739 E0.10858
G1 F2994.99
G1 X160.311 Y118.025 E.02182
G1 X160.907 Y119.042 E0.07418
G1 F2998.269
G1 X161.033 Y119.297 E.01791
G1 F2999.524
G1 X161.38 Y119.832 E.04013
G1 X161.702 Y120.457 E0.04423
G1 F2994.75
G1 X162 Y120.902 E.03375
G1 X162.638 Y122.066 E0.08349
G1 F2999.037
G1 X163.454 Y124.187 E.14303
G1 F2998.068
G1 X163.67 Y125.11 E.0597
G1 F2999.992
G1 X166.032 Y129.167 Z.24 E.29545
G1 X168.394 Y133.224 Z.24 E.29546
G1 X170.756 Y137.28 Z.24 E.29545
G1 X173.118 Y141.337 Z.24 E.29546
G1 X175.48 Y145.394 Z.24 E.29545
G1 X177.127 Y149.663 Z.24 E.28798
G1 X178.774 Y153.932 Z.24 E.28798
G1 X180.421 Y158.201 Z.24 E.28798
G1 X182.068 Y162.47 Z.24 E.28798
G1 X182.486 Y164.555 E0.13381
G1 F2998.724
G1 X182.585 Y166.668 E.13318
G1 F2999.904
G1 X181.995 Y170.072 E.21744
G1 X181.337 Y171.837 E.11855
G1 X179.766 Y174.59 E.19948
G1 X178.298 Y176.278 E0.14076
G1 F2998.582
G1 X177.065 Y177.367 E.10357
G1 X175.721 Y178.302 E0.10304
G1 F2999.765
G1 X173.195 Y179.768 Z.24 E.18378
G1 F3000
G1 X170.67 Y181.233 Z.24 E.18378
G1 F2999.271
G1 X169.063 Y182.008 E.1123
G1 X167.38 Y182.644 E0.1132
G1 X165.508 Y183.156 E.12214
G1 X163.598 Y183.482 E.12196
G1 F2998.719
G1 X161.667 Y183.61 E.12184
G1 F2999.826
G1 X161.196 Y183.595 E.02965
G1 X159.298 Y185.122 E0.15326
G1 F2998.43
G1 X157.668 Y186.05 E.11808
G1 X155.954 Y186.749 E0.11648
G1 F2999.432
G1 X151.873 Y187.699 Z.24 E.26375
G1 X147.791 Y188.65 Z.24 E.26376
G1 X143.71 Y189.6 Z.24 E.26375
G1 X141.203 Y189.601 E0.15778
G1 X138.738 Y189.152 E.1577
G1 X136.717 Y188.312 E.13776
G1 X133.95 Y188.945 E0.17861
G1 X131.226 Y189.098 E.17173
G1 X128.169 Y188.613 E0.19481
G1 F2998.81
G1 X125.766 Y187.685 E.16217
G1 F2999.881
G1 X124.128 Y186.715 E.11978
G1 X122.732 Y185.629 E0.11128
G1 F2998.027
G1 X120.723 Y183.359 E.19085
G1 X119.599 Y181.453 E0.13922
G1 F2999.117
G1 X118.803 Y179.43 E.13685
G1 X117.771 Y175.078 Z.24 E.28152
G1 X116.738 Y170.726 Z.24 E.28152
G1 X116.581 Y168.022 E0.17043
G1 F2998.739
G1 X116.898 Y165.63 E.15189
G1 X117.623 Y163.335 E0.15144
G1 X118.669 Y161.319 E.14297
G1 X120.241 Y159.276 E0.16223
G1 F2999.429
G1 X122.945 Y156.713 E.23448
G1 X123.445 Y156.363 E0.0384
G1 F2998.959
G1 X122.449 Y152.208 Z.24 E.26896
G1 F2999.19
G1 X121.452 Y148.052 Z.24 E.26895
G1 X120.456 Y143.897 Z.24 E.26896
G1 X119.459 Y139.741 Z.24 E.26895
G1 F3000
G1 X118.463 Y135.586 Z.24 E.26896
G1 F2999.725
G1 X118.218 Y132.356 E.20388
G1 X118.724 Y129.131 E0.20543
G1 X119.656 Y126.739 E.16158
G1 X121.038 Y124.529 E0.16403
G1 F2996.926
G1 X122.598 Y122.846 E.14446
M107
M204 S8000
G1 X122.999 Y123.219 F60000
M107
G1 F3000
M204 S1500
G1 X123.072 Y123.14 E0.00676
G1 F2997.832
G1 X124.992 Y121.695 E.15123
G1 F2999.166
G1 X127.828 Y120.374 E.19695
G1 X134.66 Y118.72 E0.44239
G1 F2998.268
G1 X134.909 Y118.289 E.03134
G1 X136.059 Y116.86 E0.11542
G1 X137.743 Y115.347 E.14252
G1 X143.217 Y112.155 E0.39879
G1 F2999.264
G1 X146.12 Y111.285 E.19075
G1 X147.694 Y111.126 E0.09954
G1 X149.258 Y111.141 E.09845
G1 X152.122 Y111.72 E0.18389
G1 X154.712 Y112.827 E.17731
G1 X156.993 Y114.492 E0.17772
G1 X158.82 Y116.586 E.17492
G1 F2997.472
G1 X159.651 Y118.031 E.10491
G1 X159.843 Y118.311 E0.02133
G1 X160.429 Y119.311 E.07293
G1 F2991.513
G1 X160.555 Y119.568 E.01806
G1 X160.912 Y120.119 E0.0413
G1 F2997.888
G1 X161.229 Y120.736 E.04368
G1 F2999.762
G1 X161.525 Y121.177 E.03343
G1 X162.148 Y122.313 E0.08153
G1 X162.935 Y124.365 E.13834
G1 X163.155 Y125.314 E.06132
G1 X165.523 Y129.381 Z.24 E.29622
G1 X167.891 Y133.449 Z.24 E.29623
G1 X170.259 Y137.516 Z.24 E.29622
G1 X172.627 Y141.584 Z.24 E.29623
G1 X174.995 Y145.651 Z.24 E.29622
G1 X176.63 Y149.889 Z.24 E.28586
G1 X178.264 Y154.126 Z.24 E.28586
G1 X179.899 Y158.363 Z.24 E.28586
G1 X181.534 Y162.601 Z.24 E.28586
G1 X181.939 Y164.601 E.12841
G1 X182.035 Y166.664 E0.12996
G1 X181.459 Y169.953 E.21017
G1 X180.849 Y171.585 E.10968
G1 X179.334 Y174.251 E0.19299
G1 X177.922 Y175.879 E.13563
G1 X176.714 Y176.946 E0.10142
G1 X175.417 Y177.845 E.09931
G1 X172.919 Y179.294 Z.24 E.18175
G1 F2998.919
G1 X170.422 Y180.743 Z.24 E.18175
G1 X168.835 Y181.509 E0.11088
G1 X167.199 Y182.126 E.11008
G1 F2999.884
G1 X165.377 Y182.623 E.11886
G1 X163.52 Y182.939 E0.11854
G1 X161.644 Y183.062 E.11832
G1 F2994.442
G1 X160.966 Y183.039 E.04273
G1 X160.778 Y183.239 E0.01724
G1 F2995.615
G1 X159.008 Y184.656 E.14275
