; generated by SuperSlicer 2.5.59.10 on 2024-06-02 at 20:44:31 UTC


;
;

;
;
; 

; external perimeters extrusion width = 0.60mm
; perimeters extrusion width = 0.60mm
; infill extrusion width = 0.60mm
; solid infill extrusion width = 0.60mm
; top infill extrusion width = 0.60mm
; support material extrusion width = 0.38mm
; first layer extrusion width = 0.60mm

; object:{"name":"Shape-Box","id":"Shape-Box id:0 copy 0","object_center":[150.000000,150.000000,0.000000],"boundingbox_center":[150.000000,150.000000,0.120000],"boundingbox_size":[200.000000,200.000000,0.240000]}
EXCLUDE_OBJECT_DEFINE NAME=Shape_Box_id_0_copy_0 CENTER=150.000000,150.000000 POLYGON=[[50.00,50.00],[250.00,50.00],[250.00,250.00],[50.00,250.00],[50.00,50.00]]
; plater:{"center":[150.000000,150.000000,0.000000],"boundingbox_center":[150.000000,150.000000,0.120000],"boundingbox_size":[200.000000,200.000000,0.240000]}

M107
;TYPE:Custom
START_PRINT EXTRUDER=250 BED=100
M107
G21 ; set units to millimeters
G90 ; use absolute coordinates
M83 ; use relative distances for extrusion
; Filament gcode
FILAMENT_START MATERIAL=ASA COLOR=#368900 VENDOR=123-3D
SET_PRESSURE_ADVANCE ADVANCE=0.062
M104 S250 ; set temperature
M109 S250 ; set temperature and wait for it to be reached
M190 S100 ; set bed temperature and wait for it to be reached
;LAYER_CHANGE
;Z:0.24
;HEIGHT:0.24
G1 E-1 F3600
G1 Z0.24 F60000
G92 E0
M204 S750
G1 X46.502 Y46.915
G1 E1 F3600
;TYPE:Skirt
;WIDTH:0.6
M107
G1 F2400
G1 X47.04 Y46.382 E0.04143
G1 F2398.426
G1 X47.767 Y45.877 E.04846
G1 X48.652 Y45.51 E0.05242
G1 X49.568 Y45.343 E.05099
G1 F2400
G1 X110.094 Y45.345 Z.24 E3.31254
G1 F2399.997
G1 X114.936 Y45.345 Z.24 E.26497
G1 X119.777 Y45.345 Z.24 E.26497
G1 X124.619 Y45.345 Z.24 E.26497
G1 X129.46 Y45.345 Z.24 E.26497
G1 X134.301 Y45.345 Z.24 E.26497
G1 X139.143 Y45.345 Z.24 E.26497
G1 X143.984 Y45.345 Z.24 E.26497
G1 X148.826 Y45.345 Z.24 E.26497
G1 X153.667 Y45.346 Z.24 E.26497
G1 X158.509 Y45.346 Z.24 E.26497
G1 X163.35 Y45.346 Z.24 E.26497
G1 X168.192 Y45.346 Z.24 E.26497
G1 X173.033 Y45.346 Z.24 E.26497
G1 X177.875 Y45.346 Z.24 E.26497
G1 X182.716 Y45.346 Z.24 E.26497
G1 X187.558 Y45.346 Z.24 E.26497
G1 X192.399 Y45.347 Z.24 E.26497
G1 X197.241 Y45.347 Z.24 E.26497
G1 X202.082 Y45.347 Z.24 E.26497
G1 X206.924 Y45.347 Z.24 E.26497
G1 X211.765 Y45.347 Z.24 E.26497
G1 X216.607 Y45.347 Z.24 E.26497
G1 X221.448 Y45.347 Z.24 E.26497
G1 X226.29 Y45.347 Z.24 E.26497
G1 X231.131 Y45.348 Z.24 E.26497
G1 X235.973 Y45.348 Z.24 E.26497
G1 X240.814 Y45.348 Z.24 E.26497
G1 X245.656 Y45.348 Z.24 E.26497
G1 X250.497 Y45.348 Z.24 E.26497
G1 X251.429 Y45.535 E0.05202
G1 X252.299 Y45.914 E.05195
G1 X252.966 Y46.388 E.04479
G1 X253.597 Y47.013 E.04861
G1 X254.083 Y47.698 E.04596
G1 X254.44 Y48.492 E0.04763
G1 F2398.272
G1 X254.657 Y49.566 E.06
G1 X254.657 Y250.427 E10.9929
G1 F2397.107
G1 X254.517 Y251.254 E.04595
G1 X254.208 Y252.068 E0.04763
G1 X253.602 Y252.981 E.06
G1 X252.96 Y253.618 E0.04945
G1 X252.233 Y254.123 E.04846
G1 X251.348 Y254.49 E0.05242
G1 F2398.647
G1 X250.432 Y254.657 E.05098
G1 X49.566 Y254.657 E10.99321
G1 X48.492 Y254.44 E.06
G1 X47.698 Y254.083 E0.04763
G1 F2399.452
G1 X47.013 Y253.597 E.04596
G1 X46.382 Y252.96 E0.04905
G1 F2398.559
G1 X45.877 Y252.233 E.04846
G1 X45.51 Y251.348 E0.05242
G1 X45.343 Y250.432 E.05098
G1 X45.343 Y49.573 E10.99281
G1 F2397.032
G1 X45.483 Y48.746 E.04595
G1 X45.792 Y47.932 E0.04763
G1 F2393.654
G1 X46.398 Y47.019 E.06
G1 X46.46 Y46.958 E0.00474
M107
G1 X46.847 Y47.345 F60000
M107
G1 F2395.202
G1 X47.375 Y46.817 E.04087
G1 F2399.138
G1 X48.007 Y46.371 E.04234
G1 X48.782 Y46.044 E0.04601
G1 F2397.579
G1 X49.593 Y45.891 E.0452
G1 X250.47 Y45.897 E10.99378
G1 F2399.873
G1 X251.237 Y46.05 E.04281
G1 F2398.659
G1 X252.053 Y46.405 E.04873
G1 X252.627 Y46.82 E0.03876
G1 F2397.403
G1 X253.192 Y47.384 E.04372
G1 X253.618 Y47.992 E0.0406
G1 X253.927 Y48.686 E.0416
G1 F2399.994
G1 X254.109 Y49.593 E.05063
G1 X254.109 Y250.403 E10.99011
G1 F2396.117
G1 X253.981 Y251.133 E.0406
G1 X253.707 Y251.843 E0.0416
G1 F2397.696
G1 X253.195 Y252.613 E.05063
G1 X252.625 Y253.183 E0.04412
G1 F2399.01
G1 X251.993 Y253.629 E.04234
G1 X251.218 Y253.956 E0.04601
G1 F2397.913
G1 X250.407 Y254.109 E.0452
G1 X49.593 Y254.109 E10.99032
G1 F2399.993
G1 X48.686 Y253.927 E.05063
G1 F2397.707
G1 X47.992 Y253.618 E.0416
G1 X47.384 Y253.192 E0.0406
G1 X46.817 Y252.625 E.04392
G1 F2399.161
G1 X46.371 Y251.993 E.04234
G1 X46.044 Y251.218 E0.04601
G1 F2397.913
G1 X45.891 Y250.407 E.0452
G1 X45.891 Y49.597 E10.99012
G1 F2396.149
G1 X46.019 Y48.867 E.0406
G1 X46.293 Y48.157 E0.0416
G1 X46.805 Y47.388 E.0506
M107
G1 X47.212 Y47.756 F60000
M107
G1 F2400
G1 X47.747 Y47.221 E0.04138
G1 F2399.146
G1 X48.251 Y46.863 E.03384
G1 F2397.21
G1 X48.915 Y46.577 E.0396
G1 X49.62 Y46.44 E0.03927
G1 X54.457 Y46.44 Z.24 E.26474
G1 X59.295 Y46.44 Z.24 E.26474
G1 X64.132 Y46.44 Z.24 E.26475
G1 F2398.005
G1 X68.969 Y46.44 Z.24 E.26474
G1 X73.807 Y46.441 Z.24 E.26474
G1 X78.644 Y46.441 Z.24 E.26474
G1 X83.481 Y46.441 Z.24 E.26474
G1 X88.318 Y46.441 Z.24 E.26474
G1 X93.156 Y46.441 Z.24 E.26475
G1 X97.993 Y46.441 Z.24 E.26474
G1 X102.83 Y46.441 Z.24 E.26474
G1 X107.668 Y46.441 Z.24 E.26474
G1 X112.505 Y46.442 Z.24 E.26474
G1 X117.342 Y46.442 Z.24 E.26474
G1 X122.18 Y46.442 Z.24 E.26475
G1 X127.017 Y46.442 Z.24 E.26474
G1 F2399.022
G1 X131.854 Y46.442 Z.24 E.26474
G1 X136.692 Y46.442 Z.24 E.26474
G1 X141.529 Y46.442 Z.24 E.26474
G1 X146.366 Y46.442 Z.24 E.26474
G1 X151.204 Y46.443 Z.24 E.26475
G1 X156.041 Y46.443 Z.24 E.26474
G1 X160.878 Y46.443 Z.24 E.26474
G1 X165.715 Y46.443 Z.24 E.26474
G1 X170.553 Y46.443 Z.24 E.26474
G1 X175.39 Y46.443 Z.24 E.26474
G1 X180.227 Y46.443 Z.24 E.26475
G1 X185.065 Y46.443 Z.24 E.26474
G1 F2400
G1 X250.442 Y46.445 Z.24 E3.57804
G1 F2399.704
G1 X251.097 Y46.581 E.03662
G1 F2397.531
G1 X251.804 Y46.895 E.04236
G1 X252.255 Y47.223 E0.03048
G1 X252.787 Y47.755 E.0412
G1 F2399.25
G1 X253.152 Y48.282 E.03511
G1 X253.412 Y48.878 E.0356
G1 X253.56 Y49.62 E.04141
G1 X253.56 Y250.378 E10.98729
G1 F2397.673
G1 X253.446 Y251.009 E.03511
G1 X253.208 Y251.615 E0.0356
G1 X252.788 Y252.244 E.04141
G1 X252.253 Y252.779 E0.04138
G1 F2399.162
G1 X251.749 Y253.137 E.03384
G1 F2397.168
G1 X251.085 Y253.423 E.0396
G1 X250.38 Y253.56 E0.03927
G1 X245.543 Y253.56 Z.24 E.26474
G1 X240.705 Y253.56 Z.24 E.26474
G1 X235.868 Y253.56 Z.24 E.26474
G1 X231.031 Y253.56 Z.24 E.26474
G1 F2398.077
G1 X226.194 Y253.56 Z.24 E.26474
G1 X221.356 Y253.56 Z.24 E.26474
G1 X216.519 Y253.56 Z.24 E.26474
G1 X211.682 Y253.56 Z.24 E.26475
G1 X206.844 Y253.56 Z.24 E.26474
G1 X202.007 Y253.56 Z.24 E.26474
G1 X197.17 Y253.56 Z.24 E.26474
G1 X192.332 Y253.56 Z.24 E.26474
G1 X187.495 Y253.56 Z.24 E.26474
G1 X182.658 Y253.56 Z.24 E.26474
G1 X177.821 Y253.56 Z.24 E.26474
G1 X172.983 Y253.56 Z.24 E.26474
G1 F2399.019
G1 X168.146 Y253.56 Z.24 E.26474
G1 X163.309 Y253.56 Z.24 E.26474
G1 X158.471 Y253.56 Z.24 E.26474
G1 X153.634 Y253.56 Z.24 E.26474
G1 X148.797 Y253.56 Z.24 E.26474
G1 X143.96 Y253.56 Z.24 E.26475
G1 X139.122 Y253.56 Z.24 E.26474
G1 X134.285 Y253.56 Z.24 E.26474
G1 X129.448 Y253.56 Z.24 E.26474
G1 X124.61 Y253.56 Z.24 E.26474
G1 X119.773 Y253.56 Z.24 E.26474
G1 X114.936 Y253.56 Z.24 E.26474
G1 F2400
G1 X49.62 Y253.56 Z.24 E3.57467
G1 F2399.899
G1 X48.878 Y253.412 E.04141
G1 X48.282 Y253.152 E.0356
G1 F2398.08
G1 X47.755 Y252.787 E.03511
G1 X47.221 Y252.253 E0.04131
G1 F2399.425
G1 X46.863 Y251.749 E.03384
G1 F2397.134
G1 X46.577 Y251.085 E.0396
G1 X46.44 Y250.38 E0.03927
G1 X46.44 Y245.543 Z.24 E.26474
G1 X46.44 Y240.705 Z.24 E.26474
G1 X46.44 Y235.868 Z.24 E.26474
G1 X46.44 Y231.031 Z.24 E.26474
G1 F2398.067
G1 X46.44 Y226.194 Z.24 E.26475
G1 X46.44 Y221.356 Z.24 E.26474
G1 X46.44 Y216.519 Z.24 E.26474
G1 X46.44 Y211.682 Z.24 E.26474
G1 X46.44 Y206.844 Z.24 E.26474
G1 X46.44 Y202.007 Z.24 E.26474
G1 X46.44 Y197.17 Z.24 E.26474
G1 X46.44 Y192.333 Z.24 E.26474
G1 X46.44 Y187.495 Z.24 E.26474
G1 X46.44 Y182.658 Z.24 E.26474
G1 X46.44 Y177.821 Z.24 E.26474
G1 X46.44 Y172.983 Z.24 E.26474
G1 F2399.013
G1 X46.44 Y168.146 Z.24 E.26474
G1 X46.44 Y163.309 Z.24 E.26474
G1 X46.44 Y158.472 Z.24 E.26474
G1 X46.44 Y153.634 Z.24 E.26476
G1 X46.44 Y148.797 Z.24 E.26474
G1 X46.44 Y143.96 Z.24 E.26474
G1 X46.44 Y139.122 Z.24 E.26474
G1 X46.44 Y134.285 Z.24 E.26474
G1 X46.44 Y129.448 Z.24 E.26474
G1 X46.44 Y124.611 Z.24 E.26474
G1 X46.44 Y119.773 Z.24 E.26474
G1 X46.44 Y114.936 Z.24 E.26474
G1 F2400
G1 X46.44 Y49.622 Z.24 E3.57458
G1 F2397.698
G1 X46.554 Y48.991 E.03511
G1 X46.792 Y48.385 E0.0356
G1 F2396.772
G1 X47.179 Y47.806 E.03813
M107
G1 X47.619 Y48.125 F60000
M107
G1 F2400
G1 X48.119 Y47.625 E0.03867
G1 F2394.873
G1 X48.498 Y47.354 E.02554
G1 F2399.282
G1 X49.053 Y47.109 E.0332
G1 X49.647 Y46.988 E0.03316
G1 F2398.614
G1 X54.484 Y46.988 Z.24 E.26474
G1 X59.321 Y46.988 Z.24 E.26474
G1 X64.159 Y46.988 Z.24 E.26474
G1 X68.996 Y46.989 Z.24 E.26474
G1 X73.833 Y46.989 Z.24 E.26472
G1 X78.67 Y46.989 Z.24 E.26474
G1 X83.508 Y46.989 Z.24 E.26474
G1 X88.345 Y46.989 Z.24 E.26474
G1 X93.182 Y46.989 Z.24 E.26474
G1 X98.019 Y46.989 Z.24 E.26474
G1 X102.857 Y46.99 Z.24 E.26474
G1 X107.694 Y46.99 Z.24 E.26474
G1 X112.531 Y46.99 Z.24 E.26474
G1 X117.368 Y46.99 Z.24 E.26474
G1 X122.206 Y46.99 Z.24 E.26472
G1 X127.043 Y46.99 Z.24 E.26474
G1 X131.88 Y46.99 Z.24 E.26474
G1 X136.717 Y46.991 Z.24 E.26474
G1 X141.555 Y46.991 Z.24 E.26474
G1 X146.392 Y46.991 Z.24 E.26474
G1 X151.229 Y46.991 Z.24 E.26474
G1 X156.066 Y46.991 Z.24 E.26474
G1 X160.904 Y46.991 Z.24 E.26474
G1 F2399
G1 X165.741 Y46.991 Z.24 E.26474
G1 X170.578 Y46.992 Z.24 E.26472
G1 X175.415 Y46.992 Z.24 E.26474
G1 X180.253 Y46.992 Z.24 E.26474
G1 X185.09 Y46.992 Z.24 E.26474
G1 X250.412 Y46.994 Z.24 E3.57501
G1 X250.952 Y47.111 E0.03023
G1 F2398.926
G1 X251.552 Y47.382 E.03604
G1 X251.881 Y47.625 E.02238
G1 X252.381 Y48.125 E0.03867
G1 X252.684 Y48.569 E.02943
G1 F2399.286
G1 X252.896 Y49.067 E.02963
G1 X253.012 Y49.647 E0.03237
G1 X253.012 Y54.488 Z.24 E.26492
G1 X253.012 Y59.329 Z.24 E.26494
G1 X253.012 Y64.169 Z.24 E.26492
G1 X253.012 Y69.01 Z.24 E.26494
G1 X253.012 Y73.851 Z.24 E.26492
G1 X253.012 Y78.692 Z.24 E.26494
G1 X253.012 Y83.532 Z.24 E.26492
G1 X253.012 Y88.373 Z.24 E.26494
G1 X253.012 Y93.214 Z.24 E.26492
G1 X253.012 Y98.055 Z.24 E.26492
G1 X253.012 Y102.895 Z.24 E.26494
G1 X253.012 Y107.736 Z.24 E.26492
G1 X253.012 Y112.577 Z.24 E.26494
G1 X253.012 Y117.418 Z.24 E.26492
G1 X253.012 Y122.259 Z.24 E.26494
G1 X253.012 Y127.099 Z.24 E.26492
G1 X253.012 Y131.94 Z.24 E.26494
G1 X253.012 Y136.781 Z.24 E.26492
G1 X253.012 Y141.622 Z.24 E.26494
G1 X253.012 Y146.462 Z.24 E.26492
G1 X253.012 Y151.303 Z.24 E.26492
G1 X253.012 Y156.144 Z.24 E.26494
G1 X253.012 Y160.985 Z.24 E.26492
G1 X253.012 Y165.826 Z.24 E.26494
G1 X253.012 Y170.666 Z.24 E.26492
G1 X253.012 Y175.507 Z.24 E.26494
G1 X253.012 Y180.348 Z.24 E.26492
G1 X253.012 Y185.189 Z.24 E.26494
G1 F2400
G1 X253.012 Y250.353 Z.24 E3.56636
G1 F2398.789
G1 X252.912 Y250.881 E.02943
G1 X252.71 Y251.383 E.02963
G1 X252.381 Y251.875 E0.03237
G1 F2399.97
G1 X251.881 Y252.375 E.03867
G1 F2394.85
G1 X251.502 Y252.646 E.02554
G1 F2399.261
G1 X250.947 Y252.891 E.0332
G1 X250.353 Y253.012 E0.03316
G1 F2398.593
G1 X245.515 Y253.012 Z.24 E.26477
G1 X240.677 Y253.012 Z.24 E.26477
G1 X235.839 Y253.012 Z.24 E.26479
G1 X231.001 Y253.012 Z.24 E.26477
G1 X226.163 Y253.012 Z.24 E.26477
G1 X221.326 Y253.012 Z.24 E.26477
G1 X216.488 Y253.012 Z.24 E.26477
G1 X211.65 Y253.012 Z.24 E.26479
G1 X206.812 Y253.012 Z.24 E.26477
G1 X201.974 Y253.012 Z.24 E.26477
G1 X197.136 Y253.012 Z.24 E.26477
G1 X192.298 Y253.012 Z.24 E.26477
G1 X187.46 Y253.012 Z.24 E.26479
G1 X182.622 Y253.012 Z.24 E.26477
G1 F2399.014
G1 X177.784 Y253.012 Z.24 E.26477
G1 X172.947 Y253.012 Z.24 E.26477
G1 X168.109 Y253.012 Z.24 E.26479
G1 X163.271 Y253.012 Z.24 E.26477
G1 X158.433 Y253.012 Z.24 E.26477
G1 X153.595 Y253.012 Z.24 E.26477
G1 X148.757 Y253.012 Z.24 E.26477
G1 X143.919 Y253.012 Z.24 E.26479
G1 X139.081 Y253.012 Z.24 E.26477
G1 X134.243 Y253.012 Z.24 E.26477
G1 X129.405 Y253.012 Z.24 E.26477
G1 X124.568 Y253.012 Z.24 E.26477
G1 X119.73 Y253.012 Z.24 E.26479
G1 X114.892 Y253.012 Z.24 E.26477
G1 X49.647 Y253.012 Z.24 E3.57077
G1 X49.067 Y252.896 E0.03237
G1 X48.569 Y252.684 E.02963
G1 F2398.169
G1 X48.125 Y252.381 E.02943
G1 X47.625 Y251.881 E0.03867
G1 F2394.871
G1 X47.354 Y251.502 E.02554
G1 F2399.246
G1 X47.109 Y250.947 E.0332
G1 X46.988 Y250.353 E0.03316
G1 F2398.59
G1 X46.988 Y245.514 Z.24 E.26483
G1 X46.988 Y240.675 Z.24 E.26483
G1 X46.988 Y235.836 Z.24 E.26483
G1 X46.988 Y230.997 Z.24 E.26483
G1 X46.988 Y226.158 Z.24 E.26485
G1 X46.988 Y221.319 Z.24 E.26483
G1 X46.988 Y216.48 Z.24 E.26483
G1 X46.988 Y211.641 Z.24 E.26483
G1 X46.988 Y206.802 Z.24 E.26483
G1 F2399.036
G1 X46.988 Y201.963 Z.24 E.26483
G1 X46.988 Y197.124 Z.24 E.26483
G1 X46.988 Y192.285 Z.24 E.26483
G1 X46.988 Y187.446 Z.24 E.26483
G1 X46.988 Y182.607 Z.24 E.26483
G1 X46.988 Y177.768 Z.24 E.26485
G1 X46.988 Y172.929 Z.24 E.26483
G1 X46.988 Y168.09 Z.24 E.26483
G1 X46.988 Y163.251 Z.24 E.26483
G1 X46.988 Y158.412 Z.24 E.26483
G1 X46.988 Y153.573 Z.24 E.26483
G1 X46.988 Y148.734 Z.24 E.26483
G1 X46.988 Y143.895 Z.24 E.26483
G1 X46.988 Y139.056 Z.24 E.26483
G1 X46.988 Y134.217 Z.24 E.26483
G1 X46.988 Y129.378 Z.24 E.26485
G1 X46.988 Y124.539 Z.24 E.26483
G1 X46.988 Y119.7 Z.24 E.26483
G1 X46.988 Y114.861 Z.24 E.26483
G1 F2400
G1 X46.988 Y49.647 Z.24 E3.56911
G1 F2398.799
G1 X47.088 Y49.119 E.02943
G1 X47.29 Y48.617 E.02963
G1 X47.586 Y48.175 E0.02909
M107
G1 X48.026 Y48.493 F60000
M107
G1 F2398.579
G1 X48.491 Y48.028 E.036
G1 F2395.433
G1 X48.746 Y47.844 E.01723
G1 X49.248 Y47.622 E0.02999
G1 F2391.662
G1 X49.674 Y47.537 E.02383
G1 F2400
G1 X110.05 Y47.539 Z.24 E3.30432
G1 F2399.976
G1 X114.889 Y47.539 Z.24 E.26483
G1 X119.728 Y47.539 Z.24 E.26485
G1 X124.567 Y47.539 Z.24 E.26483
G1 X129.406 Y47.539 Z.24 E.26483
G1 X134.246 Y47.539 Z.24 E.26485
G1 X139.085 Y47.539 Z.24 E.26483
G1 X143.924 Y47.539 Z.24 E.26483
G1 X148.763 Y47.539 Z.24 E.26483
G1 X153.602 Y47.54 Z.24 E.26485
G1 X158.441 Y47.54 Z.24 E.26483
G1 X163.28 Y47.54 Z.24 E.26483
G1 X168.119 Y47.54 Z.24 E.26485
G1 X172.958 Y47.54 Z.24 E.26483
G1 X177.797 Y47.54 Z.24 E.26483
G1 X182.636 Y47.54 Z.24 E.26485
G1 X187.475 Y47.54 Z.24 E.26483
G1 X192.314 Y47.541 Z.24 E.26483
G1 X197.153 Y47.541 Z.24 E.26485
G1 X201.992 Y47.541 Z.24 E.26483
G1 X206.831 Y47.541 Z.24 E.26483
G1 X211.671 Y47.541 Z.24 E.26485
G1 F2398.968
G1 X216.51 Y47.541 Z.24 E.26483
G1 X221.349 Y47.541 Z.24 E.26483
G1 X226.188 Y47.541 Z.24 E.26483
G1 X231.027 Y47.542 Z.24 E.26485
G1 X235.866 Y47.542 Z.24 E.26483
G1 X240.705 Y47.542 Z.24 E.26483
G1 X245.544 Y47.542 Z.24 E.26485
G1 X250.383 Y47.542 Z.24 E.26483
G1 X250.756 Y47.624 E0.02089
G1 X251.254 Y47.844 E.02982
G1 X251.509 Y48.028 E.01723
G1 F2399.126
G1 X251.974 Y48.493 E.036
G1 X252.213 Y48.851 E0.02355
G1 X252.379 Y49.252 E.02374
G1 X252.463 Y49.674 E.02354
G1 X252.463 Y54.514 Z.24 E.26489
G1 X252.463 Y59.354 Z.24 E.26489
G1 X252.463 Y64.194 Z.24 E.26489
G1 X252.463 Y69.034 Z.24 E.26489
G1 X252.463 Y73.874 Z.24 E.26489
G1 X252.463 Y78.715 Z.24 E.26489
G1 X252.463 Y83.555 Z.24 E.26489
G1 X252.463 Y88.395 Z.24 E.26489
G1 X252.463 Y93.235 Z.24 E.26489
G1 X252.463 Y98.075 Z.24 E.26489
G1 X252.463 Y102.915 Z.24 E.26489
G1 X252.463 Y107.755 Z.24 E.26489
G1 X252.463 Y112.595 Z.24 E.26489
G1 X252.463 Y117.435 Z.24 E.26489
G1 X252.463 Y122.275 Z.24 E.26491
G1 X252.463 Y127.116 Z.24 E.26489
G1 X252.463 Y131.956 Z.24 E.26489
G1 X252.463 Y136.796 Z.24 E.26489
G1 X252.463 Y141.636 Z.24 E.26489
G1 X252.463 Y146.476 Z.24 E.26489
G1 X252.463 Y151.316 Z.24 E.26489
G1 X252.463 Y156.156 Z.24 E.26489
G1 X252.463 Y160.996 Z.24 E.26489
G1 X252.463 Y165.836 Z.24 E.26489
G1 X252.463 Y170.676 Z.24 E.26489
G1 X252.463 Y175.517 Z.24 E.26489
G1 X252.463 Y180.357 Z.24 E.26489
G1 X252.463 Y185.197 Z.24 E.26489
G1 X252.463 Y250.326 Z.24 E3.56445
G1 X252.379 Y250.748 E.02354
G1 X252.213 Y251.149 E.02374
G1 X251.974 Y251.507 E0.02355
G1 X251.509 Y251.972 E.036
