; generated by SuperSlicer 2.5.59.10 on 2024-06-02 at 22:02:02 UTC


;
;

;
;
; 

; external perimeters extrusion width = 0.60mm
; perimeters extrusion width = 0.60mm
; infill extrusion width = 0.60mm
; solid infill extrusion width = 0.60mm
; top infill extrusion width = 0.60mm
; support material extrusion width = 0.38mm
; first layer extrusion width = 0.60mm

; object:{"name":"Shape-Box","id":"Shape-Box id:0 copy 0","object_center":[144.578909,151.519229,0.000000],"boundingbox_center":[144.578909,151.519229,0.120000],"boundingbox_size":[100.000000,100.000000,0.240000]}
EXCLUDE_OBJECT_DEFINE NAME=Shape_Box_id_0_copy_0 CENTER=144.578909,151.519229 POLYGON=[[94.58,101.52],[194.58,101.52],[194.58,201.52],[94.58,201.52],[94.58,101.52]]
; plater:{"center":[144.578909,151.519229,0.000000],"boundingbox_center":[144.578909,151.519229,0.120000],"boundingbox_size":[100.000000,100.000000,0.240000]}

M107
;TYPE:Custom
START_PRINT EXTRUDER=250 BED=100
M107
G21 ; set units to millimeters
G90 ; use absolute coordinates
M83 ; use relative distances for extrusion
; Filament gcode
FILAMENT_START MATERIAL=ASA COLOR=#368900 VENDOR=123-3D
SET_PRESSURE_ADVANCE ADVANCE=0.062
M104 S250 ; set temperature
M109 S250 ; set temperature and wait for it to be reached
M190 S100 ; set bed temperature and wait for it to be reached
;LAYER_CHANGE
;Z:0.24
;HEIGHT:0.24
G1 E-1 F3600
G1 Z0.24 F60000
G92 E0
M204 S750
G1 X91.619 Y97.902
G1 E1 F3600
;TYPE:Skirt
;WIDTH:0.6
M107
G1 F2400
G1 X92.346 Y97.396 E0.04846
G1 F2396.257
G1 X93.23 Y97.03 E.05242
G1 X94.147 Y96.862 E0.05099
G1 F2398.538
G1 X98.953 Y96.862 Z.24 E.26304
G1 X103.759 Y96.862 Z.24 E.26304
G1 X108.565 Y96.863 Z.24 E.26304
G1 X113.372 Y96.863 Z.24 E.26304
G1 X118.178 Y96.863 Z.24 E.26304
G1 X122.984 Y96.863 Z.24 E.26304
G1 X127.79 Y96.864 Z.24 E.26304
G1 X132.596 Y96.864 Z.24 E.26304
G1 F2399.045
G1 X137.402 Y96.864 Z.24 E.26304
G1 X142.208 Y96.864 Z.24 E.26304
G1 X147.015 Y96.865 Z.24 E.26304
G1 X151.821 Y96.865 Z.24 E.26304
G1 X156.627 Y96.865 Z.24 E.26304
G1 X161.433 Y96.865 Z.24 E.26304
G1 X166.239 Y96.866 Z.24 E.26304
G1 X171.045 Y96.866 Z.24 E.26303
G1 X175.851 Y96.866 Z.24 E.26304
G1 X180.658 Y96.866 Z.24 E.26304
G1 X185.464 Y96.867 Z.24 E.26304
G1 X190.27 Y96.867 Z.24 E.26304
G1 X195.076 Y96.867 Z.24 E.26303
G1 X196.008 Y97.054 E0.05202
G1 X196.878 Y97.433 E.05195
G1 F2398.947
G1 X197.545 Y97.907 E.04479
G1 X198.176 Y98.533 E0.04861
G1 F2396.795
G1 X198.662 Y99.217 E.04596
G1 X199.019 Y100.011 E0.04763
G1 F2398.275
G1 X199.236 Y101.085 E.06
G1 F2399.978
G1 X199.236 Y105.888 Z.24 E.26286
G1 X199.236 Y110.691 Z.24 E.26286
G1 X199.236 Y115.494 Z.24 E.26286
G1 X199.236 Y120.297 Z.24 E.26286
G1 X199.236 Y125.1 Z.24 E.26286
G1 X199.236 Y129.902 Z.24 E.26286
G1 X199.236 Y134.705 Z.24 E.26286
G1 X199.236 Y139.508 Z.24 E.26286
G1 X199.236 Y144.311 Z.24 E.26286
G1 X199.236 Y149.114 Z.24 E.26286
G1 X199.236 Y153.917 Z.24 E.26286
G1 X199.236 Y158.72 Z.24 E.26286
G1 X199.236 Y163.523 Z.24 E.26286
G1 X199.236 Y168.326 Z.24 E.26286
G1 X199.236 Y173.129 Z.24 E.26286
G1 X199.236 Y177.931 Z.24 E.26286
G1 X199.236 Y182.734 Z.24 E.26286
G1 X199.236 Y187.537 Z.24 E.26286
G1 X199.236 Y192.34 Z.24 E.26286
G1 X199.236 Y197.143 Z.24 E.26286
G1 X199.236 Y201.946 Z.24 E.26286
G1 X199.095 Y202.774 E0.04595
G1 F2396.673
G1 X198.787 Y203.587 E.04763
G1 X198.181 Y204.501 E0.06
G1 F2399.825
G1 X197.539 Y205.137 E.04945
G1 F2398.767
G1 X196.812 Y205.642 E.04846
G1 X195.927 Y206.009 E0.05242
G1 X195.011 Y206.176 E.05098
G1 F2399.991
G1 X190.208 Y206.176 Z.24 E.26287
G1 X185.405 Y206.176 Z.24 E.26287
G1 X180.602 Y206.176 Z.24 E.26287
G1 X175.798 Y206.176 Z.24 E.26287
G1 X170.995 Y206.176 Z.24 E.26287
G1 X166.192 Y206.176 Z.24 E.26287
G1 X161.389 Y206.176 Z.24 E.26287
G1 X156.586 Y206.176 Z.24 E.26287
G1 X151.783 Y206.176 Z.24 E.26287
G1 X146.98 Y206.176 Z.24 E.26287
G1 X142.176 Y206.176 Z.24 E.26287
G1 X137.373 Y206.176 Z.24 E.26287
G1 X132.57 Y206.176 Z.24 E.26287
G1 X127.767 Y206.176 Z.24 E.26287
G1 X122.964 Y206.176 Z.24 E.26287
G1 X118.161 Y206.176 Z.24 E.26287
G1 X113.358 Y206.176 Z.24 E.26287
G1 X108.554 Y206.176 Z.24 E.26287
G1 X103.751 Y206.176 Z.24 E.26287
G1 X98.948 Y206.176 Z.24 E.26287
G1 X94.145 Y206.176 Z.24 E.26287
G1 X93.07 Y205.96 E0.06
G1 F2398.985
G1 X92.277 Y205.602 E.04763
G1 F2399.656
G1 X91.592 Y205.116 E.04596
G1 X90.961 Y204.479 E0.04905
G1 X90.456 Y203.752 E.04846
G1 F2397.993
G1 X90.089 Y202.868 E.05242
G1 X89.922 Y201.951 E0.05098
G1 F2398.505
G1 X89.922 Y197.148 Z.24 E.26285
G1 X89.922 Y192.345 Z.24 E.26285
G1 X89.922 Y187.543 Z.24 E.26285
G1 X89.922 Y182.74 Z.24 E.26285
G1 X89.922 Y177.937 Z.24 E.26285
G1 X89.922 Y173.134 Z.24 E.26285
G1 X89.922 Y168.332 Z.24 E.26285
G1 X89.922 Y163.529 Z.24 E.26285
G1 X89.922 Y158.726 Z.24 E.26285
G1 X89.922 Y153.923 Z.24 E.26285
G1 X89.922 Y149.121 Z.24 E.26285
G1 F2399.044
G1 X89.922 Y144.318 Z.24 E.26285
G1 X89.922 Y139.515 Z.24 E.26285
G1 X89.922 Y134.712 Z.24 E.26285
G1 X89.922 Y129.91 Z.24 E.26285
G1 X89.922 Y125.107 Z.24 E.26285
G1 X89.922 Y120.304 Z.24 E.26285
G1 X89.922 Y115.501 Z.24 E.26285
G1 X89.922 Y110.699 Z.24 E.26285
G1 X89.922 Y105.896 Z.24 E.26285
G1 X89.922 Y101.093 Z.24 E.26285
G1 X90.062 Y100.265 E0.04595
G1 X90.37 Y99.451 E.04763
G1 X90.977 Y98.538 E0.06
G1 X91.576 Y97.944 E.04617
M107
G1 X91.954 Y98.336 F60000
M107
G1 F2399.015
G1 X92.586 Y97.89 E.04234
G1 X93.361 Y97.563 E0.04601
G1 F2397.04
G1 X94.172 Y97.411 E.0452
G1 X195.049 Y97.416 E5.52087
G1 F2399.815
G1 X195.816 Y97.569 E.04281
G1 F2398.63
G1 X196.632 Y97.924 E.04873
G1 F2399.882
G1 X197.206 Y98.339 E.03876
G1 X197.771 Y98.904 E0.04372
G1 F2398.11
G1 X198.197 Y99.511 E.0406
G1 X198.506 Y100.206 E0.0416
G1 F2399.132
G1 X198.688 Y101.113 E.05063
G1 X198.688 Y105.913 Z.24 E.26272
G1 X198.688 Y110.714 Z.24 E.26272
G1 X198.688 Y115.514 Z.24 E.26272
G1 X198.688 Y120.315 Z.24 E.26272
G1 X198.688 Y125.115 Z.24 E.26272
G1 X198.688 Y129.916 Z.24 E.26272
G1 X198.688 Y134.716 Z.24 E.26272
G1 X198.688 Y139.516 Z.24 E.26273
G1 X198.688 Y144.317 Z.24 E.26272
G1 X198.688 Y149.117 Z.24 E.26273
G1 X198.688 Y153.918 Z.24 E.26272
G1 X198.688 Y158.718 Z.24 E.26273
G1 X198.688 Y163.519 Z.24 E.26272
G1 X198.688 Y168.319 Z.24 E.26273
G1 X198.688 Y173.119 Z.24 E.26272
G1 X198.688 Y177.92 Z.24 E.26273
G1 X198.688 Y182.72 Z.24 E.26272
G1 X198.688 Y187.521 Z.24 E.26273
G1 X198.688 Y192.321 Z.24 E.26272
G1 X198.688 Y197.122 Z.24 E.26273
G1 X198.688 Y201.922 Z.24 E.26272
G1 X198.56 Y202.653 E0.0406
G1 X198.286 Y203.362 E.0416
G1 X197.774 Y204.132 E.05063
G1 X197.204 Y204.702 E0.04412
G1 X196.572 Y205.148 E.04234
G1 X195.797 Y205.475 E0.04601
G1 X194.985 Y205.628 E.0452
G1 F2398.884
G1 X190.184 Y205.628 Z.24 E.26273
G1 X185.384 Y205.628 Z.24 E.26273
G1 X180.583 Y205.628 Z.24 E.26273
G1 F2399.046
G1 X175.783 Y205.628 Z.24 E.26273
G1 X170.982 Y205.628 Z.24 E.26273
G1 X166.181 Y205.628 Z.24 E.26274
G1 X161.381 Y205.628 Z.24 E.26273
G1 X156.58 Y205.628 Z.24 E.26273
G1 X151.779 Y205.628 Z.24 E.26273
G1 X146.979 Y205.628 Z.24 E.26273
G1 X142.178 Y205.628 Z.24 E.26273
G1 X137.378 Y205.628 Z.24 E.26273
G1 X132.577 Y205.628 Z.24 E.26273
G1 X127.776 Y205.628 Z.24 E.26273
G1 X122.976 Y205.628 Z.24 E.26273
G1 X118.175 Y205.628 Z.24 E.26274
G1 X113.374 Y205.628 Z.24 E.26273
G1 X108.574 Y205.628 Z.24 E.26273
G1 X103.773 Y205.628 Z.24 E.26273
G1 X98.973 Y205.628 Z.24 E.26273
G1 X94.172 Y205.628 Z.24 E.26273
G1 X93.265 Y205.446 E.05063
G1 X92.57 Y205.138 E.0416
G1 X91.963 Y204.711 E0.0406
G1 F2397.778
G1 X91.396 Y204.144 E.04392
G1 F2399.175
G1 X90.95 Y203.512 E.04234
G1 X90.623 Y202.737 E0.04601
G1 F2397.608
G1 X90.47 Y201.926 E.0452
G1 X90.47 Y101.116 E5.5172
G1 F2396.809
G1 X90.598 Y100.386 E.0406
G1 F2397.877
G1 X90.871 Y99.676 E.0416
G1 F2386.485
G1 X91.384 Y98.906 E.05063
G1 F2371.178
G1 X91.912 Y98.379 E.04084
M107
G1 X92.3 Y98.767 F60000
M107
G1 F2400
G1 X92.326 Y98.74 E0.00202
G1 F2370.379
G1 X92.83 Y98.382 E.03384
G1 F2380.205
G1 X93.494 Y98.096 E.0396
G1 F2395.269
G1 X94.199 Y97.959 E.03927
G1 F2397.798
G1 X99 Y97.959 Z.24 E.26276
G1 X103.801 Y97.959 Z.24 E.26276
G1 F2398.012
G1 X108.602 Y97.96 Z.24 E.26276
G1 X113.403 Y97.96 Z.24 E.26276
G1 X118.204 Y97.96 Z.24 E.26276
G1 X123.005 Y97.96 Z.24 E.26276
G1 X127.806 Y97.961 Z.24 E.26276
G1 X132.607 Y97.961 Z.24 E.26276
G1 X137.408 Y97.961 Z.24 E.26276
G1 X142.209 Y97.961 Z.24 E.26276
G1 X147.011 Y97.962 Z.24 E.26276
G1 X151.812 Y97.962 Z.24 E.26276
G1 F2399.087
G1 X156.613 Y97.962 Z.24 E.26276
G1 X161.414 Y97.962 Z.24 E.26276
G1 X166.215 Y97.963 Z.24 E.26276
G1 X171.016 Y97.963 Z.24 E.26276
G1 X175.817 Y97.963 Z.24 E.26276
G1 X180.618 Y97.963 Z.24 E.26276
G1 X185.419 Y97.964 Z.24 E.26276
G1 X190.22 Y97.964 Z.24 E.26276
G1 F2400
G1 X195.021 Y97.964 Z.24 E.26276
G1 F2399.704
G1 X195.676 Y98.1 E.03662
G1 X196.383 Y98.414 E.04236
G1 X196.833 Y98.742 E.03048
G1 X197.366 Y99.274 E0.0412
G1 F2396.461
G1 X197.731 Y99.801 E.03511
G1 X197.991 Y100.398 E0.0356
G1 F2398.712
G1 X198.139 Y101.14 E.04141
G1 F2399.904
G1 X198.139 Y105.938 Z.24 E.26259
G1 X198.139 Y110.736 Z.24 E.26259
G1 X198.139 Y115.534 Z.24 E.26259
G1 X198.139 Y120.332 Z.24 E.26259
G1 X198.139 Y125.13 Z.24 E.26259
G1 X198.139 Y129.928 Z.24 E.26259
G1 X198.139 Y134.726 Z.24 E.26259
G1 X198.139 Y139.524 Z.24 E.26259
G1 F2398.952
G1 X198.139 Y144.322 Z.24 E.26259
G1 X198.139 Y149.12 Z.24 E.26259
G1 X198.139 Y153.917 Z.24 E.26259
G1 X198.139 Y158.715 Z.24 E.26259
G1 X198.139 Y163.513 Z.24 E.26259
G1 X198.139 Y168.311 Z.24 E.26259
G1 X198.139 Y173.109 Z.24 E.26259
G1 X198.139 Y177.907 Z.24 E.26259
G1 X198.139 Y182.705 Z.24 E.26259
G1 F2397.882
G1 X198.139 Y187.503 Z.24 E.26259
G1 X198.139 Y192.301 Z.24 E.26259
G1 X198.139 Y197.099 Z.24 E.26259
G1 X198.139 Y201.897 Z.24 E.26259
G1 X198.025 Y202.529 E0.03511
G1 X197.787 Y203.134 E.0356
G1 F2398.785
G1 X197.367 Y203.763 E.04141
G1 X196.832 Y204.298 E0.04138
G1 X196.328 Y204.656 E.03384
G1 X195.663 Y204.942 E0.0396
G1 X194.959 Y205.079 E.03927
G1 X94.199 Y205.079 E5.51449
G1 F2399.891
G1 X93.457 Y204.931 E.04141
G1 F2397.687
G1 X92.861 Y204.672 E.0356
G1 F2399.668
G1 X92.334 Y204.306 E.03511
G1 X91.8 Y203.772 E0.04131
G1 X91.442 Y203.268 E.03384
G1 F2397.209
G1 X91.156 Y202.604 E.0396
G1 X91.019 Y201.899 E0.03927
G1 X91.019 Y197.101 Z.24 E.26259
G1 X91.019 Y192.303 Z.24 E.2626
G1 X91.019 Y187.505 Z.24 E.26259
G1 F2398.088
G1 X91.019 Y182.707 Z.24 E.2626
G1 X91.019 Y177.909 Z.24 E.26259
G1 X91.019 Y173.111 Z.24 E.26259
G1 X91.019 Y168.313 Z.24 E.2626
G1 X91.019 Y163.515 Z.24 E.26259
G1 X91.019 Y158.717 Z.24 E.26259
G1 X91.019 Y153.919 Z.24 E.2626
G1 X91.019 Y149.121 Z.24 E.26259
G1 X91.019 Y144.323 Z.24 E.2626
G1 F2399.071
G1 X91.019 Y139.525 Z.24 E.26259
G1 X91.019 Y134.727 Z.24 E.26259
G1 X91.019 Y129.929 Z.24 E.2626
G1 X91.019 Y125.131 Z.24 E.26259
G1 X91.019 Y120.333 Z.24 E.26259
G1 X91.019 Y115.535 Z.24 E.2626
G1 X91.019 Y110.737 Z.24 E.26259
G1 X91.019 Y105.939 Z.24 E.2626
G1 F2400
G1 X91.019 Y101.141 Z.24 E.26259
G1 F2399.405
G1 X91.133 Y100.51 E.03511
G1 F2398.641
G1 X91.371 Y99.905 E.0356
G1 F2395.895
G1 X91.791 Y99.275 E.04141
G1 F2383.916
G1 X92.257 Y98.809 E.03608
M107
G1 X92.645 Y99.197 F60000
M107
G1 F2400
G1 X92.698 Y99.144 E0.00407
G1 F2378.945
G1 X93.077 Y98.873 E.02554
G1 F2391.55
G1 X93.632 Y98.628 E.03321
G1 F2399.336
G1 X94.226 Y98.507 E.03316
G1 F2398.635
G1 X99.024 Y98.507 Z.24 E.26261
G1 X103.823 Y98.508 Z.24 E.2626
G1 X108.621 Y98.508 Z.24 E.26261
G1 X113.419 Y98.508 Z.24 E.2626
G1 X118.218 Y98.508 Z.24 E.26261
G1 X123.016 Y98.509 Z.24 E.26261
G1 X127.814 Y98.509 Z.24 E.2626
G1 X132.613 Y98.509 Z.24 E.26261
G1 X137.411 Y98.51 Z.24 E.26261
G1 X142.209 Y98.51 Z.24 E.2626
G1 X147.008 Y98.51 Z.24 E.26261
G1 X151.806 Y98.51 Z.24 E.2626
G1 X156.604 Y98.511 Z.24 E.26261
G1 X161.403 Y98.511 Z.24 E.26261
G1 X166.201 Y98.511 Z.24 E.2626
G1 X170.999 Y98.512 Z.24 E.26261
G1 X175.798 Y98.512 Z.24 E.26261
G1 X180.596 Y98.512 Z.24 E.2626
G1 X185.394 Y98.512 Z.24 E.26261
G1 F2399.002
G1 X190.193 Y98.513 Z.24 E.2626
G1 X194.991 Y98.513 Z.24 E.26261
G1 X195.531 Y98.63 E0.03023
G1 X196.131 Y98.902 E.03604
G1 F2394.538
G1 X196.46 Y99.144 E.02239
G1 X196.96 Y99.644 E0.03867
G1 F2396.006
G1 X197.263 Y100.088 E.02944
G1 X197.475 Y100.587 E0.02964
G1 F2398.698
G1 X197.591 Y101.167 E.03237
G1 F2399.994
G1 X197.591 Y105.962 Z.24 E.26245
G1 X197.591 Y110.758 Z.24 E.26245
G1 X197.591 Y115.553 Z.24 E.26245
G1 X197.591 Y120.349 Z.24 E.26246
G1 X197.591 Y125.144 Z.24 E.26245
G1 X197.591 Y129.94 Z.24 E.26245
G1 X197.591 Y134.735 Z.24 E.26245
G1 X197.591 Y139.531 Z.24 E.26245
G1 X197.591 Y144.326 Z.24 E.26245
G1 X197.591 Y149.122 Z.24 E.26245
G1 X197.591 Y153.917 Z.24 E.26246
G1 X197.591 Y158.713 Z.24 E.26245
G1 X197.591 Y163.508 Z.24 E.26245
G1 X197.591 Y168.304 Z.24 E.26245
G1 X197.591 Y173.099 Z.24 E.26245
G1 X197.591 Y177.895 Z.24 E.26245
G1 X197.591 Y182.69 Z.24 E.26245
G1 X197.591 Y187.486 Z.24 E.26246
G1 X197.591 Y192.281 Z.24 E.26245
G1 F2400
G1 X197.591 Y197.077 Z.24 E.26245
G1 X197.591 Y201.872 Z.24 E.26245
G1 F2396.427
G1 X197.491 Y202.4 E.02944
G1 X197.289 Y202.903 E0.02964
G1 F2399.732
G1 X196.96 Y203.395 E.03237
G1 F2398.825
G1 X196.46 Y203.894 E.03867
G1 F2399.661
G1 X196.081 Y204.166 E.02554
G1 X195.526 Y204.411 E.03321
G1 X194.932 Y204.531 E0.03316
G1 X190.136 Y204.531 Z.24 E.26245
G1 X185.341 Y204.531 Z.24 E.26245
G1 X180.545 Y204.531 Z.24 E.26246
G1 X175.75 Y204.531 Z.24 E.26245
G1 X170.954 Y204.531 Z.24 E.26245
G1 X166.159 Y204.531 Z.24 E.26245
G1 X161.363 Y204.531 Z.24 E.26246
G1 X156.568 Y204.531 Z.24 E.26245
G1 X151.772 Y204.531 Z.24 E.26245
G1 X146.977 Y204.531 Z.24 E.26245
G1 X142.181 Y204.531 Z.24 E.26246
G1 X137.386 Y204.531 Z.24 E.26245
G1 X132.59 Y204.531 Z.24 E.26245
G1 X127.795 Y204.531 Z.24 E.26245
G1 X122.999 Y204.531 Z.24 E.26246
G1 X118.204 Y204.531 Z.24 E.26245
G1 X113.408 Y204.531 Z.24 E.26245
G1 X108.613 Y204.531 Z.24 E.26245
G1 X103.817 Y204.531 Z.24 E.26246
G1 X99.022 Y204.531 Z.24 E.26245
G1 F2400
G1 X94.226 Y204.531 Z.24 E.26245
G1 F2399.05
G1 X93.646 Y204.416 E.03237
G1 X93.148 Y204.203 E0.02964
G1 F2398.425
G1 X92.704 Y203.9 E.02944
G1 F2399.545
G1 X92.204 Y203.401 E.03867
G1 X91.933 Y203.021 E.02554
G1 X91.687 Y202.466 E0.03321
G1 X91.567 Y201.872 E.03316
G1 X91.567 Y197.077 Z.24 E.26245
G1 X91.567 Y192.281 Z.24 E.26245
G1 X91.567 Y187.486 Z.24 E.26246
G1 X91.567 Y182.69 Z.24 E.26245
G1 X91.567 Y177.895 Z.24 E.26245
G1 X91.567 Y173.099 Z.24 E.26245
G1 F2398.977
G1 X91.567 Y168.304 Z.24 E.26246
G1 X91.567 Y163.508 Z.24 E.26245
G1 X91.567 Y158.713 Z.24 E.26245
G1 X91.567 Y153.917 Z.24 E.26245
G1 X91.567 Y149.122 Z.24 E.26246
G1 X91.567 Y144.326 Z.24 E.26245
G1 X91.567 Y139.531 Z.24 E.26245
G1 X91.567 Y134.735 Z.24 E.26245
G1 X91.567 Y129.94 Z.24 E.26246
G1 X91.567 Y125.144 Z.24 E.26245
G1 X91.567 Y120.349 Z.24 E.26245
G1 X91.567 Y115.553 Z.24 E.26245
G1 X91.567 Y110.758 Z.24 E.26246
G1 X91.567 Y105.962 Z.24 E.26245
G1 X91.567 Y101.167 Z.24 E.26245
G1 X91.667 Y100.638 E0.02944
G1 F2396.262
G1 X91.869 Y100.136 E.02964
G1 F2399.71
G1 X92.198 Y99.644 E.03237
G1 X92.603 Y99.239 E0.03132
M107
G1 X92.99 Y99.627 F60000
M107
G1 F2396.592
G1 X93.07 Y99.548 E.00616
G1 X93.325 Y99.363 E0.01723
G1 X93.826 Y99.142 E.02999
G1 X94.253 Y99.056 E0.02383
G1 F2398.83
G1 X99.049 Y99.056 Z.24 E.26246
G1 X103.844 Y99.056 Z.24 E.26246
G1 X108.64 Y99.057 Z.24 E.26247
G1 F2399.001
G1 X113.436 Y99.057 Z.24 E.26246
G1 X118.231 Y99.057 Z.24 E.26246
G1 X123.027 Y99.057 Z.24 E.26246
G1 X127.823 Y99.058 Z.24 E.26247
G1 X132.618 Y99.058 Z.24 E.26246
G1 X137.414 Y99.058 Z.24 E.26246
G1 X142.21 Y99.058 Z.24 E.26246
G1 X147.005 Y99.059 Z.24 E.26247
G1 X151.801 Y99.059 Z.24 E.26246
G1 X156.597 Y99.059 Z.24 E.26246
G1 X161.392 Y99.059 Z.24 E.26246
G1 X166.188 Y99.06 Z.24 E.26247
G1 X170.984 Y99.06 Z.24 E.26246
G1 X175.779 Y99.06 Z.24 E.26246
G1 X180.575 Y99.06 Z.24 E.26246
G1 X185.371 Y99.061 Z.24 E.26247
G1 X190.166 Y99.061 Z.24 E.26246
G1 F2400
G1 X194.962 Y99.061 Z.24 E.26246
G1 F2393.691
G1 X195.334 Y99.143 E.02089
G1 X195.833 Y99.363 E0.02981
G1 F2399.508
G1 X196.088 Y99.548 E.01723
G1 F2397.788
G1 X196.553 Y100.013 E.036
