; generated by SuperSlicer 2.5.59.10 on 2024-06-02 at 17:02:06 UTC


;
;

;
;
; 

; external perimeters extrusion width = 0.60mm
; perimeters extrusion width = 0.60mm
; infill extrusion width = 0.60mm
; solid infill extrusion width = 0.60mm
; top infill extrusion width = 0.60mm
; support material extrusion width = 0.38mm
; first layer extrusion width = 0.60mm

; object:{"name":"Shape-Box","id":"Shape-Box id:0 copy 0","object_center":[150.000000,150.000000,0.000000],"boundingbox_center":[150.000000,150.000000,0.120000],"boundingbox_size":[150.000000,150.000000,0.240000]}
EXCLUDE_OBJECT_DEFINE NAME=Shape_Box_id_0_copy_0 CENTER=150.000000,150.000000 POLYGON=[[75.00,75.00],[225.00,75.00],[225.00,225.00],[75.00,225.00],[75.00,75.00]]
; plater:{"center":[150.000000,150.000000,0.000000],"boundingbox_center":[150.000000,150.000000,0.120000],"boundingbox_size":[150.000000,150.000000,0.240000]}

M107
;TYPE:Custom
START_PRINT EXTRUDER=250 BED=100
M107
G21 ; set units to millimeters
G90 ; use absolute coordinates
M83 ; use relative distances for extrusion
; Filament gcode
FILAMENT_START MATERIAL=ASA COLOR=#368900 VENDOR=123-3D
SET_PRESSURE_ADVANCE ADVANCE=0.062
M104 S250 ; set temperature
M109 S250 ; set temperature and wait for it to be reached
M190 S100 ; set bed temperature and wait for it to be reached
;LAYER_CHANGE
;Z:0.24
;HEIGHT:0.24
G1 E-1 F3600
G1 Z0.24 F60000
G92 E0
M204 S750
G1 X71.398 Y72.019
G1 E1 F3600
;TYPE:Skirt
;WIDTH:0.6
M107
G1 F2400
G1 X72.04 Y71.382 E0.04945
G1 F2397.815
G1 X72.767 Y70.877 E.04846
G1 X73.652 Y70.51 E0.05242
G1 F2398.166
G1 X74.568 Y70.343 E.05099
G1 F2400
G1 X85.094 Y70.343 Z.24 E.57609
G1 F2399.997
G1 X89.936 Y70.344 Z.24 E.26497
G1 X94.777 Y70.344 Z.24 E.26497
G1 X99.619 Y70.344 Z.24 E.26497
G1 X104.46 Y70.344 Z.24 E.26497
G1 X109.302 Y70.344 Z.24 E.26497
G1 X114.143 Y70.344 Z.24 E.26497
G1 X118.985 Y70.344 Z.24 E.26497
G1 X123.826 Y70.345 Z.24 E.26497
G1 X128.667 Y70.345 Z.24 E.26497
G1 X133.509 Y70.345 Z.24 E.26497
G1 X138.35 Y70.345 Z.24 E.26497
G1 X143.192 Y70.345 Z.24 E.26497
G1 X148.033 Y70.345 Z.24 E.26497
G1 X152.875 Y70.346 Z.24 E.26497
G1 X157.716 Y70.346 Z.24 E.26497
G1 X162.558 Y70.346 Z.24 E.26497
G1 X167.399 Y70.346 Z.24 E.26497
G1 X172.241 Y70.346 Z.24 E.26497
G1 X177.082 Y70.346 Z.24 E.26497
G1 X181.924 Y70.347 Z.24 E.26497
G1 X186.765 Y70.347 Z.24 E.26497
G1 X191.607 Y70.347 Z.24 E.26497
G1 X196.448 Y70.347 Z.24 E.26497
G1 X201.29 Y70.347 Z.24 E.26497
G1 X206.131 Y70.347 Z.24 E.26497
G1 X210.973 Y70.348 Z.24 E.26497
G1 X215.814 Y70.348 Z.24 E.26497
G1 X220.656 Y70.348 Z.24 E.26497
G1 X225.497 Y70.348 Z.24 E.26497
G1 X226.429 Y70.535 E0.05202
G1 X227.299 Y70.914 E.05195
G1 X227.966 Y71.388 E.04479
G1 X228.597 Y72.013 E.04861
G1 X229.083 Y72.698 E.04596
G1 X229.44 Y73.492 E0.04763
G1 F2398.279
G1 X229.657 Y74.566 E.06
G1 X229.657 Y225.427 E8.25645
G1 F2397.107
G1 X229.517 Y226.254 E.04595
G1 X229.208 Y227.068 E0.04763
G1 X228.602 Y227.981 E.06
G1 X227.96 Y228.618 E0.04945
G1 X227.233 Y229.123 E.04846
G1 X226.348 Y229.49 E0.05242
G1 F2398.646
G1 X225.432 Y229.657 E.05098
G1 X74.566 Y229.657 E8.25675
G1 X73.492 Y229.44 E.06
G1 X72.698 Y229.083 E0.04763
G1 F2399.447
G1 X72.013 Y228.597 E.04596
G1 X71.382 Y227.96 E0.04905
G1 F2398.433
G1 X70.877 Y227.233 E.04846
G1 X70.51 Y226.348 E0.05242
G1 X70.343 Y225.432 E.05098
G1 X70.343 Y74.573 E8.25636
G1 F2397.003
G1 X70.483 Y73.746 E.04595
G1 X70.792 Y72.932 E0.04763
G1 F2398.435
G1 X71.365 Y72.069 E.05672
M107
G1 X71.805 Y72.387 F60000
M107
G1 F2400
G1 X72.375 Y71.817 E0.04412
G1 F2399.123
G1 X73.007 Y71.371 E.04234
G1 X73.782 Y71.044 E0.04601
G1 F2397.606
G1 X74.593 Y70.891 E.0452
G1 X225.47 Y70.897 E8.25732
G1 F2399.871
G1 X226.237 Y71.05 E.04281
G1 F2398.655
G1 X227.053 Y71.405 E.04873
G1 X227.627 Y71.82 E0.03876
G1 F2397.421
G1 X228.192 Y72.384 E.04372
G1 X228.618 Y72.992 E0.0406
G1 X228.927 Y73.686 E.0416
G1 X229.109 Y74.593 E0.05063
G1 F2399.995
G1 X229.109 Y79.435 Z.24 E.26499
G1 X229.109 Y84.277 Z.24 E.26499
G1 X229.109 Y89.119 Z.24 E.26499
G1 X229.109 Y93.96 Z.24 E.26499
G1 X229.109 Y98.802 Z.24 E.26499
G1 X229.109 Y103.644 Z.24 E.26499
G1 X229.109 Y108.486 Z.24 E.26499
G1 X229.109 Y113.328 Z.24 E.26499
G1 X229.109 Y118.17 Z.24 E.26499
G1 X229.109 Y123.012 Z.24 E.26499
G1 X229.109 Y127.853 Z.24 E.26499
G1 X229.109 Y132.695 Z.24 E.26499
G1 X229.109 Y137.537 Z.24 E.26499
G1 X229.109 Y142.379 Z.24 E.26499
G1 X229.109 Y147.221 Z.24 E.26499
G1 X229.109 Y152.063 Z.24 E.26499
G1 X229.109 Y156.905 Z.24 E.26499
G1 X229.109 Y161.746 Z.24 E.26499
G1 X229.109 Y166.588 Z.24 E.26499
G1 X229.109 Y171.43 Z.24 E.26499
G1 X229.109 Y176.272 Z.24 E.26499
G1 X229.109 Y181.114 Z.24 E.26499
G1 X229.109 Y185.956 Z.24 E.26499
G1 X229.109 Y190.798 Z.24 E.26499
G1 X229.109 Y195.639 Z.24 E.26499
G1 F2400
G1 X229.109 Y200.481 Z.24 E.26499
G1 X229.109 Y205.323 Z.24 E.26499
G1 X229.109 Y210.165 Z.24 E.26499
G1 X229.109 Y225.403 Z.24 E.83395
G1 F2396.231
G1 X228.981 Y226.133 E.0406
G1 X228.707 Y226.843 E0.0416
G1 F2397.586
G1 X228.195 Y227.613 E.05063
G1 X227.625 Y228.183 E0.04412
G1 F2399.127
G1 X226.993 Y228.629 E.04234
G1 X226.218 Y228.956 E0.04601
G1 F2397.61
G1 X225.407 Y229.109 E.0452
G1 F2400
G1 X215.007 Y229.109 Z.24 E.56918
G1 X210.165 Y229.109 Z.24 E.26499
G1 X205.323 Y229.109 Z.24 E.26499
G1 X200.481 Y229.109 Z.24 E.26499
G1 X195.639 Y229.109 Z.24 E.26499
G1 X190.798 Y229.109 Z.24 E.26499
G1 F2399.999
G1 X185.956 Y229.109 Z.24 E.26499
G1 X181.114 Y229.109 Z.24 E.26499
G1 X176.272 Y229.109 Z.24 E.26499
G1 X171.43 Y229.109 Z.24 E.26499
G1 X166.588 Y229.109 Z.24 E.26499
G1 X161.746 Y229.109 Z.24 E.26499
G1 X156.905 Y229.109 Z.24 E.26499
G1 X152.063 Y229.109 Z.24 E.26499
G1 X147.221 Y229.109 Z.24 E.26499
G1 X142.379 Y229.109 Z.24 E.26499
G1 X137.537 Y229.109 Z.24 E.26499
G1 X132.695 Y229.109 Z.24 E.26499
G1 X127.853 Y229.109 Z.24 E.26499
G1 X123.012 Y229.109 Z.24 E.26499
G1 X118.17 Y229.109 Z.24 E.26499
G1 X113.328 Y229.109 Z.24 E.26499
G1 X108.486 Y229.109 Z.24 E.26499
G1 X103.644 Y229.109 Z.24 E.26499
G1 X98.802 Y229.109 Z.24 E.26499
G1 X93.96 Y229.109 Z.24 E.26499
G1 X89.119 Y229.109 Z.24 E.26499
G1 X84.277 Y229.109 Z.24 E.26499
G1 X79.435 Y229.109 Z.24 E.26499
G1 X74.593 Y229.109 Z.24 E.26499
G1 X73.686 Y228.927 E0.05063
G1 F2397.814
G1 X72.992 Y228.618 E.0416
G1 X72.384 Y228.192 E0.0406
G1 X71.817 Y227.625 E.04392
G1 F2399.164
G1 X71.371 Y226.993 E.04234
G1 X71.044 Y226.218 E0.04601
G1 F2397.608
G1 X70.891 Y225.407 E.0452
G1 X70.891 Y74.597 E8.25366
G1 F2396.156
G1 X71.019 Y73.867 E.0406
G1 X71.293 Y73.157 E0.0416
G1 X71.772 Y72.437 E.04735
M107
G1 X72.212 Y72.756 F60000
M107
G1 F2400
G1 X72.747 Y72.221 E0.04138
G1 F2399.146
G1 X73.251 Y71.863 E.03384
G1 F2397.199
G1 X73.915 Y71.577 E.0396
G1 X74.62 Y71.44 E0.03927
G1 X79.457 Y71.44 Z.24 E.26474
G1 X84.295 Y71.44 Z.24 E.26474
G1 X89.132 Y71.44 Z.24 E.26474
G1 X93.969 Y71.441 Z.24 E.26474
G1 F2398.073
G1 X98.806 Y71.441 Z.24 E.26474
G1 X103.644 Y71.441 Z.24 E.26474
G1 X108.481 Y71.441 Z.24 E.26474
G1 X113.318 Y71.441 Z.24 E.26474
G1 X118.156 Y71.441 Z.24 E.26474
G1 X122.993 Y71.442 Z.24 E.26474
G1 X127.83 Y71.442 Z.24 E.26474
G1 X132.667 Y71.442 Z.24 E.26474
G1 X137.505 Y71.442 Z.24 E.26474
G1 X142.342 Y71.442 Z.24 E.26474
G1 X147.179 Y71.442 Z.24 E.26474
G1 X152.017 Y71.443 Z.24 E.26474
G1 F2399.017
G1 X156.854 Y71.443 Z.24 E.26474
G1 X161.691 Y71.443 Z.24 E.26474
G1 X166.528 Y71.443 Z.24 E.26474
G1 X171.366 Y71.443 Z.24 E.26474
G1 X176.203 Y71.443 Z.24 E.26474
G1 X181.04 Y71.444 Z.24 E.26474
G1 X185.878 Y71.444 Z.24 E.26474
G1 X190.715 Y71.444 Z.24 E.26474
G1 X195.552 Y71.444 Z.24 E.26474
G1 X200.389 Y71.444 Z.24 E.26474
G1 X205.227 Y71.444 Z.24 E.26474
G1 X210.064 Y71.444 Z.24 E.26474
G1 F2400
G1 X225.442 Y71.445 Z.24 E.84162
G1 F2399.703
G1 X226.097 Y71.581 E.03662
G1 F2397.521
G1 X226.804 Y71.895 E.04236
G1 X227.255 Y72.223 E0.03048
G1 X227.787 Y72.755 E.0412
G1 F2399.249
G1 X228.152 Y73.282 E.03511
G1 X228.412 Y73.878 E.0356
G1 X228.56 Y74.62 E.04141
G1 X228.56 Y225.378 E8.25083
G1 F2397.672
G1 X228.446 Y226.009 E.03511
G1 X228.208 Y226.615 E0.0356
G1 X227.788 Y227.244 E.04141
G1 X227.253 Y227.779 E0.04138
G1 F2399.162
G1 X226.749 Y228.137 E.03384
G1 F2397.168
G1 X226.085 Y228.423 E.0396
G1 X225.38 Y228.56 E0.03927
G1 X220.543 Y228.56 Z.24 E.26474
G1 X215.705 Y228.56 Z.24 E.26474
G1 X210.868 Y228.56 Z.24 E.26474
G1 F2398
G1 X206.031 Y228.56 Z.24 E.26474
G1 X201.194 Y228.56 Z.24 E.26474
G1 X196.356 Y228.56 Z.24 E.26474
G1 X191.519 Y228.56 Z.24 E.26474
G1 X186.682 Y228.56 Z.24 E.26474
G1 X181.844 Y228.56 Z.24 E.26474
G1 X177.007 Y228.56 Z.24 E.26474
G1 X172.17 Y228.56 Z.24 E.26474
G1 X167.332 Y228.56 Z.24 E.26474
G1 X162.495 Y228.56 Z.24 E.26474
G1 X157.658 Y228.56 Z.24 E.26474
G1 X152.821 Y228.56 Z.24 E.26474
G1 X147.983 Y228.56 Z.24 E.26475
G1 F2399.02
G1 X143.146 Y228.56 Z.24 E.26474
G1 X138.309 Y228.56 Z.24 E.26474
G1 X133.471 Y228.56 Z.24 E.26474
G1 X128.634 Y228.56 Z.24 E.26474
G1 X123.797 Y228.56 Z.24 E.26474
G1 X118.96 Y228.56 Z.24 E.26474
G1 X114.122 Y228.56 Z.24 E.26474
G1 X109.285 Y228.56 Z.24 E.26474
G1 X104.448 Y228.56 Z.24 E.26474
G1 X99.61 Y228.56 Z.24 E.26474
G1 X94.773 Y228.56 Z.24 E.26474
G1 X89.936 Y228.56 Z.24 E.26474
G1 F2400
G1 X74.62 Y228.56 Z.24 E.83822
G1 F2399.904
G1 X73.878 Y228.412 E.04141
G1 X73.282 Y228.152 E.0356
G1 F2398.078
G1 X72.755 Y227.787 E.03511
G1 X72.221 Y227.253 E0.04131
G1 F2399.429
G1 X71.863 Y226.749 E.03384
G1 F2397.129
G1 X71.577 Y226.085 E.0396
G1 X71.44 Y225.38 E0.03927
G1 X71.44 Y220.543 Z.24 E.26474
G1 X71.44 Y215.705 Z.24 E.26474
G1 X71.44 Y210.868 Z.24 E.26474
G1 X71.44 Y206.031 Z.24 E.26474
G1 F2398.066
G1 X71.44 Y201.194 Z.24 E.26475
G1 X71.44 Y196.356 Z.24 E.26474
G1 X71.44 Y191.519 Z.24 E.26474
G1 X71.44 Y186.682 Z.24 E.26474
G1 X71.44 Y181.844 Z.24 E.26474
G1 X71.44 Y177.007 Z.24 E.26474
G1 X71.44 Y172.17 Z.24 E.26474
G1 X71.44 Y167.333 Z.24 E.26474
G1 X71.44 Y162.495 Z.24 E.26474
G1 X71.44 Y157.658 Z.24 E.26474
G1 X71.44 Y152.821 Z.24 E.26475
G1 X71.44 Y147.983 Z.24 E.26474
G1 F2399.013
G1 X71.44 Y143.146 Z.24 E.26474
G1 X71.44 Y138.309 Z.24 E.26474
G1 X71.44 Y133.472 Z.24 E.26474
G1 X71.44 Y128.634 Z.24 E.26474
G1 X71.44 Y123.797 Z.24 E.26474
G1 X71.44 Y118.96 Z.24 E.26474
G1 X71.44 Y114.122 Z.24 E.26474
G1 X71.44 Y109.285 Z.24 E.26475
G1 X71.44 Y104.448 Z.24 E.26474
G1 X71.44 Y99.611 Z.24 E.26474
G1 X71.44 Y94.773 Z.24 E.26474
G1 X71.44 Y89.936 Z.24 E.26474
G1 F2400
G1 X71.44 Y74.622 Z.24 E.83813
G1 F2397.724
G1 X71.554 Y73.991 E.03511
G1 X71.792 Y73.385 E0.0356
G1 X72.179 Y72.806 E.03813
M107
G1 X72.619 Y73.125 F60000
M107
G1 F2400
G1 X73.119 Y72.625 E0.03867
G1 F2395.383
G1 X73.498 Y72.354 E.02554
G1 F2398.997
G1 X74.053 Y72.109 E.03321
G1 X74.647 Y71.988 E0.03316
G1 X79.484 Y71.988 Z.24 E.26474
G1 X84.321 Y71.988 Z.24 E.26473
G1 X89.159 Y71.989 Z.24 E.26474
G1 X93.996 Y71.989 Z.24 E.26473
G1 X98.833 Y71.989 Z.24 E.26474
G1 X103.67 Y71.989 Z.24 E.26474
G1 X108.508 Y71.989 Z.24 E.26473
G1 X113.345 Y71.99 Z.24 E.26474
G1 X118.182 Y71.99 Z.24 E.26473
G1 X123.019 Y71.99 Z.24 E.26474
G1 X127.856 Y71.99 Z.24 E.26473
G1 X132.694 Y71.99 Z.24 E.26474
G1 X137.531 Y71.991 Z.24 E.26474
G1 X142.368 Y71.991 Z.24 E.26473
G1 X147.205 Y71.991 Z.24 E.26474
G1 X152.043 Y71.991 Z.24 E.26473
G1 X156.88 Y71.991 Z.24 E.26474
G1 X161.717 Y71.991 Z.24 E.26474
G1 X166.554 Y71.992 Z.24 E.26473
G1 X171.392 Y71.992 Z.24 E.26474
G1 X176.229 Y71.992 Z.24 E.26473
G1 X181.066 Y71.992 Z.24 E.26474
G1 X185.903 Y71.992 Z.24 E.26473
G1 F2399.001
G1 X190.74 Y71.993 Z.24 E.26474
G1 X195.578 Y71.993 Z.24 E.26474
G1 X200.415 Y71.993 Z.24 E.26473
G1 X205.252 Y71.993 Z.24 E.26474
G1 X210.089 Y71.993 Z.24 E.26473
G1 X225.412 Y71.994 Z.24 E.8386
G1 X225.952 Y72.111 E0.03023
G1 X226.552 Y72.382 E.03604
G1 F2398.667
G1 X226.881 Y72.625 E.02239
G1 X227.381 Y73.125 E0.03867
G1 X227.684 Y73.569 E.02944
G1 F2399.252
G1 X227.896 Y74.067 E.02964
G1 X228.012 Y74.647 E.03237
G1 X228.012 Y225.353 E8.24796
G1 F2398.476
G1 X227.912 Y225.881 E.02944
G1 X227.71 Y226.383 E.02964
G1 F2399.984
G1 X227.381 Y226.875 E.03237
G1 X226.881 Y227.375 E0.03867
G1 F2395.362
G1 X226.502 Y227.646 E.02554
G1 F2398.986
G1 X225.947 Y227.891 E.03321
G1 X225.353 Y228.012 E0.03316
G1 X220.515 Y228.012 Z.24 E.26477
G1 X215.677 Y228.012 Z.24 E.26477
G1 X210.839 Y228.012 Z.24 E.26478
G1 X206.001 Y228.012 Z.24 E.26477
G1 X201.164 Y228.012 Z.24 E.26477
G1 X196.326 Y228.012 Z.24 E.26477
G1 X191.488 Y228.012 Z.24 E.26477
G1 X186.65 Y228.012 Z.24 E.26477
G1 X181.812 Y228.012 Z.24 E.26478
G1 X176.974 Y228.012 Z.24 E.26477
G1 X172.136 Y228.012 Z.24 E.26477
G1 X167.298 Y228.012 Z.24 E.26477
G1 X162.46 Y228.012 Z.24 E.26477
G1 X157.623 Y228.012 Z.24 E.26477
G1 F2399.013
G1 X152.785 Y228.012 Z.24 E.26478
G1 X147.947 Y228.012 Z.24 E.26477
G1 X143.109 Y228.012 Z.24 E.26477
G1 X138.271 Y228.012 Z.24 E.26477
G1 X133.433 Y228.012 Z.24 E.26477
G1 X128.595 Y228.012 Z.24 E.26477
G1 X123.757 Y228.012 Z.24 E.26478
G1 X118.919 Y228.012 Z.24 E.26477
G1 X114.082 Y228.012 Z.24 E.26477
G1 X109.244 Y228.012 Z.24 E.26477
G1 X104.406 Y228.012 Z.24 E.26477
G1 X99.568 Y228.012 Z.24 E.26477
G1 X94.73 Y228.012 Z.24 E.26478
G1 X89.892 Y228.012 Z.24 E.26477
G1 X74.647 Y228.012 Z.24 E.83435
G1 X74.067 Y227.896 E0.03237
G1 X73.569 Y227.684 E.02963
G1 F2398.169
G1 X73.125 Y227.381 E.02943
G1 X72.625 Y226.881 E0.03867
G1 F2394.885
G1 X72.354 Y226.502 E.02554
G1 F2399.243
G1 X72.109 Y225.947 E.0332
G1 X71.988 Y225.353 E0.03316
G1 F2398.595
G1 X71.988 Y220.514 Z.24 E.26483
G1 X71.988 Y215.675 Z.24 E.26483
G1 X71.988 Y210.836 Z.24 E.26483
G1 X71.988 Y205.997 Z.24 E.26483
G1 X71.988 Y201.158 Z.24 E.26483
G1 X71.988 Y196.319 Z.24 E.26483
G1 X71.988 Y191.48 Z.24 E.26483
G1 X71.988 Y186.641 Z.24 E.26485
G1 X71.988 Y181.802 Z.24 E.26483
G1 F2399.039
G1 X71.988 Y176.963 Z.24 E.26483
G1 X71.988 Y172.124 Z.24 E.26483
G1 X71.988 Y167.285 Z.24 E.26483
G1 X71.988 Y162.446 Z.24 E.26483
G1 X71.988 Y157.607 Z.24 E.26483
G1 X71.988 Y152.768 Z.24 E.26483
G1 X71.988 Y147.929 Z.24 E.26483
G1 X71.988 Y143.09 Z.24 E.26483
G1 X71.988 Y138.251 Z.24 E.26483
G1 X71.988 Y133.412 Z.24 E.26483
G1 X71.988 Y128.573 Z.24 E.26483
G1 X71.988 Y123.734 Z.24 E.26483
G1 X71.988 Y118.895 Z.24 E.26485
G1 X71.988 Y114.056 Z.24 E.26483
G1 X71.988 Y109.217 Z.24 E.26483
G1 X71.988 Y104.378 Z.24 E.26483
G1 X71.988 Y99.539 Z.24 E.26483
G1 X71.988 Y94.7 Z.24 E.26483
G1 X71.988 Y89.861 Z.24 E.26483
G1 F2400
G1 X71.988 Y74.647 Z.24 E.83266
G1 F2398.775
G1 X72.088 Y74.119 E.02943
G1 X72.29 Y73.617 E.02963
G1 X72.586 Y73.175 E0.02909
M107
G1 X73.026 Y73.493 F60000
M107
G1 F2398.583
G1 X73.491 Y73.028 E.036
G1 F2395.498
G1 X73.746 Y72.844 E.01723
G1 X74.248 Y72.622 E0.02999
G1 F2391.685
G1 X74.674 Y72.537 E.02383
G1 F2400
G1 X85.05 Y72.537 Z.24 E.56787
G1 F2399.976
G1 X89.889 Y72.538 Z.24 E.26483
G1 X94.728 Y72.538 Z.24 E.26485
G1 X99.567 Y72.538 Z.24 E.26483
G1 X104.406 Y72.538 Z.24 E.26483
G1 X109.246 Y72.538 Z.24 E.26485
G1 X114.085 Y72.538 Z.24 E.26483
G1 X118.924 Y72.538 Z.24 E.26483
G1 X123.763 Y72.539 Z.24 E.26483
G1 X128.602 Y72.539 Z.24 E.26485
G1 X133.441 Y72.539 Z.24 E.26483
G1 X138.28 Y72.539 Z.24 E.26483
G1 X143.119 Y72.539 Z.24 E.26485
G1 X147.958 Y72.539 Z.24 E.26483
G1 X152.797 Y72.54 Z.24 E.26483
G1 X157.636 Y72.54 Z.24 E.26485
G1 X162.475 Y72.54 Z.24 E.26483
G1 X167.314 Y72.54 Z.24 E.26483
G1 X172.153 Y72.54 Z.24 E.26485
G1 X176.992 Y72.54 Z.24 E.26483
G1 X181.831 Y72.541 Z.24 E.26483
G1 X186.67 Y72.541 Z.24 E.26485
G1 F2398.97
G1 X191.51 Y72.541 Z.24 E.26483
G1 X196.349 Y72.541 Z.24 E.26483
G1 X201.188 Y72.541 Z.24 E.26483
G1 X206.027 Y72.541 Z.24 E.26485
G1 X210.866 Y72.542 Z.24 E.26483
G1 X215.705 Y72.542 Z.24 E.26483
G1 X220.544 Y72.542 Z.24 E.26485
G1 X225.383 Y72.542 Z.24 E.26483
G1 X225.756 Y72.624 E0.02089
G1 X226.254 Y72.844 E.02982
G1 X226.509 Y73.028 E.01723
G1 F2399.121
G1 X226.974 Y73.493 E.036
G1 X227.213 Y73.851 E0.02355
G1 X227.379 Y74.252 E.02374
G1 X227.463 Y74.674 E.02354
G1 X227.463 Y79.514 Z.24 E.26489
G1 X227.463 Y84.354 Z.24 E.26489
G1 X227.463 Y89.194 Z.24 E.26489
G1 X227.463 Y94.034 Z.24 E.26489
G1 X227.463 Y98.874 Z.24 E.26488
