; generated by SuperSlicer 2.5.59.10 on 2024-06-03 at 13:09:26 UTC


;
;

;
;
; 

; external perimeters extrusion width = 0.60mm
; perimeters extrusion width = 0.60mm
; infill extrusion width = 0.60mm
; solid infill extrusion width = 0.60mm
; top infill extrusion width = 0.60mm
; first layer extrusion width = 0.60mm

; object:{"name":"smart_compact_temp_calibration","id":"smart_compact_temp_calibration id:0 copy 0","object_center":[150.000000,149.800000,0.000000],"boundingbox_center":[150.000000,149.800000,25.000000],"boundingbox_size":[44.487499,5.400000,50.000000]}
EXCLUDE_OBJECT_DEFINE NAME=smart_compact_temp_calibration_id_0_copy_0 CENTER=150.000000,149.800000 POLYGON=[[127.76,148.91],[127.77,148.89],[127.80,148.86],[127.82,148.84],[127.87,148.79],[127.98,148.70],[128.00,148.68],[128.28,148.48],[128.38,148.42],[128.82,148.18],[128.87,148.16],[129.35,147.96],[129.48,147.92],[129.89,147.80],[130.01,147.77],[130.21,147.72],[130.24,147.71],[130.27,147.71],[130.41,147.68],[130.41,147.68],[130.45,147.67],[130.56,147.65],[130.59,147.64],[130.70,147.62],[130.83,147.60],[130.89,147.59],[131.10,147.57],[131.14,147.56],[131.19,147.56],[131.50,147.53],[131.53,147.53],[131.61,147.52],[131.65,147.52],[131.67,147.52],[138.75,147.10],[153.75,147.10],[172.24,147.50],[172.24,152.50],[132.21,152.50],[131.95,152.50],[131.85,152.49],[131.77,152.49],[131.71,152.49],[131.70,152.48],[131.66,152.48],[131.65,152.48],[131.61,152.48],[131.57,152.48],[131.53,152.47],[131.50,152.47],[131.30,152.45],[131.14,152.44],[131.10,152.43],[130.95,152.41],[130.84,152.40],[130.71,152.38],[130.59,152.36],[130.56,152.35],[130.52,152.35],[130.41,152.32],[130.36,152.31],[130.26,152.29],[130.24,152.29],[130.21,152.28],[130.02,152.24],[129.80,152.18],[129.56,152.11],[129.19,151.98],[129.15,151.96],[128.67,151.75],[128.64,151.73],[128.22,151.47],[128.21,151.47],[128.02,151.33],[127.90,151.23],[127.89,151.22],[127.83,151.17],[127.78,151.12],[127.76,151.10],[127.76,148.91]]
; plater:{"center":[150.000000,149.800000,0.000000],"boundingbox_center":[150.000000,149.800000,25.000000],"boundingbox_size":[44.487499,5.400000,50.000000]}

M107
;TYPE:Custom
START_PRINT EXTRUDER=250 BED=100
M107
G21 ; set units to millimeters
G90 ; use absolute coordinates
M83 ; use relative distances for extrusion
; Filament gcode
FILAMENT_START MATERIAL=ASA COLOR=#CDFCFF VENDOR=OVETURE
SET_PRESSURE_ADVANCE ADVANCE=0
M104 S250 ; set temperature
M109 S250 ; set temperature and wait for it to be reached
M190 S100 ; set bed temperature and wait for it to be reached
;LAYER_CHANGE
;Z:0.24
;HEIGHT:0.24
G1 E-1 F3600
G1 Z0.24 F60000
G92 E0
M204 S750
G1 X129.939 Y145.739
G1 E1 F3600
;TYPE:Skirt
;WIDTH:0.6
M107
G1 F2398.302
G1 X130.283 Y145.495 E.02655
G1 X130.665 Y145.322 E0.02636
G1 F2393.517
G1 X130.961 Y145.24 E.01937
G1 X132.192 Y145.177 E0.07756
G1 F2399.341
G1 X136.585 Y145.178 Z.24 E.27651
G1 X140.979 Y145.178 Z.24 E.27651
G1 X145.372 Y145.179 Z.24 E.27651
G1 F2398.914
G1 X149.765 Y145.18 Z.24 E.27651
G1 X154.158 Y145.181 Z.24 E.27651
G1 X158.552 Y145.181 Z.24 E.27651
G1 X162.945 Y145.182 Z.24 E.27651
G1 X163.318 Y145.264 E0.02402
G1 X163.816 Y145.484 E.03428
G1 F2396.122
G1 X164.071 Y145.668 E.01982
G1 X164.537 Y146.133 E0.0414
G1 F2399.104
G1 X164.776 Y146.491 E.02709
G1 X164.942 Y146.892 E.02732
G1 X165.026 Y147.314 E.02709
G1 X165.026 Y149.998 Z.24 E.16893
G1 X165.026 Y152.682 Z.24 E.16893
G1 X164.976 Y152.993 E.01982
G1 X164.779 Y153.501 E0.03428
G1 F2394.853
G1 X164.612 Y153.774 E.02017
G1 X164.071 Y154.332 E0.04886
G1 F2393.825
G1 X163.707 Y154.575 E.0276
G1 F2399.713
G1 X163.196 Y154.773 E.03449
G1 X162.885 Y154.823 E0.01982
G1 X158.496 Y154.823 Z.24 E.27623
G1 X154.107 Y154.823 Z.24 E.27623
G1 X149.718 Y154.823 Z.24 E.27623
G1 X145.329 Y154.823 Z.24 E.27623
G1 X140.94 Y154.823 Z.24 E.27623
G1 X136.551 Y154.823 Z.24 E.27623
G1 F2400
G1 X132.162 Y154.823 Z.24 E.27623
G1 F2399.661
G1 X131.018 Y154.769 E.0721
G1 F2396.156
G1 X130.665 Y154.678 E.02297
G1 X130.283 Y154.505 E0.02636
G1 F2398.313
G1 X129.939 Y154.261 E.02655
G1 F2397.962
G1 X129.426 Y153.709 E.04747
G1 F2399.832
G1 X129.267 Y153.441 E.01961
G1 F2398.543
G1 X129.081 Y152.945 E.03333
G1 X129.034 Y152.642 E0.01927
G1 F2396.296
G1 X129.034 Y150 Z.24 E.16629
G1 X129.034 Y147.358 Z.24 E.16629
G1 X129.081 Y147.055 E0.01927
G1 F2391.235
G1 X129.267 Y146.56 E.03333
G1 X129.426 Y146.291 E0.01961
G1 F2393.336
G1 X129.898 Y145.783 E.0437
M107
G1 X130.297 Y146.159 F60000
M107
G1 F2387.26
G1 X130.319 Y146.135 E.00206
G1 F2399.135
G1 X130.533 Y145.984 E.01648
G1 X130.87 Y145.831 E0.02327
G1 F2396.355
G1 X131.073 Y145.778 E.01322
G1 F2399.71
G1 X132.198 Y145.725 E.0709
G1 X162.915 Y145.731 E1.93324
G1 F2394.523
G1 X163.125 Y145.778 E.01357
G1 X163.524 Y145.949 E0.0273
G1 F2395.215
G1 X163.7 Y146.073 E.01357
G1 X164.13 Y146.502 E0.03822
G1 F2398.787
G1 X164.279 Y146.726 E.01694
G1 X164.425 Y147.077 E0.02393
G1 F2399.392
G1 X164.477 Y147.341 E.01694
G1 X164.477 Y152.659 E0.33467
G1 F2394.894
G1 X164.44 Y152.871 E.01357
G1 X164.279 Y153.274 E0.0273
G1 F2395.468
G1 X164.164 Y153.456 E.01357
G1 F2398.472
G1 X163.7 Y153.927 E.0416
G1 X163.476 Y154.077 E0.01694
G1 F2390.841
G1 X163.074 Y154.238 E.0273
G1 X162.861 Y154.275 E0.01357
G1 F2393.848
G1 X158.476 Y154.275 Z.24 E.27596
G1 F2394.795
G1 X154.092 Y154.275 Z.24 E.27596
G1 F2395.741
G1 X149.707 Y154.275 Z.24 E.27596
G1 F2396.688
G1 X145.323 Y154.274 Z.24 E.27596
G1 F2397.634
G1 X140.938 Y154.274 Z.24 E.27596
G1 F2398.58
G1 X136.554 Y154.274 Z.24 E.27596
G1 F2400
G1 X132.169 Y154.274 Z.24 E.27596
G1 F2399.798
G1 X131.073 Y154.222 E.06906
G1 F2397.151
G1 X130.87 Y154.169 E.01321
G1 X130.533 Y154.016 E0.02326
G1 F2398.585
G1 X130.319 Y153.865 E.01648
G1 F2396.016
G1 X129.879 Y153.398 E.04041
G1 X129.769 Y153.219 E0.0132
G1 F2393.882
G1 X129.617 Y152.826 E.02655
G1 X129.582 Y152.619 E0.0132
G1 F2397.356
G1 X129.582 Y150 Z.24 E.16485
G1 X129.582 Y147.381 Z.24 E.16485
G1 X129.617 Y147.174 E0.0132
G1 F2393.882
G1 X129.769 Y146.781 E.02655
G1 X129.879 Y146.602 E0.0132
G1 X130.256 Y146.202 E.03458
M107
G1 X130.651 Y146.581 F60000
M107
G1 F2385.035
G1 X130.697 Y146.533 E.00419
G1 F2396.872
G1 X130.783 Y146.472 E.00661
G1 F2381.295
G1 X131.072 Y146.342 E.01997
G1 X131.175 Y146.317 E0.00662
G1 F2388.059
G1 X132.204 Y146.274 E.06486
G1 F2397.137
G1 X136.58 Y146.274 Z.24 E.2754
G1 X140.955 Y146.274 Z.24 E.2754
G1 X145.331 Y146.274 Z.24 E.2754
G1 F2396.956
G1 X149.707 Y146.274 Z.24 E.2754
G1 X154.083 Y146.274 Z.24 E.2754
G1 X158.458 Y146.274 Z.24 E.2754
G1 X162.834 Y146.274 Z.24 E.2754
G1 X162.94 Y146.295 E.0068
G1 X163.242 Y146.42 E0.02053
G1 F2380.155
G1 X163.331 Y146.48 E.0068
G1 F2398.191
G1 X163.723 Y146.871 E.03483
G1 X163.783 Y146.961 E0.0068
G1 F2396.359
G1 X163.908 Y147.262 E.02053
G1 X163.929 Y147.368 E0.0068
G1 F2399.724
G1 X163.929 Y150 Z.24 E.16564
G1 X163.929 Y152.632 Z.24 E.16564
G1 X163.908 Y152.738 E0.0068
G1 F2396.359
G1 X163.783 Y153.039 E.02053
G1 X163.723 Y153.129 E0.0068
G1 F2398.191
G1 X163.331 Y153.52 E.03483
G1 F2380.155
G1 X163.242 Y153.58 E.0068
G1 X162.94 Y153.705 E0.02053
G1 F2396.499
G1 X162.834 Y153.726 E.0068
G1 X158.456 Y153.726 Z.24 E.27556
G1 X154.078 Y153.726 Z.24 E.27556
G1 F2397.138
G1 X149.7 Y153.726 Z.24 E.27556
G1 X145.321 Y153.726 Z.24 E.27556
G1 X140.943 Y153.726 Z.24 E.27556
G1 X136.565 Y153.726 Z.24 E.27556
G1 X132.187 Y153.726 Z.24 E.27556
G1 F2399.556
G1 X131.174 Y153.683 E.06376
G1 F2392.207
G1 X131.072 Y153.658 E.00662
G1 F2391.352
G1 X130.783 Y153.528 E.01996
G1 X130.697 Y153.467 E0.00661
G1 F2385.035
G1 X130.326 Y153.079 E.03383
G1 X130.269 Y152.99 E0.00661
G1 F2387.949
G1 X130.15 Y152.696 E.01996
G1 F2383.903
G1 X130.131 Y152.593 E.00661
G1 F2391.559
G1 X130.131 Y150 Z.24 E.1632
G1 X130.131 Y147.407 Z.24 E.1632
G1 F2383.903
G1 X130.15 Y147.304 E.00661
G1 F2387.949
G1 X130.269 Y147.01 E.01996
G1 X130.326 Y146.921 E0.00661
G1 F2388.743
G1 X130.61 Y146.624 E.02586
M107
G1 X131.006 Y147.004 F60000
M107
G1 F2399.729
G1 X131.057 Y146.95 E.00466
G1 F2388.87
G1 X131.25 Y146.863 E.01335
G1 F2398.074
G1 X132.21 Y146.822 E.06045
G1 X136.577 Y146.822 Z.24 E.27486
G1 F2397.668
G1 X140.944 Y146.822 Z.24 E.27486
G1 F2396.833
G1 X145.311 Y146.822 Z.24 E.27486
G1 F2395.997
G1 X149.679 Y146.822 Z.24 E.27486
G1 X154.046 Y146.822 Z.24 E.27486
G1 F2394.326
G1 X158.413 Y146.822 Z.24 E.27486
G1 F2393.073
G1 X162.78 Y146.822 Z.24 E.27486
G1 X162.982 Y146.906 E0.01373
G1 F2396.834
G1 X163.297 Y147.221 E.02803
G1 F2392.234
G1 X163.38 Y147.422 E.01373
G1 X163.38 Y152.578 E0.32447
G1 X163.297 Y152.779 E.01373
G1 F2396.834
G1 X162.982 Y153.094 E.02803
G1 X162.78 Y153.178 E0.01373
G1 F2393.524
G1 X158.412 Y153.178 Z.24 E.27492
G1 F2394.404
G1 X154.044 Y153.178 Z.24 E.27492
G1 F2395.284
G1 X149.676 Y153.178 Z.24 E.27492
G1 F2396.164
G1 X145.308 Y153.178 Z.24 E.27492
G1 F2397.044
G1 X140.94 Y153.178 Z.24 E.27492
G1 X136.572 Y153.178 Z.24 E.27492
G1 F2399.245
G1 X132.204 Y153.178 Z.24 E.27492
G1 X131.25 Y153.137 E0.06008
G1 F2393.462
G1 X131.057 Y153.05 E.01335
G1 X130.758 Y152.737 E0.02721
G1 F2399.34
G1 X130.679 Y152.54 E.01335
G1 F2392.65
G1 X130.679 Y150 Z.24 E.15989
G1 F2377.083
G1 X130.679 Y147.46 Z.24 E.15989
G1 X130.758 Y147.263 E.01335
G1 F2373.099
G1 X130.964 Y147.047 E.01878
M107
G1 X131.361 Y147.427 F60000
M107
G1 F2400
G1 X131.38 Y147.406 E0.00176
G1 F2375.851
G1 X132.213 Y147.371 E.05248
G1 F2383.561
G1 X136.564 Y147.371 Z.24 E.27386
G1 F2386.09
G1 X140.915 Y147.371 Z.24 E.27386
G1 F2388.619
G1 X145.266 Y147.371 Z.24 E.27386
G1 F2391.148
G1 X149.618 Y147.371 Z.24 E.27386
G1 F2393.677
G1 X153.969 Y147.371 Z.24 E.27386
G1 F2396.206
G1 X158.32 Y147.371 Z.24 E.27386
G1 F2400
G1 X162.671 Y147.371 Z.24 E.27386
G1 F2397.546
G1 X162.832 Y147.531 E.0143
G1 X162.832 Y152.469 E0.31074
G1 X162.671 Y152.629 E.0143
G1 X132.213 Y152.629 E1.91699
G1 X131.38 Y152.594 E.05248
G1 X131.228 Y152.434 E0.01387
G1 F2392.328
G1 X131.227 Y147.566 E.30644
G1 X131.319 Y147.47 E0.00833
M107
M104 S260 ; set temperature
; printing object smart_compact_temp_calibration id:0 copy 0
EXCLUDE_OBJECT_START NAME=smart_compact_temp_calibration_id_0_copy_0
G1 X131.802 Y147.963 F60000
;TYPE:External perimeter
;WIDTH:0.599999
M107
G1 F2400
G1 X131.802 Y152.037 E0.2564
G1 X132.232 Y152.055 E0.02707
G1 X162.257 Y152.055 E1.88978
G1 X162.257 Y147.945 E0.25868
G1 X132.222 Y147.945 E1.89037
G1 X131.862 Y147.961 E0.02272
M107
;WIPE_START
M204 S2000
G1 X132.007 Y148.307 F60000
;WIPE_END
G1 E-1 F3600
M204 S750
G1 X137.321 Y148.468 F60000
G1 X161.735 Y151.532
G1 X161.735 Y149.208
G1 X162.093 Y149.218
G1 E1 F3600
;TYPE:Solid infill
;WIDTH:0.551118
M107
G1 F2623.486
G1 X161.221 Y148.346 E.07132
G1 F2638.199
G1 X160.445 Y148.346 E.04482
G1 F2652.193
G1 X161.857 Y149.758 E.11542
G1 F2668.881
G1 X161.857 Y150.534 E.04484
G1 F2690.047
G1 X159.67 Y148.347 E.1788
G1 F2711.436
G1 X158.895 Y148.347 E.04482
G1 F2742.105
G1 X161.857 Y151.31 E.24218
G1 F2762.773
G1 X161.857 Y151.654 E.01993
G1 F2772.954
G1 X161.426 Y151.654 E.02492
G1 F2803.936
G1 X158.12 Y148.348 E.27031
G1 F2839.756
G1 X157.344 Y148.348 E.04482
G1 F2871.416
G1 X160.65 Y151.654 E.27024
G1 F2904.151
G1 X159.874 Y151.653 E.04487
G1 F2939.308
G1 X156.569 Y148.349 E.27016
G1 F2972.792
G1 X155.794 Y148.349 E.04482
G1 F2988.106
G1 X159.098 Y151.653 E.27009
G1 X158.321 Y151.652 E0.04487
G1 F2998.032
G1 X155.019 Y148.35 E.27001
G1 F2999.314
G1 X154.244 Y148.35 E.04482
G1 X157.545 Y151.652 E0.26994
G1 X156.769 Y151.651 E.04487
G1 X153.468 Y148.351 E0.26986
G1 X152.693 Y148.351 E.04482
G1 X155.993 Y151.651 E0.26978
G1 X155.217 Y151.65 E.04487
G1 X151.918 Y148.352 E0.26971
G1 X151.143 Y148.352 E.04482
G1 F2998.342
G1 X154.441 Y151.65 E.26963
G1 X153.664 Y151.65 E0.04487
G1 X150.367 Y148.352 E.26956
G1 X149.592 Y148.353 E.04482
G1 X152.888 Y151.649 E0.26948
G1 F2999.462
G1 X152.112 Y151.649 E.04487
G1 X148.817 Y148.353 E0.26941
G1 F2998.954
G1 X148.042 Y148.354 E.04482
G1 X151.336 Y151.648 E0.26933
G1 F2999.388
G1 X150.56 Y151.648 E.04487
G1 X147.266 Y148.354 E0.26926
G1 F2998.721
G1 X146.491 Y148.355 E.04482
G1 X149.784 Y151.647 E0.26918
G1 F2999.315
G1 X149.008 Y151.647 E.04487
G1 X145.716 Y148.355 E0.26911
G1 X144.941 Y148.356 E.04482
G1 X148.231 Y151.646 E.26903
G1 X147.455 Y151.646 E.04487
G1 F2998.512
G1 X144.166 Y148.356 E.26895
G1 X143.39 Y148.357 E0.04482
G1 X146.679 Y151.645 E.26888
G1 F2999.535
G1 X145.903 Y151.645 E.04487
G1 X142.615 Y148.357 E0.2688
G1 X141.84 Y148.358 E.04482
G1 X145.127 Y151.644 E0.26873
G1 X144.351 Y151.644 E.04487
G1 F2998.598
G1 X141.065 Y148.358 E.26865
G1 X140.289 Y148.358 E0.04482
G1 F2997.703
G1 X143.575 Y151.644 E.26858
G1 X142.798 Y151.643 E0.04487
G1 F2998.261
G1 X139.514 Y148.359 E.2685
G1 X138.739 Y148.359 E.04482
G1 X142.022 Y151.643 E0.26843
G1 F2999.534
G1 X141.246 Y151.642 E.04487
G1 X137.964 Y148.36 E0.26835
G1 X137.189 Y148.36 E.04482
G1 X140.47 Y151.642 E0.26828
G1 X139.694 Y151.641 E.04487
G1 X136.413 Y148.361 E0.2682
G1 F2998.739
G1 X135.638 Y148.361 E.04482
G1 X138.918 Y151.641 E.26813
G1 X138.141 Y151.64 E0.04487
G1 X134.863 Y148.362 E.26805
G1 F2999.361
G1 X134.088 Y148.362 E.04482
G1 X137.365 Y151.64 E0.26797
G1 X136.589 Y151.639 E.04487
G1 X133.312 Y148.363 E0.2679
G1 F2998.967
G1 X132.537 Y148.363 E.04482
G1 X135.813 Y151.639 E0.26782
G1 F2999.542
G1 X135.037 Y151.638 E.04487
G1 X132.202 Y148.804 E0.23176
G1 F2997.195
G1 X132.202 Y149.579 E.04484
G1 X134.261 Y151.638 E0.1683
G1 F2998.562
G1 X133.485 Y151.638 E.04487
G1 F2999.973
G1 X132.202 Y150.355 E.10485
G1 X132.202 Y151.131 E0.04484
G1 F2998.942
G1 X132.944 Y151.873 E.06068
M107
;LAYER_CHANGE
;Z:0.44
;HEIGHT:0.2
;WIPE_START
G1 F48000
M204 S2000
G1 X132.202 Y151.131 E-0.07479
G1 X132.202 Y150.355 E-0.05527
G1 X133.485 Y151.638 E-0.12922
G1 X134.261 Y151.638 E-0.0553
G1 X132.202 Y149.579 E-0.20743
G1 X132.202 Y148.804 E-0.05527
G1 X135.037 Y151.638 E-0.28563
G1 X135.813 Y151.639 E-0.0553
G1 X135.498 Y151.323 E-0.03179
;WIPE_END
G1 E-0.05 F3600
; stop printing object smart_compact_temp_calibration id:0 copy 0
EXCLUDE_OBJECT_END NAME=smart_compact_temp_calibration_id_0_copy_0
G1 Z0.44 F60000
G92 E0
M104 S240 ; set temperature
M140 S95 ; set bed temperature
M104 S260 ; set temperature
; printing object smart_compact_temp_calibration id:0 copy 0
EXCLUDE_OBJECT_START NAME=smart_compact_temp_calibration_id_0_copy_0
M204 S1000
G1 X135.498 Y151.856
G1 X133.133 Y151.856
G1 X131.528 Y152.218
G1 E1 F3600
;TYPE:External perimeter
;WIDTH:0.419999
M107
G1 F9875.5536
G1 X132.221 Y152.257 E0.02503
G1 X162.531 Y152.257 E1.09292
M107
;TYPE:Overhang perimeter
;HEIGHT:0.4
M107
M204 S2000
G1 X162.73 Y152.257 E0.00717
G1 X162.73 Y147.743 E0.16274
G1 X162.664 Y147.743 E0.00238
M107
;TYPE:External perimeter
;HEIGHT:0.2
M107
M204 S1000
G1 X132.221 Y147.743 E1.09771
G1 X131.528 Y147.782 E0.02503
M107
;TYPE:Overhang perimeter
M107
M204 S2000
G1 X131.421 Y147.788 E0.00386
G1 X131.421 Y152.212 E0.15952
G1 X131.468 Y152.215 E0.0017
M107
G1 E-1 F3600
G1 X131.822 Y149.117 F60000
G1 X131.963 Y147.872
G1 E1 F3600
;TYPE:Solid infill
;WIDTH:0.427812
M107
G1 F9597.77
G1 X131.711 Y148.125 E.01324
G1 X131.711 Y148.701 E0.0213
G1 F9615.205
G1 X132.379 Y148.033 E.03497
G1 F9612.762
G1 X132.954 Y148.033 E.0213
G1 X131.711 Y149.277 E0.06509
G1 F9614.748
G1 X131.711 Y149.852 E.0213
G1 F9617.479
G1 X133.53 Y148.033 E.09522
G1 X134.106 Y148.033 E0.0213
G1 F9614.461
G1 X131.711 Y150.428 E.12535
G1 X131.711 Y151.004 E0.0213
G1 F9613.839
G1 X134.681 Y148.033 E.15548
G1 X135.257 Y148.033 E0.0213
G1 F9616.621
G1 X133.484 Y149.807 Z.44 E.0928
G1 F9622.186
G1 X131.711 Y151.58 Z.44 E.0928
G1 F9606.938
G1 X131.711 Y151.938 E.01327
G1 F9596.199
G1 X131.916 Y151.95 E.00762
G1 X135.833 Y148.033 E0.20498
G1 F9612.569
G1 X136.408 Y148.033 E.0213
G1 F9620.326
G1 X134.441 Y150 Z.44 E.10294
G1 F9614.75
G1 X132.474 Y151.967 Z.44 E.10295
G1 X133.05 Y151.967 E0.0213
G1 X135.017 Y150 Z.44 E.10294
G1 X136.984 Y148.033 Z.44 E.10295
G1 X137.56 Y148.033 E0.0213
G1 X135.593 Y150 Z.44 E.10294
G1 X133.626 Y151.967 Z.44 E.10295
G1 X134.202 Y151.967 E0.0213
G1 F9616.8
G1 X136.169 Y150 Z.44 E.10294
G1 F9622.186
