; generated by SuperSlicer 2.5.59.10 on 2024-06-05 at 16:18:47 UTC


;
;

;
;
; 

; external perimeters extrusion width = 0.40mm
; perimeters extrusion width = 0.40mm
; infill extrusion width = 0.40mm
; solid infill extrusion width = 0.40mm
; top infill extrusion width = 0.40mm

; external perimeters extrusion width = 0.40mm
; perimeters extrusion width = 0.40mm
; infill extrusion width = 0.40mm
; solid infill extrusion width = 0.40mm
; top infill extrusion width = 0.40mm

; external perimeters extrusion width = 0.40mm
; perimeters extrusion width = 0.40mm
; infill extrusion width = 0.40mm
; solid infill extrusion width = 0.40mm
; top infill extrusion width = 0.40mm

; object:{"name":"x_endstop_block_PLUS","id":"x_endstop_block_PLUS.stl id:0 copy 0","object_center":[141.850126,142.301684,0.000000],"boundingbox_center":[141.850126,142.301684,8.925000],"boundingbox_size":[12.000000,14.500000,17.850000]}
; object:{"name":"a_FlangeSpacer_pair","id":"a_FlangeSpacer_pair.stl id:1 copy 0","object_center":[137.145305,159.750001,0.000000],"boundingbox_center":[137.145305,159.750001,4.925000],"boundingbox_size":[21.990849,10.396465,9.850000]}
; object:{"name":"a_Xjoint_8mm_Idler_Spacers","id":"a_Xjoint_8mm_Idler_Spacers.stl id:2 copy 0","object_center":[163.372637,149.865056,0.000000],"boundingbox_center":[163.372637,149.865056,6.425000],"boundingbox_size":[21.000000,20.999268,12.850000]}
; plater:{"center":[150.011259,149.999959,0.000000],"boundingbox_center":[150.011259,149.999959,8.925000],"boundingbox_size":[47.722756,29.896550,17.850000]}

M107
M140 S100 ; set bed temperature
M104 S245 T0 ; set temperature
;TYPE:Custom
START_PRINT EXTRUDER=245 BED=100
M107
G21 ; set units to millimeters
G90 ; use absolute coordinates
T0
; Filament gcode
FILAMENT_START MATERIAL=ASA COLOR=#F4DDFF VENDOR=OVETURE
SET_PRESSURE_ADVANCE ADVANCE=0.045
M109 S245 T0 ; set temperature and wait for it to be reached
M190 S100 ; set bed temperature and wait for it to be reached
;LAYER_CHANGE
;Z:0.24
;HEIGHT:0.24
G1 Z0.24 F60000
G92 E0
G1 X132.869 Y130.914
;TYPE:Skirt
;WIDTH:0.4
M107
G1 F3000
M204 S1500
G1 X131.527 Y132.762
G1 X120.762 Y154.858
G1 X120.253 Y156.072
G1 X119.924 Y157.16
G1 X119.717 Y158.226
G1 X119.585 Y159.733
G1 X119.639 Y161.033
G1 X119.849 Y162.416
G1 X120.34 Y164.053
G1 X120.853 Y165.215
G1 X121.664 Y166.559
G1 X122.308 Y167.404
G1 X123.09 Y168.243
G1 X123.937 Y168.99
G1 X125.525 Y170.054
G1 X127.249 Y170.837
G1 X128.574 Y171.221
G1 X129.411 Y171.384
G1 X130.194 Y171.475
G1 X131.632 Y171.505
G1 X143.719 Y171.105
G1 X144.853 Y170.992
G1 X171.673 Y166.692
G1 X172.983 Y166.328
G1 X174.093 Y165.876
G1 X175.349 Y165.181
G1 X176.447 Y164.377
G1 X177.212 Y163.678
G1 X178.01 Y162.786
G1 X178.553 Y162.045
G1 X179.189 Y160.978
G1 X179.708 Y159.815
G1 X180.046 Y158.79
G1 X180.299 Y157.619
G1 X180.425 Y156.427
G1 X180.441 Y143.865
G1 X180.328 Y142.316
G1 X179.947 Y140.599
G1 X179.466 Y139.325
G1 X178.731 Y137.958
G1 X177.861 Y136.763
G1 X176.75 Y135.615
G1 X175.349 Y134.55
G1 X173.946 Y133.787
G1 X172.219 Y133.17
G1 X146.39 Y128.583
G1 X145.252 Y128.483
G1 X138.448 Y128.483
G1 X135.164 Y129.363
G1 X134.148 Y129.95
G1 X132.917 Y130.878
M107
M204 S8000
G1 X133.155 Y131.123 F60000
M107
G1 F3000
M204 S1500
G1 X131.841 Y132.914
G1 X121.075 Y155.011
G1 X120.58 Y156.192
G1 X120.264 Y157.24
G1 X120.062 Y158.269
G1 X119.933 Y159.745
G1 X119.987 Y161.01
G1 X120.189 Y162.337
G1 X120.662 Y163.921
G1 X121.161 Y165.052
G1 X121.954 Y166.367
G1 X122.578 Y167.184
G1 X123.33 Y167.991
G1 X124.159 Y168.721
G1 X125.69 Y169.747
G1 X127.369 Y170.511
G1 X128.643 Y170.879
G1 X129.465 Y171.039
G1 X130.228 Y171.128
G1 X131.621 Y171.156
G1 X143.704 Y170.756
G1 X144.798 Y170.648
G1 X171.598 Y166.351
G1 X172.872 Y165.997
G1 X173.947 Y165.56
G1 X175.159 Y164.889
G1 X176.226 Y164.108
G1 X176.964 Y163.434
G1 X177.737 Y162.57
G1 X178.261 Y161.855
G1 X178.881 Y160.814
G1 X179.38 Y159.698
G1 X179.708 Y158.703
G1 X179.954 Y157.569
G1 X180.077 Y156.414
G1 X180.092 Y143.865
G1 X179.984 Y142.373
G1 X179.615 Y140.704
G1 X179.147 Y139.466
G1 X178.439 Y138.149
G1 X177.49 Y136.865
G1 X176.397 Y135.769
G1 X174.969 Y134.723
G1 X173.594 Y134.012
G1 X171.974 Y133.467
G1 X146.33 Y128.926
G1 X145.252 Y128.832
G1 X138.448 Y128.832
G1 X135.338 Y129.665
G1 X134.322 Y130.252
G1 X133.203 Y131.087
M107
M204 S8000
G1 X133.44 Y131.334 F60000
M107
G1 F3000
M204 S1500
G1 X132.154 Y133.067
G1 X121.388 Y155.164
G1 X121.043 Y155.948
G1 X120.711 Y156.919
G1 X120.454 Y158.01
G1 X120.293 Y159.429
G1 X120.334 Y160.988
G1 X120.528 Y162.258
G1 X120.985 Y163.788
G1 X121.469 Y164.889
G1 X122.245 Y166.174
G1 X122.848 Y166.964
G1 X123.57 Y167.738
G1 X124.38 Y168.452
G1 X125.855 Y169.44
G1 X127.49 Y170.184
G1 X128.712 Y170.538
G1 X129.519 Y170.695
G1 X130.262 Y170.781
G1 X131.609 Y170.808
G1 X143.69 Y170.408
G1 X144.743 Y170.303
G1 X171.523 Y166.011
G1 X172.761 Y165.667
G1 X173.992 Y165.151
G1 X175.105 Y164.508
G1 X176.246 Y163.63
G1 X176.974 Y162.921
G1 X177.693 Y162.057
G1 X178.313 Y161.121
G1 X178.714 Y160.367
G1 X179.051 Y159.581
G1 X179.452 Y158.301
G1 X179.656 Y157.197
G1 X179.728 Y156.402
G1 X179.744 Y143.865
G1 X179.64 Y142.429
G1 X179.283 Y140.809
G1 X178.828 Y139.606
G1 X178.147 Y138.339
G1 X177.225 Y137.09
G1 X176.167 Y136.03
G1 X174.789 Y135.021
G1 X173.459 Y134.334
G1 X171.887 Y133.804
G1 X146.27 Y129.269
G1 X145.252 Y129.18
G1 X138.448 Y129.18
G1 X135.513 Y129.967
G1 X134.496 Y130.554
G1 X133.488 Y131.298
M107
M204 S8000
G1 X133.723 Y131.546 F60000
M107
G1 F3000
M204 S1500
G1 X132.467 Y133.219
G1 X121.701 Y155.316
G1 X121.234 Y156.433
G1 X120.942 Y157.398
G1 X120.754 Y158.357
G1 X120.63 Y159.767
G1 X120.682 Y160.965
G1 X120.931 Y162.451
G1 X121.307 Y163.656
G1 X121.944 Y165.041
G1 X122.66 Y166.162
G1 X123.39 Y167.052
G1 X124.602 Y168.183
G1 X125.507 Y168.824
G1 X126.339 Y169.305
G1 X127.914 Y169.959
G1 X129.618 Y170.358
G1 X130.297 Y170.434
G1 X131.598 Y170.46
G1 X143.989 Y170.038
G1 X171.448 Y165.671
G1 X172.649 Y165.337
G1 X173.834 Y164.84
G1 X174.914 Y164.216
G1 X176.011 Y163.373
G1 X176.717 Y162.685
G1 X177.411 Y161.851
G1 X178.011 Y160.947
G1 X178.534 Y159.925
G1 X178.887 Y159.005
G1 X179.182 Y157.922
G1 X179.347 Y156.85
G1 X179.392 Y156.065
G1 X179.395 Y143.865
G1 X179.296 Y142.485
G1 X178.951 Y140.915
G1 X178.427 Y139.567
G1 X177.677 Y138.257
G1 X176.826 Y137.165
G1 X175.784 Y136.162
G1 X174.47 Y135.236
G1 X173.174 Y134.592
G1 X171.8 Y134.141
G1 X146.209 Y129.613
G1 X145.252 Y129.529
G1 X138.448 Y129.529
G1 X135.687 Y130.269
G1 X134.671 Y130.856
G1 X133.772 Y131.511
M107
M204 S8000
G1 X134.006 Y131.761 F60000
M107
G1 F3000
M204 S1500
G1 X132.781 Y133.372
G1 X122.015 Y155.469
G1 X121.377 Y157.125
G1 X121.128 Y158.204
G1 X120.978 Y159.779
G1 X121.03 Y160.942
G1 X121.264 Y162.345
G1 X121.628 Y163.519
G1 X122.252 Y164.878
G1 X122.943 Y165.958
G1 X123.643 Y166.813
G1 X124.824 Y167.914
G1 X125.702 Y168.535
G1 X126.504 Y168.998
G1 X128.015 Y169.625
G1 X129.672 Y170.014
G1 X130.331 Y170.088
G1 X131.586 Y170.111
G1 X143.955 Y169.691
G1 X171.373 Y165.33
G1 X172.538 Y165.007
G1 X173.676 Y164.529
G1 X174.724 Y163.924
G1 X175.776 Y163.115
G1 X176.459 Y162.45
G1 X177.13 Y161.645
G1 X177.71 Y160.772
G1 X178.218 Y159.779
G1 X178.559 Y158.888
G1 X178.84 Y157.853
G1 X178.999 Y156.818
G1 X179.044 Y156.052
G1 X179.047 Y143.865
G1 X178.952 Y142.542
G1 X178.619 Y141.02
G1 X178.113 Y139.719
G1 X177.385 Y138.447
G1 X176.569 Y137.4
G1 X175.564 Y136.432
G1 X174.29 Y135.535
G1 X173.04 Y134.914
G1 X171.713 Y134.479
G1 X146.149 Y129.956
G1 X145.252 Y129.877
G1 X138.448 Y129.877
G1 X135.861 Y130.571
G1 X134.845 Y131.157
G1 X134.055 Y131.726
M107
;WIPE_START
G1 F48000
M204 S8000
G1 X134.845 Y131.157 -0.06933
G1 X135.861 Y130.571 -0.0836
G1 X138.448 Y129.877 -0.19083
G1 X145.252 Y129.877 -0.48477
G1 X146.149 Y129.956 -0.06414
G1 X146.941 Y130.096 -0.05732
;WIPE_END
; printing object x_endstop_block_PLUS.stl id:0 copy 0
G1 X138.544 Y135.257 F60000
;TYPE:External perimeter
M107
G1 F3000
M204 S3000
G1 X145.156 Y135.257
G1 X147.074 Y144.116
G1 X144.821 Y146.916
G1 X138.879 Y146.916
G1 X136.626 Y144.116
G1 X138.532 Y135.315
M107
;WIPE_START
M204 S8000
G1 X138.876 Y135.481 F60000
;WIPE_END
G1 X138.825 Y135.605
;TYPE:Internal perimeter
M107
G1 F3000
M204 S3000
G1 X144.875 Y135.605
G1 X146.698 Y144.027
G1 X144.654 Y146.567
G1 X139.046 Y146.567
G1 X137.002 Y144.027
G1 X138.813 Y135.664
M107
M204 S8000
G1 X139.107 Y135.954 F60000
M107
G1 F3000
M204 S3000
G1 X144.594 Y135.954
G1 X146.322 Y143.938
G1 X144.487 Y146.219
G1 X139.213 Y146.219
G1 X137.378 Y143.938
G1 X139.094 Y136.012
M107
M204 S8000
G1 X139.388 Y136.302 F60000
M107
G1 F3000
M204 S3000
G1 X144.313 Y136.302
G1 X145.947 Y143.849
G1 X144.321 Y145.87
G1 X139.38 Y145.87
G1 X137.754 Y143.849
G1 X139.375 Y136.361
M107
M204 S8000
G1 X143.205 Y139.132 F60000
G1 X143.673 Y139.569
G1 X144.112 Y140.418
G1 X144.199 Y141.052
G1 X144.105 Y141.706
G1 X143.801 Y141.598
;TYPE:External perimeter
M107
G1 F3000
M204 S3000
G1 X143.857 Y141.328
G1 X143.876 Y141.052
G1 X143.857 Y140.776
G1 X143.801 Y140.505
G1 X143.708 Y140.245
G1 X143.581 Y139.999
G1 X143.422 Y139.773
G1 X143.233 Y139.571
G1 X143.018 Y139.397
G1 X142.782 Y139.253
G1 X142.529 Y139.143
G1 X142.262 Y139.068
G1 X141.988 Y139.031
G1 X141.712 Y139.031
G1 X141.438 Y139.068
G1 X141.172 Y139.143
G1 X140.918 Y139.253
G1 X140.682 Y139.397
G1 X140.467 Y139.571
G1 X140.279 Y139.773
G1 X140.119 Y139.999
G1 X139.992 Y140.245
G1 X139.899 Y140.505
G1 X139.843 Y140.776
G1 X139.824 Y141.052
G1 X139.843 Y141.328
G1 X139.899 Y141.598
G1 X139.992 Y141.859
G1 X140.119 Y142.104
G1 X140.279 Y142.33
G1 X140.467 Y142.532
G1 X140.682 Y142.707
G1 X140.918 Y142.85
G1 X141.172 Y142.96
G1 X141.438 Y143.035
G1 X141.712 Y143.073
G1 X141.988 Y143.073
G1 X142.262 Y143.035
G1 X142.529 Y142.96
G1 X142.782 Y142.85
G1 X143.018 Y142.707
G1 X143.233 Y142.532
G1 X143.422 Y142.33
G1 X143.581 Y142.104
G1 X143.708 Y141.859
G1 X143.781 Y141.655
M107
;WIPE_START
M204 S8000
G1 X144.186 Y141.49 F60000
;WIPE_END
G1 X144.13 Y141.713
;TYPE:Internal perimeter
M107
G1 F3000
M204 S3000
G1 X144.137 Y141.692
G1 X144.203 Y141.375
G1 X144.225 Y141.052
G1 X144.203 Y140.728
G1 X144.137 Y140.411
G1 X144.029 Y140.105
G1 X143.879 Y139.818
G1 X143.692 Y139.553
G1 X143.471 Y139.316
G1 X143.22 Y139.111
G1 X142.943 Y138.943
G1 X142.645 Y138.814
G1 X142.333 Y138.726
G1 X142.012 Y138.682
G1 X141.688 Y138.682
G1 X141.367 Y138.726
G1 X141.055 Y138.814
G1 X140.757 Y138.943
G1 X140.48 Y139.111
G1 X140.229 Y139.316
G1 X140.008 Y139.553
G1 X139.821 Y139.818
G1 X139.672 Y140.105
G1 X139.563 Y140.411
G1 X139.497 Y140.728
G1 X139.475 Y141.052
G1 X139.497 Y141.375
G1 X139.563 Y141.692
G1 X139.672 Y141.998
G1 X139.821 Y142.286
G1 X140.008 Y142.551
G1 X140.229 Y142.787
G1 X140.48 Y142.992
G1 X140.757 Y143.16
G1 X141.055 Y143.29
G1 X141.367 Y143.377
G1 X141.688 Y143.421
G1 X142.012 Y143.421
G1 X142.333 Y143.377
G1 X142.645 Y143.29
G1 X142.943 Y143.16
G1 X143.22 Y142.992
G1 X143.471 Y142.787
G1 X143.692 Y142.551
G1 X143.879 Y142.286
G1 X144.029 Y141.998
G1 X144.11 Y141.769
M107
M204 S8000
G1 X144.459 Y141.827 F60000
M107
G1 F3000
M204 S3000
G1 X144.473 Y141.787
G1 X144.549 Y141.423
G1 X144.575 Y141.052
G1 X144.549 Y140.681
G1 X144.473 Y140.317
G1 X144.349 Y139.966
G1 X144.178 Y139.636
G1 X143.963 Y139.332
G1 X143.71 Y139.061
G1 X143.421 Y138.826
G1 X143.103 Y138.633
G1 X142.762 Y138.485
G1 X142.404 Y138.384
G1 X142.036 Y138.334
G1 X141.664 Y138.334
G1 X141.296 Y138.384
G1 X140.938 Y138.485
G1 X140.597 Y138.633
G1 X140.279 Y138.826
G1 X139.991 Y139.061
G1 X139.737 Y139.332
G1 X139.522 Y139.636
G1 X139.351 Y139.966
G1 X139.227 Y140.317
G1 X139.151 Y140.681
G1 X139.126 Y141.052
G1 X139.151 Y141.423
G1 X139.227 Y141.787
G1 X139.351 Y142.137
G1 X139.522 Y142.467
G1 X139.737 Y142.771
G1 X139.991 Y143.043
G1 X140.279 Y143.277
G1 X140.597 Y143.471
G1 X140.938 Y143.619
G1 X141.296 Y143.719
G1 X141.664 Y143.77
G1 X142.036 Y143.77
G1 X142.404 Y143.719
G1 X142.762 Y143.619
G1 X143.103 Y143.471
G1 X143.421 Y143.277
G1 X143.71 Y143.043
G1 X143.963 Y142.771
G1 X144.178 Y142.467
G1 X144.349 Y142.137
G1 X144.439 Y141.884
M107
M204 S8000
G1 X144.788 Y141.942 F60000
M107
G1 F3000
M204 S3000
G1 X144.81 Y141.881
G1 X144.895 Y141.47
G1 X144.924 Y141.052
G1 X144.895 Y140.633
G1 X144.81 Y140.222
G1 X144.669 Y139.827
G1 X144.476 Y139.455
G1 X144.234 Y139.112
G1 X143.948 Y138.805
G1 X143.623 Y138.541
G1 X143.264 Y138.323
G1 X142.879 Y138.155
G1 X142.475 Y138.042
G1 X142.06 Y137.985
G1 X141.64 Y137.985
G1 X141.225 Y138.042
G1 X140.821 Y138.155
G1 X140.436 Y138.323
G1 X140.078 Y138.541
G1 X139.752 Y138.805
G1 X139.466 Y139.112
G1 X139.224 Y139.455
G1 X139.031 Y139.827
G1 X138.89 Y140.222
G1 X138.805 Y140.633
G1 X138.776 Y141.052
G1 X138.805 Y141.47
G1 X138.89 Y141.881
G1 X139.031 Y142.276
G1 X139.224 Y142.649
G1 X139.466 Y142.991
G1 X139.752 Y143.298
G1 X140.078 Y143.563
G1 X140.436 Y143.781
G1 X140.821 Y143.948
G1 X141.225 Y144.061
G1 X141.64 Y144.118
G1 X142.06 Y144.118
G1 X142.475 Y144.061
G1 X142.879 Y143.948
G1 X143.264 Y143.781
G1 X143.623 Y143.563
G1 X143.948 Y143.298
G1 X144.234 Y142.991
G1 X144.476 Y142.649
G1 X144.669 Y142.276
G1 X144.768 Y141.998
M107
M204 S8000
G1 X144.266 Y138.615 F60000
M107
G1 F3000
M204 S3000
G1 X143.824 Y138.255
G1 X143.425 Y138.012
G1 X142.996 Y137.826
G1 X142.547 Y137.7
G1 X142.084 Y137.637
G1 X141.617 Y137.637
G1 X141.154 Y137.7
G1 X140.704 Y137.826
G1 X140.275 Y138.012
G1 X139.876 Y138.255
G1 X139.434 Y138.615
G1 X139.266 Y138.511
G1 X139.669 Y136.651
G1 X144.031 Y136.651
G1 X144.434 Y138.511
G1 X144.317 Y138.583
M107
M204 S8000
G1 X145.041 Y142.271 F60000
M107
G1 F3000
M204 S3000
G1 X145.251 Y142.284
G1 X145.571 Y143.76
G1 X144.154 Y145.522
G1 X139.547 Y145.522
G1 X138.129 Y143.76
G1 X138.449 Y142.284
G1 X138.659 Y142.271
G1 X138.711 Y142.415
G1 X138.925 Y142.83
G1 X139.195 Y143.212
G1 X139.514 Y143.553
G1 X139.876 Y143.848
G1 X140.275 Y144.091
G1 X140.704 Y144.277
G1 X141.154 Y144.403
G1 X141.617 Y144.467
G1 X142.084 Y144.467
G1 X142.547 Y144.403
G1 X142.996 Y144.277
G1 X143.425 Y144.091
G1 X143.824 Y143.848
G1 X144.187 Y143.553
G1 X144.505 Y143.212
G1 X144.775 Y142.83
G1 X144.99 Y142.415
G1 X145.021 Y142.327
M107
M204 S8000
G1 X145.165 Y142.104 F60000
;TYPE:Gap fill
;WIDTH:0.491057
M107
G1 F3000
M204 S3000
G1 X145.165 Y142.039
M107
;WIDTH:0.420547
M107
G1 X145.165 Y141.854
M107
;WIDTH:0.381275
M107
G1 X145.164 Y141.786
M107
;WIDTH:0.347393
M107
G1 X145.164 Y141.718
M107
;WIDTH:0.313511
M107
G1 X145.164 Y141.65
M107
;WIDTH:0.279629
M107
G1 X145.164 Y141.582
M107
;WIDTH:0.245383
M107
G1 X145.156 Y141.411
M107
;WIDTH:0.209704
M107
G1 X145.15 Y141.322
M107
;WIDTH:0.178293
M107
G1 X145.143 Y141.233
M107
;WIDTH:0.100338
M107
G1 X145.115 Y140.946
M107
M204 S8000
G1 X144.893 Y142.844 F60000
;TYPE:Solid infill
;WIDTH:0.335351
M107
G1 F3000
M204 S3000
G1 X145.173 Y143.123
G1 X145.296 Y143.695
G1 X145.277 Y143.72
G1 X144.797 Y143.24
G1 X144.574 Y143.511
G1 X145.057 Y143.993
G1 X144.837 Y144.266
G1 X144.333 Y143.762
G1 X144.061 Y143.983
G1 X144.618 Y144.539
G1 X144.398 Y144.813
G1 X143.766 Y144.181
G1 X143.45 Y144.357
G1 X144.178 Y145.086
G1 X144.032 Y145.268
G1 X143.867 Y145.268
G1 X143.106 Y144.507
G1 X142.724 Y144.617
G1 X143.374 Y145.268
G1 X142.882 Y145.268
G1 X142.307 Y144.693
G1 X142.101 Y144.721
G1 X141.842 Y144.721
G1 X142.389 Y145.268
G1 X141.896 Y145.268
G1 X141.31 Y144.681
G1 X141.102 Y144.653
G1 X140.666 Y144.531
G1 X141.403 Y145.268
G1 X140.91 Y145.268
G1 X138.57 Y142.927
G1 X138.482 Y143.333
G1 X140.417 Y145.268
G1 X139.924 Y145.268
G1 X138.269 Y143.612
M107
M204 S8000
G1 X138.535 Y142.104 F60000
;TYPE:Gap fill
;WIDTH:0.491046
M107
G1 F3000
M204 S3000
G1 X138.535 Y142.039
M107
;WIDTH:0.420539
M107
G1 X138.536 Y141.854
M107
;WIDTH:0.381274
M107
G1 X138.536 Y141.786
M107
;WIDTH:0.347393
M107
G1 X138.536 Y141.718
M107
;WIDTH:0.313511
M107
G1 X138.536 Y141.65
M107
;WIDTH:0.27963
M107
G1 X138.537 Y141.582
M107
;WIDTH:0.245385
M107
G1 X138.544 Y141.411
M107
;WIDTH:0.209703
M107
G1 X138.55 Y141.322
M107
;WIDTH:0.178292
M107
G1 X138.557 Y141.233
M107
;WIDTH:0.100338
M107
